-----BEGIN PGP MESSAGE-----

hF4DF2qV2COUuCcSAQdA8U9g/LoyqQmeQt1dneSZR62Y+PNGe4pCYnW2bzneuQkw
FDoeYZ6lHuGe6ymTEXK4XCw10Nm/djJp2H7MoqxoztGbUOdwl6mR/i22fLYva5G2
0uwB0OB5HzBgEUrEaG7jFHpjsIcfPYAg+k2NB05NWNxu8dk2B7QxZR8kyj6zHSPn
5Ufuu3xCt+Uku/fbwknU8cKX5LnrhsspYsCGU+0m+kF9X5SgH/+VAKzHMSACeAlB
VKpQkhMZSoC0f9pShLv4AoxkZfDQpRajUQpPvm1KBOlC4kPdI9FPDfeEvUMMN0R+
KnuH0hdJ+dHkk1gphwqvaLiD7ATcEnT7yBQmF6u2Cwdlr7YP807XQt80oSbd3uwx
h/PWqmlTI6Ip/OcAffzRGYZXD3Kto2LWVF7iIAQ88MZkPD/c2Si1Pt7u5IjLuCGT
udz2lqSBbe3ZAWNIx+eQypu3O7oESLGPcoTHfRHn8B4ef+Dm7+fkujUSVAvEhNJy
OIg4ru+sqMIwx+/BG23joZr4BGYEflSo2ELDL01UM9k5SbpWuzOqy4HK1A6o9zeE
j0HKbGlrI42bP4malfBYXJQ8q896Z1RtTa4obYjISYsMoSFxMNqkXqLugWioqjFJ
hBwj5yXvK3LWPk5JxN5/NLMafpoUkKugSIMPEdXkLZHaEjw0lvfv+2RBxYaQNoaA
bapt0QfS2FD6eQnAs1piSaJN65qTMIMmCaGdZz+YCRZSn2MfWfEu5qJBNDslvxRI
Db3Fg3ISyddcUWpAlcrpT4bCZklc6qBiaPgEfh8wQiozoCYDWPKMJGwsVr1Kjk5c
RAIeA9Ma0wtLjD57jI4zHbcRpogpH338ffGIkNbCN04BHKNtmfDRRly0ftNPFqDk
zKTVWwg8s3UxTBohEyYj4mHnfOnwQqve/hhJZ5FdtavkED8MT7qBluHdban1BSkb
0HpxHyw/7dAUC2dD6iBBqcxRDVB0HEyC2mhmxHwpqjgX8duEwVbPDZ7sBmJpZMWE
SDESwR64eyjDenOzS7nqUJViTt9usA6WWQPhtN81aUi7jWdAnhxVnkOOYhq8xWYs
Ib1SGxdqxbtIm/jqz7iD798vQELrud5HfpcpcJYhMvIVEYcocPFJDpmu6k9Po82H
KXiSsiXvZMiJT9j1fcT72uxtJeqCmsqqsv/aW3l3phlHfMinGOa7PMb6QprxIpKZ
D/UVnxE+/DUT/6KnsiR8e/q+psTZoG8/JzOqawRtZKDVkoJXWbIAs59wcFq7bSdm
wONYMVar3544eHGeI2gejGr3iy/S3Y0IZ8YKGJVoHcxgLPM+9t+0kNTp/wbn+CWG
Upl9e7Y1R60UQfzPj7jlZPxQhJg5rgupiO3MAPHABFogJa3ZKbQGsl26yaroPHMi
9OzzAtKkYhXOE/HEaIOJ1coRCR0V31pdcSu9D78P/6VnWZU1Knl2olYNwnJEdL5G
VWFrk48zDHlBERLzthUX5/ccqQzPnAXQ0yiI7JDwxoVIlFhJpLKoSQohGtGEw4Lh
6KRi+rSXJ3qZvtKBpkw+Qn4i+2VLxP8mbUBYho7qQEXFgpiKiB+OXH2W7tfousrs
m9KVJH8HuzgbL5KvyRABBktB37iRjm6VaKmdPcwF3LY63C6ZYho1LAumYaYPmmmt
4SWzFMqqInbn5kRxXvZ81drOGYl7XKH0qRtmFFmvHk+4kdxP3YZbLIC+Hm/wqUKZ
ApzORGPBBmHDg8PwSesL8cBbLPDTzoUi3j++Ft2Eo9CBMNyf6ET2wv3IGm/QrTBw
1r5jrG0SLqM5afz1SGONjdIV3MpLybRsyz6KOnsHV8txXEptSdwixD0w3DuN74R+
+M/c6JsJHzqAKdl1NOTbZX+5lrhO3082xYv5lWrSAaGVM/KK/vks4p1VIUjyuiw7
x8VlxT4C5MYrkOGp9fVl8hc0lhc5dTyugFdfJa8BJnshiw/4MM1GtZzLho6A6GWm
DE0Gc9YHQW5HjfnXa/eqyYXZfJ6b1QKJFsByjIEGZQDSL1vrtRUmW2rL7TCHV2JX
JcRTbCko5XiGKDfQvZilsGHvNNDBIp+iDOjYB4EAAOL3muOhGoDYks4pZy7dAUoF
DOcLJc+2nOMg3Yn8oQCmBOHGeMdfC2I54LYMfGkov5OgBSUSfmOL+GIb/45/cOMK
J5Qy5e6xal8tfK4q4V+Bq50fNvUKpux2P6dMUZYR5m2NZIDGUXzvR6jG6GCdNixS
2vEp8LyvhVnI1M76aAXYei+7LTnE5hzgqoEBsrqbT+ScqrCpV65seBH+UcKYY3nf
t5YrwOalFMcCWEOUlyNC0DoV7MuIuseBewnIe20+GuqjLi2PLPpmExpZRXflDatv
BLEwkLc2NoXl0ferxM8BO2/GtMGrrDkx2kt9PFcImMs6CFnTIXke2wLs3bCpcO0R
VhIshw64cQn8TjvLXJiyx01Pysg8UyYHF2Jk1NAcrV7lblBnRpTMiDcfCjJTDBYy
ekGErlUM16yvg38rCO7jXdyTilMbijGy624cPADanWsFFD0pbSwLg4tbwXD0FfNW
veoaIKDPGGQLpmtytPXv1SEJ2aL8OYkmEqVf9hbh2dPjWE4FqRy+9zzCHnPfe2oj
he63Px9NW+6QL0+QxmtbX7m49Nc3aOnl3jqgTy6I3XToAaDMji1GRMNpp9DVEshM
0FqNjwmEKgOuJ2O+YUYR89iafA4d4m55Wdf5SN3xcPiEoH60OW+2brAbiJO6NWpX
s9s8c/BnuRCRrkGXo2w8gwh5KFPEIzJ4ZGRyDbhQJER5P/hu2Cn2aDp0n7uyi0Zc
F6XSt4+LKOamh41iyci2s94W1fQlvia9MkKYjtBnbOPM9LzDMXY9+AwbpFgsimwX
EaQ/oWlnPwTlHQN3sx0evoE7AT6ESJX+470H20IGlZcCM4lD0vtVkC50GVV2pHYE
fr7IAFJOitBLwfIC/aNsaC5ymwiP94Xm58p7vCZYoogk0iIo3WFyIHu8M5m52tsB
3uZr/XSGMW0zAUMxHnWVS7r+Dppbv9VjNmux6j7Zloi8WLn/f8j9mC6FKkM4CDPj
pPogC+7CivWowCSpUgeVu9rUmO6P0UPdo21RjmYsmOixklXRp231oSaPtHmyh+uu
EM74yUcXQj8mOprbmIZjJ4gf+m/EuLNQxdzUVacWNJcX+aoMVBCDhMznRguFi01+
1vo2I7+3HtvB3gS14wNquJUv+/lPHESFAucUcPLH6Oj+TfpHlbq2Bk7sCwskNapu
nl4twAIaztY6nHIjxysLxPMjZ4rqwLCZ7MnrDkmQRYNpHDFzkHb0imAMLU3sO4SM
FxK66qKyEbarW9Mo2umTZcnuniLaL2zHnI3niIR4/KgaZUuk4xwIGpRhJc88Ydoo
wr70EI/Q5Eto38VWgDVyORqZFJSgNznNsi9lbLKdDfCIvpVYQdDeteBd/A696KBm
2iriiyqObSc3m6uht7bhiX/lJkTLCYgH8784wQgvm3hKdgD3uiutQNLQBuoVd3zQ
zc4zbkIEko5HNiV6Oq2vtD8d6EAfwLyKDpwrE0h4yK3d9bpg7oANXtggLsFzPxc4
IevbMK0qireI0RuBoph/ChfOVfVdFv3HXesaSmQfcTAPwYu+/+kI21Wv2hQOJwja
ztRRyp8sbkkYjD1EvcSb4u/8kDLp3j9Lu2oJNhL5FrQYEaw8o5eJ6o7jJ9EBMJGY
OBR3aFhlNsnb7bYC62NZqOLEumEOIHosPKXZc1dXnSjV7aXbdh7E4nFwYgKns94j
xrJiLkg2jZcD1iHfmByNEdpINY4ZhDXnIboUVdsXHsB0af+3VnWwqa7x29D+M0Tp
qCLroGNI1eKyB9+YfnOzE52yWaiVXG0vUXx652+HG3M41kwSEPu8ZDSsr6iZ1TQf
xoej0yGVdkuB6uFBWnFiNrea5LISyqhxqsvwjfnQ2wIagi9nk7f14/p/k0Nn+uxL
xo4m2z5mqeufdt0iXWv4dQvn8KToetdE7mMAwqA7s2tEW5oIRQ9cIS1OqWog8907
xwpMTKPM/o9MFQi47kAUAjyQ8U1gFW817nqDNOXBXaCiOfpLe8h5L60KC3Th+w6K
czU1vLHMrvZjGS1nvQ1mtdDuj767NoFyC6pF4bkKIg1QExNgwToopG/8rQpfEkFZ
0kVtKL9j4hBVeIdk1HSaIx2DIL3m2u+CXZXvP8xV/lprhj9YwPcDI99MUiVcmdl0
+XEO1+nmLqbEWHSRczTWGse1Px00cp4qY7kpkJATu7bqWul6rOj0YIVPchxKVQPy
9oA2gjK8zt0Nku9YcrqDoHIVW9cGkW+tcoR30JYPZMZKBHDkLZeJuKAi7kFTh0Yp
NuRZd/p5f2XYtIjltoLaPdK/ulitmm50/qG6+lFj+GZcSeDAjZTcIGiAJQ+S7hU6
BPZXU541vuhwd/3KZZgmOZDfIZ6zD9Cx1FDx/J9MB3oHRAHr7177tcqJPwcVTjYm
JNOQdPVWbdRB6SaseP0g9dc/iOzjitIAds6Jcwl0+ts+O5ZSN8f+Hib1BDjPqLGj
muUcscUA+2gYpPLjJMQLn08jcaQ92DYm6gikLMQ9/euodv2YPK3PyliAv+dcT8+n
kqH+6T+fiSKKScSOLuw/UfhLfkgEshBO8o3jVUnzdq7hRmlfx5n3R/3NgpA1D3Ks
XBS7f7QhYToD1CP7zXNja5+grF/4E4ZtJWYxp9kd3xAY0ooCOnnVM5LgVgv94NE4
WZvScpzcEn9bDGflQlMXQLApTQSDRaNLXOf0GYPD4Y5QWwcW+nlPWJ7F8LGhxU0A
VuW6ydL88y0fhCnpeJ2X9Z+DjscZF0eF4DxE+6WbhcUQlshb9RRvSJ5y76NHx0FO
Z6vvkkzscmGh42RFO+igQ/Jzu9t3hULGoV4tD0+Tw/5g9CpM9g8SyNKBShGB8ozA
Kt+mvjdKxv5aRcG+GooJoVNdw+KNeom6ucJ6YMWVxsokvU5qwsCfaapxyMhcBg9O
TXFAmmCPm5aBbrfW4vwHGAvmWKULEqoyKklA7yqcwOViOSDjbZyjitXJn6775s1w
aL522U0w6ItKYdxRuxOFz5T+SD/pFd5CYqBfLN7XFTCDSD/Q+lSuk8nSy6FpVacc
RXVe6d38GLebF8S2KEpL8XzzA94cjGBXqCijSPsUsz737Mkl5WWXI0RaggYqDAGm
2WaFRR6P3zRYYooOllbRdEjWOwys0ZsPpcVdRf+NYMNaGbvMYtr0H+OmOuOMR3nV
wCngRX1y+S8TqiwHjfeJmculX9cNnXgWmD7M8hyxQ6cBGYj0FhxmgAoAkHnkIepv
8Z76ww3PDsPaRPYnBXu0R/Bg5GbpCs03qEZLMflMtEgT3h9piqq/byxvv3Itmzyy
1kyNoceEuVuAtwcx+F9f16Gc4NMI9OHYfO1ILqCcIaALn5C3cQS9ATaCfpdnR/JD
EOgI8+lWu39xgWaPUi/MozYq7BDOsPiXhfxkf/mdp+Q5IkSVIy4W+47e7/zmwaiB
GoMc6cMI6BjKeOy3oYzj6d1rj7yQHtoVl45wFgmRqKoT1pGdwHTGqcv2WAOOALsn
WlQRtc7F9lTfiilDz0pZKULY6+fg9q0Az3tAuILT+6RzNieIZJQpev7UE/zcdZFi
sTgxxp/KuHsXQ374UV1uq9GrxsdCPGfbB3q4RQx6MkCVBnbaupGUN7QDmtCpheIx
TtIp2vJ6jgtxgecwBZUhXFZLxqjpOSNjFeq/Xb4YlvBof5ulvHEAPBM2VbA2gkbu
uOyoVxYB0oZoDObHaor08MjIAqTwnleBu+1EG+QJ5AfFc83TxhD4zTOB1FZIuqpb
kRyM5Xkvx0f9Zmv8DuAcHwwoFz5wzjdEsQSZkHxLqVFbVDQjEEG6D2V+QaVw0Hnh
DkWvB+4w1FNu3/rurFn7XULwmQdVjEyrrd1tzw+b8fFwYzT8ntJkQuHXPI6fqZp7
ut6qKI0SN+2+MUBHipzA53mkvNtw9v1nQVI5SnOyIO7upwfPqx/iwsbzRjZEDVgc
Lo9kWuAHA9fKYuc/MtUeDIqrS5kF3D5jbo7tnwKYRzkAIuWSzaOf8aj89k/Mf9n5
okeDpdqmLUFlZz0xPX6/+nlMk7Ph468JuZXXZEaOiNYdcDANBvVQTBOe48FxugA4
/jSInqyocgpoqRNkVX6HKsBxoovslM9b9RlEtTl/2R3rnyR5sS9xXzHWUnguUI3h
Qv9gMFsNMyug25OiMHHxGqlQPbnCIEoUF7otLXV0WP3negVWiiHCojGGp48evnDc
qAIQ2QTr+Np/cc58ep2vGblovgG3Rv0GIERy5fr3/Lrjrwpy9SjjgcPp+2yfJ8xo
CwwRsrGbQJIL8azd+bsSmMwWYRuRGKJPJicscz4qgCZ6u4NEcP8gdEXQAiv9u6d6
EuD+dPtk6AWZUMAuroah5R2A1Q49WFGL0g+qJaYFFWLYeaLLqeIYbuHp78m7x4dZ
pPFKSyeBYzJxBMci20wTJFvZgbM8zwtWqylWX9CL+Yn0XzrW9kYQ8qkcNqoOgsd1
kb7feWPFnJ1/icZ4i6DbGcG6weQADiXdwJO+0QH8wzU6jS3LeZDzlQQyeunOix9l
vLx6iDdK0FQ4JAJgak7OMNCu0R6PcG69Ook40l6KHoqMPsSpsNjNjBmlszt95LAU
jHk405nNWEHl6sm9lcqtOWoC/X9awSEF2fzzy6N9p4WekQzKPNusM5WZuaMoL2cN
8RYqRqfh0Ff5IN/DAv7K16lSzPLjFZyalojYacTwRuM7JmFIGZm9HvrCSk8KFkLJ
oLSU74ETCRulXthQzqV45uWzkXvWG+uwPmQ6H6B/8P2fb62RJults7lgVlPgMU+6
flD9flYSIEv7n6JcKXzDLCqpE3PvXa7mWJEdajTbcuI9Qmq4lgmrmgpnmnelYeka
2WZTAGriqALkShBaD2SWd2C4LQa6poIPtjMlz1JW0vdCAFX9OR942G7EXEuHJDx9
pK/TzbpZ/cZP9BSe9FTM8Ogj5eQq0qyR+N8lmzK1aYKOE/1jaHKo2QyQhOYrEzqO
FnIvMO63DsYm3J7iU/x1g+3GhV4XVnC6Dhhx3gfUb0qtdWd/hVHLJhGROBRyU1RF
UOvhN8FWYWos2kQI9cDIBZeiljfUlBCu05nxupko4t0PmsBjMSo+FwOmhKeqx16Y
DUXLgMa+rsY/F08VxR7Vk+XJoat71f8Cx0XAciTgPtNbmzWmjEMpCiz5LtccHKVW
Nz6NszDyE3Dd6IOYpyBXZvcRF/wAjAo7/gAZtFjvXWoocd+MCVfQEfHthCFdKHOF
2bOq2vmhur6dW07wI1mS3P2ll3haq1RHpIP9Cj/vX+FynwqPEPYha3ORsS1O550R
33KRHgl5WfTcHK09VrwZn+h++BuWu2pHbJkMouIUzc5hlhH/rncTwPgIA7VQ6299
1P1RG+CRjLJZy+LV7+FJ8l4XH0eqhXPa2qQJOUj2jZ4Rjnyv5BHfU7cueCdUqoh6
gRxaoFqXV+W+LIjCPXeyXJBltjx/w1gQ3bXVIeMJV3Fz2Hk3yMu9jxRKBD8Pjqcd
NnpZm9Be1FwdI1LudsN3rUVGzvXB1Zf7f/touoIsu5AfJYlEJA1asKpI3u0zCShY
X2qsrBVhhxCLqgvF4XE1TTFqi0AKMfFIoacVo6BaGK8y/ybu3SwX0sN73ToYiFDN
ef50QknFcU4kGeMsYqLe7FF8uKcbjt4z93i49lMcwbSYs+xy9amyNiPfUugyUaho
QcHsyf0X6zHXBurkI5dJK5LmUbpiKvRfqiyt17BGHyPXaLGJ//EDC1OxpfR5ycJS
wnfjjKMpxAVdgYar+PKI8xBMPXbjXJYM3nQymP+HLF+3M9R9lMhiJs3FCI1hiaro
vc2BdwEWlLA9K9+urUYi6D54RtR3Wi9KqC72w8S0jY4fc2q7IcRIHLZ1LUylyDap
8tvm20ctEQAvqSHaVSJGeJu+C82MQTWCmO7sMMJin3HlbJJQLp8mmM0d06dhsiiC
3yHGhl1bBlX0vGjZdAWmrpAf14J/emx0l1ws+6QN5LWYbmb1HYvHEs/Pew8AHIIk
JGzY5UEiDCInxoEE4jIXmKdWMckogFwFK+FHdLFLF86EElz0M0vsAop7ZDpTRhjW
Fo7BkvP2sj7dF2frg/AQjJFW87DLKpJ6w5bCysCzvGOcubt7gHhSybPW1r522jQs
yfx6+mjoBCJ3elMeUGY+27nnE0MwMvFg7SnhRCxukj990MeSQ8MecSvO32mzWb6g
f/SDkpYVKgwWU8zHyfoldxXYVvWH/Iw3WKCdcoeI6bDvYCXGaQqcUmwHWGUc0C9u
Mr6p6t3fgnOwa2EtTNogvCOd10Q8h2wnZHJ+hhZnZ6mTJGXjFi2gmSXzZSL7slmq
vh9Yk9cnMIgWbUp/JyyyUQU2wbHnGV7bQEgQaS5rCwTuRgPhR0B3S/xqtclqLFA3
APVZnlS+waXpZc6GvxMZcS4tMcvO9WSmlICa1Z9tm+vmmzSi8fA2bxybrqBV37W5
HPr2nu4dWwYGmDlN0GOBNzTvz5UjyQU8e7VjlenfWkHU/rrddfrFOy29ytcoQinM
GkTgevNcSpDldx7afn4dL/s/lWW4KgdJVTgfqa3RWfteqWVIq7kB77Rh9URWLmjG
otDuKQ2zPc7p3L1qpU5X2h5iu2EBhxQO21nRr7F6HYa6cavQlX7NpH9ObKFau+Aa
KcydXmVBZuwldniWr5cKlvi0wSE4nQfgnySiT28WyndGuyLcmQ4IMVsLREH9mw1T
5juUXiOZcFyVDbp4CLWiNesSjjcmoqul4V1gw65bq1z27LZnyjfF+uhdqG2NWBEq
GyLKXok9Co9HYwcjWk9dTJheksa8g6Lm3dH+vDoIZVfF/ANES8c7HEo++2CPoc5S
0vxfwwYZP+ThoMf9B86SgV+u1BEhnWH7SGuRKzhH093NmO0MNgPAzvh6zJaPhj6K
OosTJAATCLuVhvNHptGcW7VLewhkt6nYmdgz6R/l0qw0MGMRQ4gsvdBd+Lb+Ij0X
jbJGyObTH4RBxXfsRgjrMINbEj0xuecvEwi9qOq25x4vHzz9fXl4gSf2rvrU5lJl
1kF3GkFG5ZVASfsS0J2+9Wq8+gpR6s/4hy3Or6stx2xIkhPbr3L6V2cGeCJFJXXl
Suudd2aewqLOUJFsEFb1iFgbi5E5MI1xDwSJapAci5GuuzPbStQtddXaZ/S340oQ
gaOf10glg7xTsCrumIAc4SZxSmr0p+8veTlLS9Asrw4WBRuk1YeVlQ3ItUsYkIkO
HtMkXEPHrraC46jvOr/QjYoaUo8eL4MwQS8WyMdOijlV7fVTqR2EVdTS03FcyNG2
w/yP5UaIV2iI4AHnVZqbLIZP2Di3jJO1ShQuRNRy+oYJBeN9ELltx8FhL3Dxaqwr
tQyGz/mFMgkK1Nqa+GW24eHke0QFdTDXQWR1ch4R31/q/nFPHQ3LWLoLBOuFPgiV
rOWXcBjqX5f+do30c/6c4oU2XXpXw/T6WDtz7vzYgbfnIolLZiovg5UmZKT2roFP
4x5sV2UeIaRSM4jYVvl5qR8ostEXX3g4MLCvFKr8sSVOqyk2w10UqI7pzhlBwkcr
VZ6/xNzeK6KCKHMAaJwSKKZ9dtdEm9lFXJM8GMNbrAXri+v41siIr0SaxEjNzRE+
7tTjP0nMq7g7F+CK2XwO/f4SbDPpGlo9spk1J6g9W7N8mwByt92lUK7xB4rZBJ11
eNwzChTCEV3qYkzgewUrNYpn4P5MebfVS465ggcVx6wLz+WFE/dyP6b3g23CE1xE
qqQ3ffXsQiTwd7BQhLbtmsFuhVeE9jj91UbUGF0Ek+0GzVmpk/+CPQSZaNKAV3N/
14izh0tVM+4jOFVbcPu1UpROd+ghM/t0uvtiaodJi0kFOXfp8R35AdGV/NTcq3OE
zPgnpnur8VLU9XgYfsdRsM8/tOTYCqL+Ypcdl2tmVBpS3Ikk8I5L+MBxVaggiu6a
dp0N5WZ4sH1zvl2cDbe+ESn8TRANIPi8zQf6Tma88AP8YGr9k8yY5xvH4gbbgwvI
7I0kAiwUfcT8ErTWmcAgpB5YuGwMp8KfaetrXjxZ0WhN0cVovC0t+Pd18WWrTz80
7BiqbPfI5kagkpEXx86mbym/KjydwdbjbS8qIpmIx1Ft7RRuZlBWqTq1/IMubrEY
YLLcWL8L7jdmOujgFlijO5hEhcP2tfW5+r6fmM5cmxg3d0joJv+47z0toYK4gf2G
YShpmF6VVTkdHWfeyMX/rLdbhhqKdcD8nvEdFelLL9vRj6f5nq/WfoIJMJtfk/oF
M03SPYw6/FwmrlkGRNghWR87sjI58LkBzbJLLJ9GfpfEl4HpjRTNIYU0kuSWWrh6
voKcd3DAkZsJYA15IL6tryPIpOx87ozV0aUDbZCZb+hCgMle6TIYX3ddeNWwRwUp
4j2P21znlvkGwL2qMsoC5LE6CXq7tRQ7An3I/EnAY8oawGmG4xucVVlbJGtOJ3HP
lqRRPnf2FOmuU/GSwZqGK8h9haY8ZZkcH940DLFHQsraoJL65wltFy5hi041u/HT
y0lUZ7H80uGqUPXkDcvUp9Fp+z8PxJ73u45oCYo0wYzd/hBnLRrHrZMy3LR+GHvi
SOfDWTH/gXWJOdgC+UE6Xiel9568DxCo90kB6Mr2anwb3fqJktrA3LhvJdcb7XCJ
AhQEPZAQVy0V05gy1w0g0fn0UjqD/9yyD5scF+5yMspTfBBoCJKKUqKI8n+U8Dzt
OKVELe9ySdmrk5ZLZ4YGWOTQWRAWU9wfCkxP0AAByRQCsTboKfnAzuGi87nq4f8x
oTda9XFCiMs=
=TmJs
-----END PGP MESSAGE-----
