-----BEGIN PGP MESSAGE-----

hF4DF2qV2COUuCcSAQdAPzk8U7f0Dm5q9IjPQiF6gfrP5z9sdOKd2/CtoQpP/Wgw
2oYrCOwRImTe2PUPNeJIb4B127mygpQFkrxefzVqwtbv+RZW3tsouiY/6cGIsGzD
0uwBfQgnmQGkXk0p7EfspVWo+E9BFMygb0OQG6evsU976Or9gMFzPQ6EONEN/FPh
xHXk9NbvjAtQ+Y5uXPY4ZaLBIaySTQIB41Dj0Fq62HjiigaybgB3aTQ0/iJItPuK
tpD4JK49Yjb+SaUFhdUXS5RPtNBHJ6ccSnMNJWMsp+XKpOoXtVLwYFT1s0PKM34A
sl/joMTvLTx6tDm43fw4l0n8k5Xk7D/FxiTlyQeUVRAewn2WoymdtzV7JijyX9xe
g+6Wb/BRLK7gaAQ9P5DoZ0Rgz+QUv38oVCWYVff73GmqaR+HM8q3+SRpc5n+F2OS
biEjPWcFSD8u0xbtBhx0cplVzZP82zJ9z/3H4LMR3JzoqMBqqFN0O4o/uonXcw2u
v9Xz+gDOYJny1Bl18gtOLisz5wz1+hBIUWlWs8CZ4eSS2qlvMREBTNEBSCL8KpWP
uO9HqK1x9msXvGEfMo1BZRBQ6jjiSgQV5W3qVLfg23OjUrawQqSO+6InEaCEARoh
rddx1nByOEAZ5KTmwh0EXCYAvrNPrIHPVVuHqDMIZB/msvxbqMdS9H3s2qMyG9YM
LR8Abo2cvH2LaFcMNGmrSvPbmNuuM1DXq/bH3o0UENNywx9m2R5xNIfkQzKutiiu
n20UtNYut+OSUS3raP65SogKnNfmbmgBAzuCydLilgIXhQnoTbnsuwgekY+fLUSv
bHwxD3iObUaK3w6ilLC/SOp6IEcGerM65/DMkArXBdeTHIEzTTFhlZWiMXbFCImM
+WZmIRllsQ03daGQQHlLnUk1s1TuO1zq7Bm9VsJqyaPwhEIHGfAOaMmuqtwEexGj
Fxk7VybhENt9iOvZyR8iE72yhRymjEdQwRoEbeqNuC40NBMCsT61MbUbg6hakE21
rOatjVkNNF9BsTEVA1OxQVIQ5oifnxS5UFIidSqV5Uwzk9yaBXQtilBBDhjP6cul
LNDT/XfrJb3tlQLjZXA9agk1qel2YsZLLWHRpjA3YZTOMp9cIdJoSm19Mex7pCuB
mkIi/Y96tYPzmKjabNHQjcaHhiMPYr/zOsU8YjweG1rJDn5KzxkyfF/JGiZz1j5u
mt2iGB6JsLjp4l+JSYdnTdPuGjnlb+EpBLamyw9UsVGzIxibqst488+xZovkWnuz
6i47CM3TVbIbVVuuxEJ1w37uJeDGrBHXDvMHfWGrp5H/rksMWLOlVMZ94wMnpgPZ
LmPeMri9jo7zqJ/Hao87VME2pPqls2gkLamHR4+F3DOZA86XDB4m7YrBaQHJirkx
me9Ar/Ykqdc38ONDpuhXHs+X8kuY8pZlbEYeDYulAktQQUS+TLD7qUofokcbI8OP
d62gDWZUOi3ZfKtcZkmsjw16IaZw1VLjN0xFOWKhCJj/gTm/RNYRqhDhKaMo6gp/
FlQ98bkyF3yWt6NRcbRRN0rLF2qxxJeaWLj6u6Pv4f7SZRPpRWpGnxruUOWaxLhs
6Svcn65surAafX40U7QDVOiuiEsdQGnz+90SQO03aRqiSte5dD0q7YRonXmPjTv1
szPQem9SBlpe8eUEjcR8Lo+/94YSsABw+PDqmbh5YKvWnT5CgndEyi02/F3taFpx
kF6Qm6CS7URKpHNv5as7oZyYy75nKjGXqXNg/9I7yuV3C2wHqPwUR/y1D9pm1YAL
DLfDJjCpn51753ZyssnNilPmDIfSbN70S9TKNDcskQVP41vgHQG09gWFUT7+bgjl
aNhBsSa89fMNcUN5p1aDRwbarVO5NoXpvUqUIWFYkgK3ccnLZ0rIuu2BSbeDM/eW
5H5EKf0bWSw5C/5PJWvXhwhfLQ3Zvd73bpOOWSPnkyeQQnCTPAbDZECnAfZhd5po
5BubmybJTC5PIfJrLeh1do4Cnf+AHxzgq4D22mTBX7sw5aGwMymj7mu0uZFR2Pxs
Ulw0vdbpCVynCbTcbh4DA0NoClwAUXjqbEZNghJmBhJyP7FFZ9/NbfFPvk4/oogH
cQvIHkllXmVBcgshhve4C62v+VAb82ItnzZTyM2GkMY6480GsKpfbIJ800sYBA07
JXQ9fJU7W+fToT8o7yRHR6CoLSAAewsb4V4E2ItUfLl9r1coZ61Aj59L10IHmFXj
z8dz2xykEBlIeGcr1BfAAsJzaOe6tSEXcBG7LUe0PoTEgJ24e5FT7NX4LY2/0Mim
k4NtCDfkIZ7vGkGR4IhNRfK6LNHnxAb2n4GHr3lh7BtnKpg+Uob0DTOMEiFDzHYs
65P3X993S/nIhbGvOHWYIMNmo3hD3XPmmkeHivB3tRGyz9h0QOItwB3WZaiOcR5K
y28aJkKNT+re/x4cUt/qy5sy24SVny5Vad9O06Qj3/J9qb1wwG/AzWeqdukg3l15
UMwiElt4LqqABhNb9r5F70V4I983WfGiimeWh/KKi42WZUrCQKyt2ng9rRHwKxkQ
yEyV+cvJe3dEUo+Jrq6IXjvgL26lzZYqsy1Z5+8w9Ir2ohyyAprXmyMMEiZIn8fJ
hjKsrCSlBU+eSSo6MlwVbuXpgvGpgr6bg6yHefOCCivaGNZ23iKU+w+WFRRa9Imj
LuqOzqd420n8kwUXmMGQEbxnrbaELAi4XkE3aG6vZDv/yYShIFat4UEkZDD/cSwa
UF0bYxwuHpGHRZajkgMpcFKcbiihhs8cCmvX4vRhfDvbnYJ0jOhugl/WMSA9t0vR
DioYgHlwRN2o+Wbam4M2zV2avN4kpG1mKQU83vOA0mLTpncgylB11ry7omofh1u9
KHxYx+KhrWo9LHmEKTOzQ/5Cf4+kDQeugAkEipAue7VhbnC7HksPLuoWEc5AiuLc
ELBxajmfVj3eP8N3XzanzvOIbOZeinLpx5J2hK+PN0T8zkD17Z+RgwxxJ4JO2pFV
Mdk5N+QZpJfXXtM84d0hZavwsWRwsuCxsg674RRP0weyvfo+PeZpf12r3S+/MbcA
J4hlGCkTQmkJ+HFU2zkXc63GQNq3TyH5uzgOA94w/y0hperlx4XUwe6beWDPGEf/
qiKX9iULcOAf8V6pp6kl7UH2DvW+TZ2b96MihRnVzt+iZTmwTQej4loC2BN1f8Vm
4991xcNJMHMwB3HXl8L8ZHoUrVTwvWaSZQ78dW+95yZx6CH5afQh2uyCuhJUiYAO
RMREAedMWjxnJDK3Cxw55mfxiWicESFnEj0Uw1iS59H1A04ERVGBEcN1sfvF5K7r
QJ9i4F5OmlfAQ2d6fnpTQl5gxJRoLAn7Vbn6JiQA1N2bOtMZa9KKBwqt80D8iGne
vVhpsbLOQo43s1gnujzisXZ+xQkHQRQ5CxOPXJPXGwaY2eZUx14ipe5xRjYW95El
vPSzPqRdSROljGmxqPyI/Dt56vc2Cc7RrnVwHK2rgg14wLCamWQgIegNO93/cqbU
Ltk6CLeAlQaMjOb/u2xAcxbmC1Tnf5PO19P0BELtRjcDu2N1gvIyEZ+ZS16znpjU
z0RA3flre3/9wrbuj7IcmhQBdQCwxqZ5gsdHo/yRv7U6lIjb4uiwV9poqpOVN3RT
iXVQu2O1ygWe0/55D2MJQNKWT78JLiocB+K22/e/Giji0OQz0YGies2gQE+E69VT
oeCNzPRQCoyCr4xU2E5//bBKfWbpdkldYj6RIr5xSBptCjD568HUThoofmS7jiEG
XL6Vf+IDAZ2OaSoEbwaQ94MYcKMmtiZMvJac8vhBPK7O2FCDwEiFlEBORtC+iL04
lfy/4hxoG3JkxtS+5Z+JR0TlbObSvoFsQs3PkIlaRYfk5goGQFHnQaDR6at0udeV
uUmFDyXSWuSILg3yiXUEUKs8louqiJdxqoJEwl94h+yr0TtLAu65PjJ9MjAHMY7X
6RFAaPjX0oh8PVUrXfP490+dU84SPfRewoG7O4SKbsjemMnOMy0K1a2LVik9ApDt
TSPSeVM6MtJZut8BBeSQ+JOZyca42MkW4czQ8VdDLEMtx4a5ONl95XkDaPFZgfcE
U4f2HQyMdoVLu0L6OfFlHqi1QQxZ3g+KoveFylXSeqouVoh61p27adn/OiAo3/Rr
UFSrUaMpbWMplaJmpmv1JvuW/vGVl2YtUiZMmYX/F0FYG/SzdIuP4zEwnXgDtZFI
WOwPdePKhyoFe7LzDyz4KftYrj/QF8YYf3rr0GRmE6KL5jFIdf54fEIcVSEGdOaX
iDDXlHi1cWnwQNsKk30nh0nW7yiLtxDGjN27ClYTyo2zDr9AiSQvU+upblW2NvGQ
nA6DZSBqM1Fys5eiGpkOMkzRNhRowYntaMBwbOn/GkoLFDy0eOkQcR5B+2sT1KQj
CqyqHk1j7/Wf2nee+W4eqFhGGkxygdiXBsIybCrmxbuQWtRf22J5xiQtsMByJslf
7sz78InNJDWM4DnqMZnm+QXQvAryzm5waKnkBqRsiiT9BLKlYil/ya9BDOXFayFq
ld3t+H8gIi3GgQNs1QNIsgfHT9K5+6lQmpK2L5WeWm+IakaMRERSLOkE/9IxPToi
pwP8uhZ5gGEBB6Ph9GdbJ/QVizjuliwPPMqo7VhO5FnuzrKCKCo40som3eyzR1D+
qtxRGLhuErFhZ1Km0JDSOuswK3QykJUmNwxNlDmSg3upZCG/SUspSFLxDBk/W7WK
Z/FlPLlZ0sfHwNeoKdSKEl9LR4weRBqMW8eslD5Aua//15aGGyEB/TfDEQd/rT/5
7VPxNDlQh26jQTInUyH4om2/3vc/UvL1KFnnoQp1cfPshs6KDnI7GtPzVRJQOVYB
036UwGVcTfDwijGmGorb5ptU40fsxUcsskjuoPyIadSqXsE7QJtVWoRj4V+2CWPB
0qug07X3MxFPf++xyKMP6bCEZzIacwoBR23M8D0b9oRCfiEL6Sua1bYk+wsDQuNc
Euc8WeVRccsZWDbGdCXuavl5oDibxQOyRZswLC3CSDE58333yBeQ8agTgzfaGy8Q
owWsN25wM9ZeRrj0vOENgGCwOU0ghtA9CYLoA63YNXzgs5HwJ9qo57z4zT3qDcrz
woOKHFuXHIpXEnr4ULkWs1qbq7AHKsu4dJn42d4U7VVdiHKXIMAt1dlu8z4SZCkg
Rx5YW+dQxzh24gDAUiINKItc+hXk/LMc4AEPxY4TFb6T/IBL/uz+aQesJgGZ0/a0
fMVkmnnzCYyoSWZuvmw/jK6MV2xzM/qpi1CA8KEWjgyQ1rnM0BGGCg2XZrlwMgbt
XYlS48XDXbba/xhvsZCWMfOgr41yHMJMHCmofAkQ3FfbwK8SLxE4Jstd2hEDbOLo
OqAnwNvasj1CnIxt1M9dKj+k8GtzQ/0Tm4f+2Rv4WGaih7+QCBqRlwIAvXJQeqK8
Limu/lKM8xECjSOHVYX3hiTGhBPAcDNF7jvgk/9nMsZULR243FZiOIP2pB9ArFh0
Q7lTmpSELqX1zI8ar/igVzEIoyJ89a6wjG4r8yg/dok67JKNozTWhI6k0tzCpWqi
D7ufQV4dFdN+D+l3jY2GGOnAvUbbdYYPE/MXgEM6+usziTZr1F2fF0wCoxO3Hzsr
UMwkK+aAJYnhZfM9cOUuFoC02stmejYhDodwOgpoMUFYT1LYVYdhFipgXlKd6kWT
tSpeCY9zhZCxrL3hyQsIdXE7xiWAYFfgyBnu04zc6TCUFrPKIj1K2MZHpaqDg8AQ
chli0ULcnN8Qq8QjSb8d/pQeEcd1ToXAJchVDgqwI8j2aE0gKuSY1zIUmHEXllPl
tq1+eK89zjPIUzBBBmIPeg==
=lyhL
-----END PGP MESSAGE-----
