-----BEGIN PGP MESSAGE-----

hF4DF2qV2COUuCcSAQdAmxwrXgjHy2WB/sOHxkWSSeUTY4vURnknmvEAIUI3Eg8w
e5IzKcvPphe2RlDf7CZa+HgK0AwzuZKBY/Pf7oZgextKfl+2cX2auvvj/5tnBehm
0u0BsZu6qmKQPTJxdFpyO/z38mxjmCL+ymC9xCVJ8lApEj+MUMzlAA4Oe5AKdYEp
+Qswd+WrNzkm+8RgKtH5+/zDko1893A++p4mBKLyweENNfT1JcB97iK5LnO2J/VK
SZP+Jkf7LUdJX7iRfRngUjV2f/SUcRFuddmHEDdaiNrnqqwDIwZi9UDjxj8TyGWc
L/G2yP+Rpg08sCxsX5FM89GtzUUCl7iNaVCBaFAd6lXuP3+Zsj2vJpdMiuT4QCgp
1JyiwldMkpqzP+154x7/7bMpWqL1zJA6CpSfKKm3uzKEonZpRbJukAwdKzOFPV3O
QwovZbDh5FZSI9t4+YZ3pO67yqxWquPEBKEjDB3p4dJnLSkYBfoM8w5zj+97Vvw6
BZ7ChVslkLfv53IkezpEkFvrLn7CAuMl0SWQzqmV9R19Q4Wgi/2FwOaA2G4amYzi
c65F2CIZySUt1LJfEdlZ6M1SqQo8lI2jC+pO3w2XfffMrb3jxsQbt91VKRDX5sa5
cU1dxVLJ1Vo7sHmew6upJWDygJR6rVw/tCqMpaTVDRaK1B1/zkJHONXDisJiXeI8
1rAY5f0HW8eSz4YH2M/uYND9CV1tTIhe2eL34rRnHStKyGreGb6mxhYM1UOnrw0B
irZV3TjQNOy+gViRKB+0FuKYfr6dUMyMgpr8wqmn1NulDXh+f0Mq52b+hkXJCcIi
FYKEMSuOhU+anaTidiNttA+/HvhSws6Xj5u3pOuxjaGexg8yYMpGtPGaW+ds2uLi
AzVZMFXm3rxVDJjQGfhXoewFt1yWrgKE9vea+XAp5vpRpHBHU+Yy0LpREaMLlzDB
vX2VO6l9Uxhf2y+4fCNlv0BltaqQ3cX6Ipb8+9I0DXHOdWVa6cu0v1gAdysCZnj6
Zv4Jn1gutLCwECll+NhnsZPF/mi/50JvcTkRCT91t28aOmvWEKWBQt5iHeJ5ecHh
4Ylgrtd6XlauOvAEZVTAgQ3EF68MZnMjtajC0MV79ZbHc3XcVMUDadcnwnt+T4x7
K8Hg9kEQlSocw5cZaS9KzIdqdAZEXROQ6AYKyJPpK+GbNvDzrzJl22aFZfe4JAdz
1mQZNMatUs4rfhFg+ZOPDIPun77z2SEFeqgDL+34ZNOewemLlR6u9GFbjwEP9G2s
bnjPN3DAxlNQz4VjSfAMYIKrd31Ow40x0GEo+XmdUA4RhyMhXRh3UlUOI/mKOlJp
7MJshup1bC5kBhBDDQxNsTqvgbztHF/0bzzf6KFYG5wchq2re750WPuFrPQz7iPq
PCEfKXLN44bw1r4CqOAzjhuS0nMN9NQfN/9L+U8Ho4cTAdvMsLXlpmZmJ+xdET9L
uIdX3tdZ9GgZY3mh/f+Wmwal/Ii5UGfX8XWYxOr8mO+O4T7MIPta4Mr8j/YW91CN
ZDrghsj9AeQfKVqFEdmMynev9sFhl4IGuAtwuB0XVKmMd/RTemYg87bFrFZH5bVl
98LuedOJ0RacHeya66gY/u/EoZn7lE1nrcBsv//9IJFzEmVrKPsazdvhP7GDZDl8
scSi8+07GSG/w1yATPVZ+V7YqrKl/qDzHZSqyYxiFFltQRv9E7vG16eEqL6PMXpT
R6ub6ph3RdWGkhW7zd/SNj4Ag4xPlsi63s9L+PzlMfY1+vNKuIslignb7pGbYjsw
3RzaHlXIESMTFf+DJqrXvVnCQJoj9ZWxo8Z/IMTh/kytUsW2XMBkkygh1RI4IIXX
icbJYRkn+/g/mQghxOi5tUoL53IHEHt3dXftLeNfmF/7+XKuBeOUO2PnG99myIOr
HjQoxZX6po6cVyoB1pSD8LhBTSdgQSYNuWKhW6DFH7T8QwSZau/b/0MWG7TXuOW+
JoIOKZpqgEz7TR8hw2u8JLTXWgZc1djwAQQEKPuEgwlIqaK7+ise9aa1XlaA8LWZ
hkeOGPop8NMSTwn/FScPqzXT7OncHUT4luRmvScANCRWax1M5Rof5N3L1j2RYybC
Tqo0Vfboz/sA9Sh0BOIZZPW/izxXPRRMZBYjwbEsMKIlHXi9YJhSKczFduXibYu5
lS7ODYxVvFCPDHLMJ36CEPpR/TBRgJtVCt4PbsEYiWM+GG2SjvmRcxbEPW3PK1wO
ouTI9R1w6WTcQmuCbG6UtlscdnpG9njOsi1ao6gjBzm14ng5BQcRCyAi30Zt9bNE
7UkjuvJW+1FvNljdOOoq7x/gr3mBoPrM9DtS0CT23YAQH5D7YP/R2cWH2s388c4B
KZcVHUMMOQnxnbdwlYbrh3BBej4etwRJejr9WYoPzR2idZQF3XTQ5hYxkoFLVkNn
1K4TQoe5qjegVpqnH8wbkVAX1Jfac6a19efCF0KGneQirLxQ9s5vUxGZMhCHo/s0
MryPV3+RrnaeIz8kTpJetMFD4hSXJDgA+ajvCFl0L8jwz0iHWsIi2owhsf7iGUAS
2UrBnrVV/kN6Sed/3CupjEt7ac7c9YtpI/GAdnv5dEhasHlpRJklQHCkmn9bWcMn
E0XFhpyz3JCftCN/l0SXVejKzxLzMBSm/X+qlbv17CITISOj+eNCAm7bPjUOerDe
q4SL7ZcMp24zg55XeHGuIs1KDIrt79gbr7RCZwEnZhgE6fVneqFq/W1ZHNWFlMfg
khJC9AQCI7OFIYxzbGP94pRsMlrhVyXZ1KrUpmtz6LOJVgoxAD3pIXLVkkZ5PEEH
O1dDwMgtAv63opGqm9Wz87ucezbybeuUnYCuLjLkC3MLJwb0GX9N86ttlNncmvsd
9F6fqu0avyHSqHSGdSkKpDT6QfXC9JpAxDFK4yZSVJ9mbcQekXu34QKnijeyAQCo
4h1m0fdbcQpYu6/D//EP8LLNU87YICreXyA0qosMXiexruVEhvP8+o0NkjcIrCU3
YTEImfVaatyoPEqCiJk4PK/A1FYsPDVEQrDCAXBUBJXVZXrPHhpd/L+7rtgi+HcK
W5fpAZQjhl66fcpTRQv49ostTBJab8980cy12N7tQQfYgqWWqNnkpNjn9GXTDo2j
fHrPA4Wc8FMdFuHGJmnxlXy4HhQfFmNKei0IIEWBpDTBOPuG+qOCcP+zweksCC2V
W03q8aBCDD+zdcr2zxIB9PGRwAXpmHwsj4WZLKA6SdkurZLOJ0SomJ6i2N6s8XY4
hHpwxs1okUFej/gyXZjweG0Nlnw+3TONbPs3i7nM+W1mdua/TrxRCAcIlJaQChsp
U4QOM4dniAt8XVccz74a1iyJ9q58AjJ9MHfUk877uKOXoJI+geTu314RGRMkB2BH
BX/5gsaYn78226OgIwAE8JVGMpyt9xjHzhn3CrbLeO4csqMovKuRiZFejF1DK6dr
Ky5txSzKQUBTegSaTR8ji5AKY9zA7RtxMo0PJ7CLqJ9xH/T/fUu+OzjhJF4yhvU9
LDgztehddndOkSAg5UrgtliNNVwZQJUFT5RceQvGMT83vgsUn63jiDr3GZBjAfom
bETfWC7X2mDDp9hK73tE99hP+ojGzcffNEdiSLv3OuO56j6WMpah7YZdULTWzfPE
SUpwwDnbyeJjnB5DPJc2MaAinaiTo5F80eJTCASUOYXCMNZ+FMOeXvSp/FIauJg6
t4UoZhCYnmbRt3M17iIEBJ6mMPFbLo0f2kQfsx+QDvPNRi8rny/3PYxyoE81M2t4
z8zS+3kBnnwI1LeewUFOK1Zab3UE/hkVCYSwjRdtMnS+t/FgFZvJ2WVVp8lT8GT+
BOceowVOJr6N4HXkHkcVuzc0cyFeXjdYyvE+wxyWQAI1lulClEiZRihw86IzFJtO
/1ZCgt+pQVFuSUYczUHqcYUfwZ7rKK7efD6DHS0iGs1IPMLfxZnt84TLBF8qY7TN
iuAAOgaEU0sFIzPrlgOeN3lp/OQDzgg7vezN4qAt4eBgDwRb0FGz1jK7AyFKz1dJ
Y4+rc+sySswjpc8mZZBLc1HKQ6w5TyQAENBZSjvZmTWSDPH2RrEX0+slSZUomR7O
LQsFFCCuuxTsvNIXAzDDP1ZJipXK72sH9CMhTm7+adIr7aEyMu1hQ2TRRsGDV3go
g6BeW4qS6Vs43Yo99KbSNUMEk9fQ8QVlDjLnzFAz97Q2FhJ44yKpjvICcv0/WsrN
uzYwv2gTfQ9f4ceYfuaMT0BM7+qhqxrNaI7MFg3vcdJZI+Bo1s9ltx6LKKyLikuK
YztKWEZQBCKvhcA7oaonU1Gf/pajAPtJgmLaLehhkaE4xvhFzZOABU65cVhK+oIO
HnFAzH3QRXHqByhdzfFYOZf+QQPxnu51MQdNSlYYH570goHZ0tLXpKMH5Z47clbK
yUmJ8zXMK/mgqPMzuPK4RQsF/qG8PYAP5r6ExtJt5xPT42Cy7a2QwZDK6sslYavb
SMok5yLsgcM4l+Cv8LLEqLZxEXQeYQkeF8Hy48neYSNiNtgIVqtpsVmUehNa7lF9
Dk1WH8HbSi0v7Wm0mrmyORSD6nqTJG0dG7NP8C5fGZD+cAAmaLHb1GZUkSU2aFmQ
80R45clxKm+Rq0Xyur5UMC1k9kALibSb8zZdsBlW5UUtPGqAdMxZ34CVBfML/s8A
BJSkM6dTlIp82yx1ygCLn0mkY0baefExz1TbTJNXWm8QSigvQRSSdoc/dzXsuMDv
ap/osVKMmuDTTAZxAQQLDLQsGTEs+iqh5/U5MnKdfZ3+Ace8suUdRI/MBkatWzAQ
ZGwf5g8t5FMJ+n1QvmK4XsGuNPRwLQekP8LHLFeF5hpaMZBTGym+oBCwVzGg02ag
rkZTvgPxmc/SO5OGglT4byRnBfmdXd7uQs8sQL5QUESRb7ZbIQJmGx7rqBxUw4fk
ksYzRQBFwCk/wZpCTfg7jMOfmJ+OXuwgmn1VASBpYNjrVwMfA0k7dYYIqFNnJKPS
DZAyU85ifc8tjKomb7EQq39XTiuOmJ9OsKX0yQeFOebL/Uzvce2QIvHL+WHiNjMW
MdNcpWeqp8Vc4J/xPsMFcrKgF5IH2j7WA98Cu3hCZU+rDc77AHZA7kHUmJ9LcUsz
LDwulzPvAW3Rs2MumipE3yOROE/BZFNe5uv9nWDYVfdnA2xzuaivC/0aJY6EEaPq
XBTjzZdtFcHA442CUzkeGB9g/B1KskxaauHp2tUxyIR0+O+r2c6t/tOJND4Rd05/
TzAUHV9OTzL1VfwxS6XbhClMLGfdKlfdqw8AJpPbvhr83cWUeT54lPfLT0Kd4pQT
WLVP0RgSCkbZaci2NCTmBrAlXOBw6QZEgGURmXyyd2CcjnCiPnd6eoFLxKXfDNkE
eJzqpZ9FgvwBEbaYQBh49bKjSNxeapoiOaJeHfpg+FNByI6/9p/VdIxhHJ+pd+Nq
ZYAAHwipnhePdexedAt0ee/U8nHgW7cXhQ7VrxLhVqcRcELtg2BUUXDhEvWF4drJ
sfQxRa8acPrpfyO+CjjIVOvZj0UKG99nzI3al5FqKMr8fhPuY9sfv18AN7RHKBMa
ZT7DBEvvENRI/DlQD0gZAHamyTDYVkopF0z6ML3Ybbi/vfxiY9k6uGHwSmU+HwRj
1kgPn2lJB/+UokjCoAV4lGGADA31ra5oTvKyysvmpWogSwAbRSpLE4Iyolc868Ul
Qn+YrsI1rN4430pxXHAFope1m82MnYvZM5ojZdbQDTmVg8FTiVv+y9rQMK+VOB5x
35BxcBlamqbiQBz977MzS1PqcZMCu5cvluFJVoMc2ZPHrfPKlshMKK0z3FYow8PF
AS8jYxVORXS0dexwlCPpNScXQNrrN99+Njj8G5zTBaxwOwe41u2GWegCpixzyVRJ
ebyIPQAgs7aKnqASXGZhMEojiEku8zwtZpK3JDfA3SF7s0QZM2jKpSjpT5PdFhiv
ZVwnugm4DpnL92i0BEDsNmoHR10DvQOk3FUMZZe3G/+X08Wz/FI+GwQpqV0Cam4Q
wYFmP2JfBWtvDBLWxc4IYPK/NvVacsSG9YuO5J760wVE4+gQhN/cwjJIdnnXWL86
cuZtqNWKXv8QhWUSzpim+kLNyGv48+icLnYpKG+cYGHUdCBGjrVQqjhGCVhbU3tM
uKfMfGLL3TwLxRDxYElFiZKgGIdp2F5Bwc8V84n5bCQ3OkB2SiGQSNKyxJ+bPwnx
jXqMR1yX52g2SLPkCOcKUaxgMpJgZj5DNnlx8uG6oHehCVwIZ46XtbNpXvypmTrU
Prnn0UoMBgzhB9V2EDrAvdZ4JxvctMyuCuApSVNvyoKdSk9OL/3dddZsNJBxWzhA
3a3rXZ9ldWG8eVIJosvrbRNiB0rMrhk9rBYY/jAp9DM1WYiOEkzDXl+AazO08WQ9
l6GE7wSRtIAcj6XqdPkScOOlpjxYtIGP7PouCYTuGFiMxk/gXspmvIcTt6coFwRo
5WO6JPDgSMV6z477gHBTA8MYBlzhloR75ZmivhnjxWR5GEqvPWs2ATmEVn6Hv7Iz
OQHXk/TJzKPXWwHL1Cw5XhEnN647XDmF3Vkz8WF+491QRPUh5ELBJDazwqk7hkoF
KML5mCWUtrOW/e6ksYrRxnW6qzHcQvACrB8LQ/rAQ+OYpdpTXvQ094plujdYUhvF
wSzYVvnWy2yDL9yOQ35i8OvfRNVP2CXu7G/U8m8c9ATN/zm2Sl8mJX/jhxKkwwsK
io2Hkc/88hmITlmH17LEv9OSToHE8RmY2UJCk+w90whfYjsBoRrWLLs4xw8gBWhu
sCOPqw19RHSt07125o6OjEEtfRygLWNsAenNuqlcCtEGaNlXSpTMtdvFrbmawyA5
HECbScQjsavRHibwlXjNdztpxikRfjiYiWjQ/AwlU6I+ymmJygBhJ7n3cJoaHZ3x
CLdZyOvtmsaFUA2854ImVZxwioOAaoraUzETpKKJ/ICXWKjUnNQtcguyIMEE4ai9
QXlAs5IGThcd4CyzXX2pyaA9vzTIjdEUvrQNobjprbRHE5QG3Y1pNDmUoL22ClHK
hKkkMVkbaLfa5mlpw3X0qJPEFhEK3uSvEEQJwsmg1WpixzBI0cNHQ/dP+Zvfh+oQ
ZhzAqF2+DCOirvzi7JbDVBy4qHXDRd7EWswQc9UaJUUpv46Vl6BmOZ6g5fGKgSy8
fMAaQ39qitCbHlcmrH2P82M05bqOP5MYx8ro9YlhJgdyUuBbpcRCVhwcwaOTXQTA
/BbRtOP//2ipWIpeIMCRgOHAkWR3sRQLOYQTdQkH+QcihEu6z/cK/Ubi+ClQlHNQ
T8dSlpKmwSjxUCYou+dMEmOPsCNPQZpeDF/y8OJn2ln7hsqIFnb9FlyhLsjLUpKE
gGdmyWYeQ+1HYGQX+5eamtvdzlCFTSXfvkFdR/1vYGDS1OwhyRNy+MvDuG+aAtI9
fjCw7Sl8OBSHMM1WHzIXblAgFsaFX0gP58uxtg4moH0SitlrE3UJVTVRaEGHrrls
qbmnDl8bhDQKOhy/XwfhdZVwyCAQ28P+fxIq1QvM+GEEZoFISFWKMlbIndrLae1Y
ErZ6cUsUlqZKm3n4u2AKqJZolzlN0SKaqkJrfolRLDHVpts8v+WIXy4lQ2NlyCGC
L8gVtozNhXiRUMP1kV12q/D0bKu6Gt+Ssi2Ojsv4ZrfsaLiruVhYlt5L/mD2ejrB
YlHJP64rrvcv6raKuA+oXlDh+snVtdd1NPE7s2XzQ1f64Ap7AcqYgBcWmnOhx12O
WKh7JSTjF35zytruR2jxS8a41YDrCxVRnDZYAor26BAr+8WWiIHgoMooWsVvgv1b
O0bXsq/gyXnqvm6kLk4Ztz7pfhlmJHtWQ8JVuIawdZ4WWk08nNkS9FpQo/zp5LsW
5o1M4CXMk1WdJFVD3x6MFfSbrJjQkJMV2fZVRBVppzK0ERnTmtiO56bNiYDaIKaW
jmqCjACU+vgbtzuOpqkuMuvk4QMMJrExfJiYmfdkDP523d4t2SnHXIlJFG0dnPRU
LQZJ4/5AhTn7qCtt/RvMJvjlxb30tJquOXHLUZvZoOKZb9nH9z6PyxhLD4NiclEn
cWBwlBNiDXbwljeyqnVkaOJuqPVYRAwO1RcaT8wBn24DShFyngJWH9/2zSvssJAy
A6iz+WWXIO0ydsjkG1e/Xtq7YTpitD/1fFXEKWS0Mgz+mhCnuewSShdx/DevUUhH
JIRrV1SK2RQuH6RklYALMxvxzKmIn+2cCEP+bVPs1bfK8pNZZlePNCbB8MgcLpeo
8noU6NRHJSNyrduFJ/G6AedwKDSpNtNiWyzNy8LREAUZA2Udwat6QzgJh7pCIgps
okCaIBP0rKF6mHsSIYRO3JZ0FK/ozIbtBlto4WF0wojm7oDrUO4sI53wSSB3PxW0
NN4fa5j2SCgNkONoExlpI5Ad0WE6DwzPvbR3okNBNTCZtilY4AwgnnJSIobyDZhA
Su2WwdW2IyWv5btj3KT0QKcKMprGozUaRGThhY4bRXHfFwmio7dSrEpVdguBH0nc
O1jECM2hjCa85BplqkZ6+HTCJZts7+O4B5mMXzhTM0oIDdyLu5lTDimeuBfTagVY
pZ6AWHgg0+nkcekRvjUucC8kGtNwN/B10NJiKpANl6ac3ErSGpSSsyqx+OjlL2cV
9IfHzIGxGB2aBrb+6IYjhWJAQt5JhbVsQs10weCSnZcq6qDFmvz0mKhf4kQbdSDA
gmOmzFj3QhwkIlqMP3zZ28lZZZo+c6hIwWFm1uf/tCtbqEff3MtOfMh7cDvl23fw
y/TUsc3l+VRVWtY+BEMpH0eFuBS1O79Ao9HTz5A6tKE/rQoClRKRYS5LSIIHbj2a
jqSwjjbjC7na7CeVl7t+eAOBakywCoh+QkmX341sbsR9/MsdNVLnbfz64Kpx5rqJ
T1eU8+awjH8cQE+hTyIqKjEUVae6vBVyalRiLnjOOj5BDdVxtsOanhIED53Subvv
0VDz9Fwk9ty59cEAXkcdbvDGPTLhPREFDXh7u5W/CCgPAodSZh9KFrBDO1JHFa45
C+biYnnzuh981aaz0LUM/Pf+4lTYcpfZfOeoSxG56Q9EnU0oMFWsVr2TWVPGRvs1
Djs2tAtWZZ9wLQvoDfVvL+m55Vqc1bkyP4troJLmkKCFBOjqtqkqbExdJzx17XSI
tno8Q6xNGA+DQTiqjOH4yRBcnU+MV6EKLMTNqO/J90rV7KmtFEBQhNWrAoGw5Sp+
cAuFyvD3EbrZb7TythcqJQyRfuXp2w3lIAUCJXOkx1syb3ov+ZAmnoRv609YX8PO
iyG/8HnaLGz4A3SeeYOQOns3QUsQFnylurwGzUnbz3+f9+T2XYoUIXTFhAFrDxoC
8rDDHzN26ecXod3h8zhJ/Qy0Hvv8zh78C142+fKnXKTie38dU7BB90R9ziir48fg
RY/z2IJe2P9PgP9YdNYQ0dYycRX6smP2cXt4ZNEFtdkz9vGbizScpd1G4kZUM0Ah
irfVcN5AlG3cgFeeUdt5FmaCAr0I4ZDLIeNnBeXhQnRxFDJQfmMU/eLhtTlOoz4y
92ytaS3G0Y6J0XEZfDrMcMCFEgUrtfkRpbxE4U8DVQ5wvs0T1BHlVxnQmHgNKeTt
NkLuAMfMZJ7uCw8j9D92e4vHy04EdX4IQpsip+BsAriIVQevnw1Fb6UTsQgwhbjE
Hjg6xYOvLYj7onVWrUKLFg4HvEN14MMW1ZpfGsAwpCB+KlwIpagmRmcO+B76DkVz
f955TfhwcJtsQZdC+IEzj2Ujho+GyH40FARmazRyWneqlJaP+nQJMOc83G8GPjL5
OG4SQ6oUW6IHpScrHUOWCXX7jC4DK6ojvH3eztK5drxpfPTT0gJhOhGhWoeCE27b
+5FB4G+Vkq09SqG+J8KtvfKYovsqatsxWBFCkkUFfyL2Zmb0wYc1HSYIgG7oyh1T
MVEqbMQ6n0A91z7vv1q3KEQf9K7dgjCAmiU1yxr9S+w/WLGxgG7s6qTvE2Iu3nYC
ouNN6r42dQ3bDBE0s2i/RPr1W9zxR/v155Ep4VD6KsmMP7pxVWddFZ8YGzcwby7N
SyiW5NZEgwHsZ/xOQ9/C1xBFEmUMkSOMNCq0ZyTvjA9u1JcayJ+gR2YXh5PrfOJD
BxDn8goEcGAQeYK4T/eaUYcf9B4d5KDdXjTadBp8iaW8CeVWXsj/ssfEQI99TuqW
jYtI/B3BgWdBaq5e0pwrVQAZLOjbWAOO5FAuYN0aKlHz2CyB1NXI6WjH7W+mUp4/
MeccO4MONDCI6SrFUfQur/rqBfkB3qKS/FSVIInLFE+zjEENENvvHW1+EDvBn/7v
mKI/++2lDnKCrcCJBVChX50xTh8nYjfvni9ukn7fyofl9HmIK/Co0Eucx3IB0cfZ
Xr7iqSYSJRVTpBFfYQ6/07mYM6diJmiwtqhc6xgaqRe52uUDaIkeYHPXY+lRZBCJ
4WXd0RKuwJWg5EyTmuZRjwFMZ+LUmbwNiAoBRtV2WjK+EyNgPAWL4Ic0zTwRbDdF
YlNEcNh5HiWX1bSX1/bLXzPRxKUW8DG9spRsXRv3WUtQgV7gH17ITPhW+CFuSc4K
XdMem2oxQeKFPXXtsetAdmDtQMXqfk7aPRUmc9oXbmzHEBe24yaRJ1IIjVOglnP3
iWpGQ7XYQJ9/ijT34TNulMLSL8JuM6T9yHDzUjJg9QUcMav8dMOKQUGxKE6w30qc
1xgLSDZIugweQ8y1A+82hW2HT1H1BKs0UW4qTjhQipLemfbgROOXY2mYIVwwk75b
zV+rUvLE0Gx8rYRiST1+IJBsw9V/dmUE7lJxAmfP0VNO96PJDIA970QHN+SSrEU3
CuL1UR78j5YGs16RJBj/O49IbdArLYFn4d1Rvce1IGdM7TRg/q3jYmivhITG4w4w
JOZ0sUSPONgqUmRpZ5IOrExvBVgP/rB7LnWffsoHt+VNheVJZgrmElmcBW7LePsb
yde9Av3FuED7KYrJOBtyc1V8P0bsN9/Qsdmt1sRat8kOg9ArcfeHNk6l8RptLSYy
LAJOfFe0NuESLtBU3yd1WlBA9oAeBg1LgdtNpKOnoKw1/mrfkj8Y3Ia5n255tkz/
fp4P6yeNCost1ge61fnIDrJzr5IvlL7ORu7cf24dAHC5BnnnDEslGAU1FSFpmPCD
KNVyoR+Qpkth/agRyGp/rKxol5322DPeO2tJkIA3I0b2DcWqmxC/XM6ARQTc
=kLMb
-----END PGP MESSAGE-----
