-----BEGIN PGP MESSAGE-----

hF4DF2qV2COUuCcSAQdA8Jjs756RD1Kgv8dVIIU/Duvaa1nrEXri7RIVuHKvAGgw
g2RafUQ+oIxGFciGbsHmNhkTrV7f+qxg6O7lGv9fayb89NfN+I8dJWnleEiV8Z/Y
1OoBCQIQ1DObhw2O4OuObgcR6JyjYgChw/vME03QRsj1Kv6904uQIJVb405aJ0RN
csm6kIPOp3B4OjwLDkznQJX20KBjX1S3tliv28K8e4hagM0xFcsWGuaYhslgaxz6
4X6xxxxQy3CmiWpb2o3Ru55G+45KGrenktjlPqRJcSNGU8NNMl/2bV8I1UK7Z7j2
1SOrj7XA+Am1TcYYYlV9vKtN85nqt1cKk9u4YfnARG89nFpXqS9Fujhb4iAlCE2M
UQhf9ZSP0lvjWqI4cSTJDho1qScEq7pdTgksaomBnCjR7ZWJ5heaxqMiVpOkArQ2
vc2liZ3S4GVAmiQLI2M7tpcnUQCRuZ+PUjjP7FCE5C60U80gGzXmjnMd0/WopuLg
2VYDljqEf5KX4RjdgDXFXhSc19XV9yd9u2rB8brTTYB9Xh1UU/u7W7EZu3iJJXGu
2H2Chdeauc5uNR0fq2urgv6dZKt/tMopUDPA8pHvO+tOT1NKjt2sL45EFVingyII
9W0+LZIHL0MoVwtntcxWTZFwWIRPzbvN2KPB3fI62Cs4gtcGM8vLYiNpuCib+JEO
wNL9DciuTpEk63pFcdW6NP/Bf5e+IbQ+mEP5pk9CPNOhOo/Iv/sEUrbqdI+xsddp
VTsgRFQcoNVILR6Ffk9NZXR6RHS1cNxa7RYJDV2sk4wu7bT/tpRKdebCgUorUj46
FWgE/zzeqxr35MgVYVl/doPYuT0pRjMQm+bLf9bzqrzdL1JolO1fhr5iGvyVB03O
5ROE7uJXpEV2/CpxG/dCBHulmLKHKe2ZsLtCYB9UmxgTpMEetzITG9YFhiEut/IJ
4ldqrtFGC9wBvjc6HxGwn6OfYAU153gaCUpeEpqWsXvxkzJEkkmGKxhpIkVA7G0Q
2+nciQzgbdIoXSDvH16Wvv7SqCtbseQ0M0Sg1eXjMZoYTThgbZkWDiVK9XST64/t
BdHepmt9m8k9nAWI5cTF6eXixpMpGkPEc43HTKW4RkHhMNmTWcliVXywVybmzxDj
whHrmycsSKeLaCQ2/rbFgCnYzHB8NyGdJyMnvO+p2f1EkUmAbJKVk+3aAp/8I0xm
/YI47vZDQ602HrkVaa6kfA/CmWtRmO76FqheDzAwltlSBNRi3603o9FTCqnZpPlS
NNMK+uX0vkl5CWYsnj7qWhHMvQXcg/supa+sM5YiLzARg8E6p53N23HznfCSeV3B
lL1z7eZArh5i+svyeRbfSrPPw5H+zft8zBOi7V4BgVSEneESd9Zzos6s8yrHBz0E
TuPQFNJtMhFacMMvTh3mDv2lIeRL8izGRjvjXHM8sWIG3sPVuYFvyti09A/G7rhe
R61geZS+OT0zCL7jysDUmpAw6hCSkN134lKaFB6z7bcX7wI0EaBe0MeRoglCTL6l
zxvX6n/HTGc7UhCVqQyvTyByqo3ccxZi2SH84q69UtxsmzLc27MHDDfvyci93cT+
aYl0u9BEl4dT3J3SeG50xfxXzV+EQ21kjjF71fZoN/MrLaPajaomv6oOyDDnW+SC
X9X0Yvg0Fc4NAzatI8vsAXleKfPVqG6c/inkJEB5mvrYFRI8nTp43uOFYpBv3CH4
pH1jVycWCthvmZg03XxXDV6m++CjFTvZxjMI4QKS8MBDw1Hcc6LpplARaRUQJ4sO
noXyN//Za801JxWnESXEW14Lcm5fmEWzvI7NO0wU1/za6Ce/ojM5wVo0BZ6NCwJ8
ngO6xODZ7gm9GF6al69COhH1DUvHYfxHjqE+Pw10wQOiWdxErBL3rRqBuFhIi5t6
A6IB27sA2T5XML3Llr5c9BNLk9Zu/+EBjX9XEJvCn7QDk6H/PU3ogom2B/DbK6X9
79gmXtIcJfjMgxhegaYlEXNXdeNRCdQNN1FXYlnibe2jXC7kgjVVqCp7W4EJCEUP
bkhqfZYV0ITnvtUOs18YOmZrV5sFMGNOWucNzehq+5dJSSCB3B7ha+LDIPhU9fvs
IWakxnISuUh8oxsGi4tj08EMk9qLyZUuL4H//u73AB7o+CqY/TosKJPTSI4y0yJc
vatUtQ/Hif1IdXhQjqOdDkPSBpqvyZ0bNWpPm6X91D95tMvfR/NNdHYf44ao8dsF
xzu7QzyXL4O/uWG/VL64VzNqo7nnAzy7h2NDc1v/Fe+NO5ahHbz7NCf5cQC7baLY
jQAwJ3p2/PxKRkBGasezSHHOAchhXNFLw4Z8JpfJWimZviAFTupc6bOdhUijrx7r
IqO3yASBfBptR/Np8mXXtOPPxJEzfqJNAYvtYBkX9tX7Z/JunkTM/tWRy+/EUafQ
yMOUEzjoQNDzbghg0Je087o2ksQuRT8PBKXtIbPws2khaK8KYcOHYq2MFS8Ac+Mz
EpnZ2vmVf9/uT2A2Ow8qIUolegGTa/2rUmkSXYHzfTPmfOrq6LM4Ps3z+ZP/QH3Y
G1P68SsW2F50mHRYElR8LIEgqDNu9iMzh4kMXIDS1hzLhsFDhiOdLp6qSX1wzJe4
lqKE8FlCVFwPUKojVwOJMD4rujNmVAb3RhOVw3PK85Z6X5BQWMlsy0GqPmmTlKwc
84cyh9WPxudLXHYNmGWtPHEG77WQuK4yLg/suIyj0DF/md5KXFdGUrxSNqRNFn2r
PPUap1KUhlvOMBh4PAhuQuDkwpmygHSR+fLZ3GMOOb3gCBP+ZUwBYb4vba8YdUlX
pdiSmjDabTqbArZMPA1lkhhti8Fu6w/5R87+/YjL4t0HL0/sjCD6yiBtj13jIXp6
0ohRnkRZ15dfPZPdAo2l/Lm29frKAWmXpi2Xzk3HUyD4rek/tyl2eLzZcWNl+JFe
EuUf0hvO3nABwB7D8aII6/a92tZdQClgu3h7wzTJEgL9prihPDNZTqZdAzJUcpQz
MX74UtyJkQ/JFLEvV+sr8zYAALHub1bbxwQZJWsH6KFnmgZ9Kfy7d/1F/4GLwlc/
sy57B3JZc4aup6XtUebdrvgn8qVB7hPADZAjoe9k2coBAOiRmjqEd3QhgBPbJHTL
CdPT4IXmejbfzrwefzhmJCYHD2r15kQT1vs2gzM4ZKdXkXctKcOlIDkkgkT9g0w5
gyorBmp/Z/sfmAH3imyzj53HCy9VG3AJdZRKQWADu+rzOcF7wPh0xOy7h1U3H/Vw
PhFIVPDkTWq81nZobiVQrnrnO8P29BaYpChd0sB7aQ872xdVxGX7Nb7+LFJFaWpQ
AaYwfJdgPAV1iQghkxfa/59uHnCDcfaMoYVgvEkmqrVFXcQJbtxsw2vFn2L0FtPD
1T+XdLzPH8EcjlTtlsyrjh2bbZmfGJSxFWSaFoAJa6ttejpmtsBFJyicKmGozN8S
3WVKGNKjqEXataXmLEYE6AxC75EwYpFkBR6nd9L440YHB/lH2TOvd66x7R74U3kz
FzF54dsAwJnpdVMsONXjvncfWhYDeEPbHqnJI1EX91j5suVP0m4sqFKrD1X4w3E0
R/LD08I6rUiQ96JRtcp1rZ1kX+pMeV+JdjK3+7Cv83JJ1X27l/oiUqn/L0zBry+T
kc7QyAO+5zjWFMMy7A/SvHqd+05HRdUZqOwI3Ir/JJG5X70kGrMfAdML2mmjpSEn
s0yjyBq+GQDlBve+iFvvvwww+p2u5kZyEaK9VJSKFTyVvfdomk7R2s8A/mrVQ6FH
PwlJ9/o9ziq2cxcviVOr3QTzbFU6x+YIV7OH3yd2BWMCYGIN1uDlFLjCdV//TzoX
wdYdNNiP4r35cj+jDWeDAWAYwVWY3xqT2ECtXVVVO7o93R38oFhxVbH9nAAWEjvI
T9RS490qUSPmksxfJL0YFyfAtTq++XoMVA5OeBrsL4DtGcGLR8OhzuOFG0wNOG4R
uVzxCcbYPcbbOG+rxaxT7ifdXx/fGudpkPJoJM1H1xKpEmK70tfVoxtTVSuCye7Y
3R758aC3Gj5+AZwx//SLT3J6GuCxBAP+mk0hNMGs8IGgaU+S7ehalN8Ywg3oORjZ
NCy+0DG/ttyeM5ksAgQq4pqA1tKDhSGOO+qF4/B+kxSksghmDKbVxA0x1/5edQ3k
EtUqrfjFixMIVJJxY5fMds+WzqJzxDNktCw5cOGOYNHlxpSv0wEpQuBNt7gaEfH5
Ba6lHUbOwvxTne51gf07Jgtj/8mzGBWEKLe/xookIYCttHlAm/AXRiaR5a9Nq2RM
K2Y2gLalPLKQC3lm0PnXXw3L9fbe6+0UTQlVx2WwyQVAaE3O8/PpxQUxIIO5n/Jk
6AzUWwI9IsCblDVMuJmaMiVLzWzVfLg5ItROOfaJffXFO3rFoTiivr/Xq+XpxqVN
vp3cdhdNKrmKwOtEautMtMBLSVjzOr3tSy8RfupH3VPMyfh+2Mg6vH6Fpv2LaTOa
UiqDsxR9628kWCh3GytxDffGxC6xaPWp59rvH5n8S37s0VOImZgIEnchBWg+AfCv
aRQ9nDWT/J7dOQK/nGoGeA3K48oHdHri0lMzcMHEXQ0TcPzXIQWAcMLqQO4sFmox
Q4eZsacLR6FS5+qNkVogotVuBJoXNjXZSqdOthOL0HK8itrVRBVGzbc3oRu9Ck52
CIFbKcvxYl1E4g115eXjB98ULCHa0zaxP63Rcq0G1rh1c42zBv/usnJY7ZRuf9Nl
TkGdayzs00qgHb9RJaWS49mYHlio+Q1S/VfKrPNvLl9MnP9kb/Bi21dEQMdjzm7/
VIjZE1lgNFIkCrIoI+g+fm7rNmcoSzlHAWMP12kDDqeJvzq49t1lV7lQIsQZEyG0
W7faCOeMSURcw5iu9ohsU22tPI20Y5xoNERgwI4iiJRDlw8oRklcLQyiQoHkTNS/
MVYOxYCb8ELKyndsGKh1zlKvk0WJujmQylpjhpHiNAxJ0TdZEug/fjJEmOaVxjud
55UNEkcfXbmfF4QJ3N7zzQwHtC+GxpkzOwv1WfagPWiejyVzezzQ4KCCnuD5R4IZ
mYmbRN7zxfIdH4DohZjOdPtpHVxvCuEgngKE+W9uwt5i8vU3pXGmjdtVgqg0zZZZ
g1rpxnrhzhr35y4eDI5iCMLTUOB2uKzVpDbxBWJS1kij/iB/PR2IG08uPAtaP5O9
g/3Et7T3S//TtMby4hlYPX1i6uObdk2aAcAs/sa7U0Hmp980btCNjjAttiyJUBFQ
lMpD9m1Fcow80nCGNcdDoL+L3nrdqt9m0yhHVsXsFs7YnBLjmQjuobAcXhGnLHwd
nZtKmPBSri+qDV99qcGMQMw+3byI42a91H86wP/i2YSCuTYv0TIm+jb5cmlwxwjP
EWLygqritVtdA2RuUPxccDAKr5YxCXTy6Wv082DQVvioTmaSMKaeW4zX4L+40mBb
GcPTQZSTppDqBNekZDTxuoLw0p9HhiTydOGrxZDyFycjPjMbCR1P8zH2VJUQfEf1
5JSXmutOmPx2oxT9HOqDdMzCKuOiEm2ajVEAHZQnkE52BuN/vYLU6Wj5Tny3Tqny
B2T/sxZF+KiijqBAU1SC7UUqrgvZ3uhZIRkIjc5UaCyM26jc559Gc8j/mdVOzZS9
ZqbH/m3rAGcWntH61Oa53cMUsB+uTm2cSzU7PLXWrTdHTvZTWIX8FmEecDFYRa+Y
m66EJLu5rA3UMQvN7eUMPKK2DPPmH5w/ehqPPRZV8hQm/BIpo6iH/omTaDSzDo0+
eLWz49d11dwfmeScTp44u/Kk1SA2UIBIKLHfZn6UjaxJlbz8zo7RynJNDtehxVpc
Gktr5oSqxDzImedcycPyHT8n/HeCBDhhNop4nT+f83nboVAB+wUwsYsixLw508YO
3kcN1Skh3x2Iaf34tG+PP4vQKJ3RrH8POidBIcCPZJXKjH7Dqvwawi4XjNU65lI/
ut45D5mx4Zqbq0Q5kYePDgT5TklstV0GCf0Et9Z+DIZaYk41hieDe/3tzqfgAG64
iUcuwdxhkMMwVBFpsiXSK7yMbu20ZclWnf+s8d46JSGKwI0bfAezwfcMxv4EC9eZ
Nmx5iKqOygAfp3bsHc8/Hp2syYio9GGunVW45RBGk9tSIPCzKirz2TvaHs2RhNdE
m61h03BDZxuFivM34dnErM2RkpOozOfGv7x/vVXP193jFdWBxYEtPVwWcVhSvisK
jqdZuaf9+umGVaGUB2XvIxB+m2Yn9JIbGLjS0WQexSqs+IWTaMlX2jjL7MT+ClRJ
gtj6JBvt90tqYrziXZEkaGfTBTQ6o0opaaW/GzBhXOGqjKy0q/NS1CTjMyhlE7Qv
Ec5gQw3kT1j+fF6fdXbRz+Usga4w3NSaAAOwzUjdoM/39xZpD/Y881mD1imHgBGw
SOhhGbQlRTyYmClfqWnoLvkCtZ8ENa43FafSh1krVqyWLYO9hV58YXTYPAIWvyn4
7lzoiRqzMHdZjfOp3Yq43eQiNDSrYGWP50a5a6AvP+/TeKabX2m5tRzBEycSOU2Y
2/9EV9rUBi7/oOAuKYZWD7hn5A1CGRPnflwnWIoBSXzZTnBBn9UnAEHkqGTipNmb
tua/c5bSeGu6TnY1ByJmndqDBx76WrkNWW0sFTyppisJFk4yPo7OG6gjClLB4PFV
5lRbXys/b8Ca7YEc05nCfUzEWj4QtezuXp8OXWqc2zOmmPSUu4mqlJuFDpN1MuXM
f1U0HSH3jk59rfijHHYdtMvq1BloQeRx/Sr4mUs+c+jBYe2w6O5Dv+TLeBZ/lmWi
KSuEVyrSJDULtCbYHwOvMr7p51W+hi6TU5oaYh8C7q8C3uyz7mhR1kcFVF1Js9cz
wUDNh2Q5DeTaCVr63mtHUiDk4q7fNQ5jUz4hPwqx9Aiq367tt9UcD5qreYq1K71n
hTQY4xM1FVjoEh9os1IHI3d3bmldoj+/3oGDt2sFl1+z39K5E9K1/Ih4iaZPFLGc
9JwExY6ViA5rnU2cqJJuvbG8UTUmnqgNR/c2QWm8hq7gEOP/mjO+iFeal8fJc1ZH
Gg+SDdlaPxCso9X15udA6ByTSZ+G22bshASdiZqs5RLMmcSOEVn1GIPa8RkVGjQ9
fkm0IkR9nhkm/eOE/tszf6l1DIWysF5ChQFqsNGpcK/d3z8cMj0ZMYrbsEUmxXqF
vnFZdTWFyRYsD/p36C8ZJ4oZlrp9F/GbNoa5Cpqpw4r5rMveOosSbnfZ8X5fKxqy
dg7oOqdyYPqTpA01ZBRDG7tfQm6Sr6tlMFZAZzQXUrRrmkWNY5hnKaGjROIk273U
XqtVW2tCAzedHSIb7XbBJQgr/KmbnejxVO5nsVrOhrTfeyg0u8WK30l/d1PZ7NiI
yBZnoR8MTc04d+oGFjP2spkmUqN9RaBarJF7fu3OAUR3LWuhMu82ZpacIjS72Omv
nT3kObzEjpJqsR1a4u2u8PU4322FyucL3MCkbeI1jPrEOR12ujxM8cksIcE6NJ+x
zvEcdq9rjqzotHFORDFg4PapxAxqyGPDLSEKgExJZxSq7IfA7YX4alsEyih0ajJz
JiMfpq6MfknR4tTyUEFqRauikCaJkl5FUOUIiWCjq1JBDryDIV5L8DtlnBTXn1jI
3yU7dwiHr7Payrx/jvwRdDOAQ1wdpSUhSRntwCk9NiExL/qULmGeB6kgmdvqqdJO
E/kiaXEiYwLbB2kbERjsZFucAG2sU/U+orCJlwbkP7MpLMbPFyzO89+/sXNbuiGY
aR5zB7hOGb1ZoEZWhTzEUGWYBZDfT87WqQ2EYDqW+OgpkSiq8CGbPBFq4azyPbOp
gz/dIPC2KQPrtNZRdum2JP5RBGhumZCa38HSC2xXWPVjZHNbnF/dMT3JKqQwW03J
MGxvxOcRD/JmhVKPuQYUd4oE5QXUre6YaVCi6WyuflVSq59FE2gCbSdk/xEN7h3r
+ZxE6RmR378vn1lEcLfcVZ/+DYLWHDrmTPb0vQxWAb1XNa1Z4G3DXnUuNJtk/Nj8
eqMsGMrIBoRbC6/H8pQMQSHUxEjt3x/yNUjHPx2ukIWz+/KsqmStp6+c6shI2TGy
T77ZUXs3AUZGljNkUdGr6uYdxm660eZuizOkLhEZNrcq7+uDo+FhrsWoyxHdpNXi
dXUpwM/FSgIn2r3KDDw14f1RqmjJwu/nKILMO2eoYbl0a/VMg3RBTfSSp4mOAguf
P2KDrUQ9DW5X3Ir54RZ741ssLJZ1TLyGH1kElov7kHoFRsW7avfgW3mgxJ45afLn
xhSi/NVYKg13+UFsva3utjBLv2yQx1+ec2YkFQz/d00HHTbL5+OD/leIG0Sr2Eob
y5+jB+tlWxl+omtIUp4pLgXU/Y7e8x39qdGcQgTu1hGwm4BQ/j6fWmlKsg1YjCPq
GpyVtWh50QZbzlfUe7K6lBxlOaJr8Ron4/qbezi2uxZ/qLfYloiIM0n9z/MM09p5
LCBPFtsJvGItseGOCnbOi1oLZ6JloZe2pYC8dG9cYcBDuEy6oHI7XwQCdr1EF+NG
1LYhc+gEriP7dJIsi4QMM6rOQe8JADFo4J5uddiOJ11dpoiKVH1t4jIjo05aySVh
ZVl5gIZamW9BSGYxTjTNQcbcMq+r4FOPbpvGWyhrFDAmRDNcjWLyiybbV6hRpbLG
/V85ZTXPXrrkw7li67BTcDGP3M+AX5TyJgkvBxgcTJWESIIgnAhwfOgWgyFjV1HN
wiF2Q1YBIrFLdYEgRSN7uRjoej008oxJzC0aMEtj7HV351Cte30+4/q0v1VDDVpg
5nI7hbez+n7S73uHIwI/YAWEmHw6yy0+bIEFUcxPRT070lBpmgzMKfePcFtSXj+I
Wg1v30CZf5lVin7+OM6OIaxw06HQfIFXFmonJjpYojA2soFgYPKT1EKApCg0QnWQ
9TCoE00ur/99m2uKqyWDeNJLB+Zt/ZKdXvdk+VBqsTagbKTiK/Q7kPO9ya+tQK8W
2YrfMS/nFuHEHAzIONitXcx1eQOXKbPXbmL2rY9eCZZQO1rjcHxG+GVxCDSyLMjK
Sz2qESwIj0xpvQwfXwglbxZ/GIYcXOmLwhK90nTPeESf5upMoyC8kfuJK82V0isH
eRpZdBm6yX962Icq2RqU7WzEf4dEJjLMYoY3BdN+IU89KhoVg0Meyh1yq6l9SahT
p13NSOEeBkc8T9bJphEM0/eSGOxPii5KPVioT+FmNXvMPc+CQUjJ3pv1Gk7Y65sa
C8DEiP3m54SdPlB8EIZogx1MZo+UXwpfhpgScxMHb8ksGDwebHBN+yTu0NxmSIe7
e5q5SrpMQWiNgXaUhwnsVO8V7jZL6XMOEljt9uYbtvV7h6uRjhlC0PiN9GEbTl/f
THXDvRjNjmFastVkFIWUh52uMzNuuHAa4eOWhKMgEbHcfowoW1c/fLfBe4uDo7rA
CHbqYZzcGQD9YeTTZ23onRiSySD+6mV93u94XgluF0CL3AC0k/dP0qAYr8dB+5jX
Qs9UiO26yahOBRkpXS03dBJgNlJrVvj2wBzz0+WkSdedSCp0WvNSo+/esb03erNQ
6T2cS3ifqOukNfAj2k0zrN1IZKSYaEW1dfNseyQUXnY2XULHfLtlDvgR8aJmhduj
3L/uhUftqEVfMTeH4mGMnhuPN+ws+vqqe+SgAs+GK/5Hr3lWVbZ96Skq5dCUdUuk
y35QzBYMkMEdJwHmmtgUftBqCnoBCHQe4vqytcSYratyvJzPd4i9XO9F6otuc0VK
sK9cCUiH8qa66p9e2vem0JWTCtXgXAn0t62N13/5pYLGyNjPi8DGjJfOaJzz5vYx
DalpHOPLijqd/pyHMPqaEiloN9oR3h4GVuDK+93APzXAvZCK07rtKsuB8YOAtNiu
Jn1iJPoMPBwjYAuWamJPe2cObIXG9uxSJPQnDrJIqV5Lrvr/G9ckw2K26GQeOXUl
h/IJ3QJPylUKOoujetGkcoZbYdhmiOQysnM6sP97MSyviRsGxAYvD+FJW+YB3SPi
thsPfSO5OK3BlFM6y7DrYc1iMS9aPus/NNfW50BptHSbM7k6ExJMptncyTLQWtYw
GcijZJDOI2RTBYy4CTdxGzQsqlFK2VUUPFLf7dYAS88lmAyotG5Czm1T66+3ARLV
T7/PSa+VgjQtaukQQz7Rqf8IXImjwZMlFJb/nhPzhl7/2E1wis8X4d7HBpWy0hd9
FnG82W4TqBXYay0dz0CC1VZxamgfnFS6x31bRRO6+eR070lEYgas+xlFjnYlidiL
/GQj5FAaVQ0n4agHZmI0ahIl330od3Hk/XWoFrkAxgVd13++xGqIpdCmWPza4wWb
bgCviiDviDtVy/pFQz41tcFmCGT4okZT4LdDyFltchMZPsRRK/MG45Dw4lE1kNZf
BvVSH4hRjs+7QHDvCdWCZDqyLS7Rqgwr0LSBjusP+E0iFboviO/BqQmwmrNV8GCC
Ywi86OQGup2WF8aPZAzRAWQVhnUm2YHFfFTJ07ByWJA0piGxoqY5RRKBPc+WOcaW
SEYvf/fJkFXHmU/4nN7MnTWVSfbKJIcleR7csHfMd3+HwVUsYPWGVPvLnCCehjSA
TehCgwflrGA31/ZraoJqkt8InRHRQZ2oeRJ4o9CunLX86PEUazhWVc4B8H6aVh7o
gz3yGf6Fzi0eWaadIcbMnnuKy7zXaahbisMLNPxRtwe0UQmOhl9P+itd1Zomyd6M
bbCEPqVHMqpgFwU6LqASpcOtqtXXBF1+TEpgGlWlXZw0WRVE6N521Lwwgz3gqrjh
2hqyAnyj5KU43L4BXD8ZMfn3IgVQHwFn5SeFcTuQuB6zmeXWFyKlEJDwO1AUwp3M
onNk8fVqETKcWVlgUJ0nQPiOafvIKAsX/gozqddu+thdxMH9/WrJ6Sz3p0iAGNc3
rvQoIg9uZ4gMiexLtz9v4PKin8nnt14j4xyWqiUtBnxav92Qf9+25flV/OUp6ncz
sdDAmwwqr906bzkpTisBRL9vYejkBHvYGltYPOYFl6WmQFuyV7hXe8CXcXIV2EXa
VIGdT64klKj6nl439IDXFIYICcHPaAKHSiwX59gFPIsdS8NPH+qZBhCzpoMw17Ad
AcWTeEetD4hJcIeeVXmzrNR0vMzBHD0UfkIYw10FH2/zDSuhvg8lXACINhxhC7UM
hu9iOPtGKq4YBaOB1vjuDwFVqQ27g3hNq7t1iN76JDzMikJ9/bGElb7pCUIS2mVJ
4nsF0CTsh1fgvXZi8C4D7/AtKXtrw/In24vXi1lLkiG+isNCY1X8xxs4zJBijvpA
tGfMnXhwcdZF5QRmSnOz0Un3F8uP5garY5krZqto6ExURvwtK7+gkF2LfzseztCb
Zwu8aD7+IpWKEeu1uYKZ4gwNXegSm0Od0RUzPHq73/xpMOG7xErIMh0h2lDgMa91
3oKbg9IV6D+DYV3kVTb18TfvIddIeqvProlPwzjMSIdv8BregepFoGeIePMk71ri
rHSml8Fa6BHAJ4MXUvlOvRTzz1esBEzBzZezEVU1XM/Ch8ugy5AjLxgE+gsnoSI8
mXQvZ0yOd3wn+ch5zpRGMb4tXLYnfejRhkFr4OQLnb3fYHr0ks1KUd3DLYNa9iLv
NgM8Ispj+0tnf6QD4uiAykPdXDfiqJ3H02ITFkYZzRG185RQNA0ISBUk9+FfWHIv
MCbtwHfaz06sqa+PueTGCazqgk8pJl8ac7Km+xr9IUTBerI9EZ+XFIciey3wSREi
OeGooi76/fAu68cztorkQ75HCUoLVvryiatjvCM52Ng8syGB4w6NOaz2z2uI4Qxc
Lv3N3EJmHHYsQioqWcGgbkmSxUvyFrR5c6QnPgU1Bg8ZgPoaL5jjtzOBmaGoCWk4
ONAZwTRRRDkBXb9o2Hf7E7pFiNT3Q/K6v0lpr+c4jbZw0lACjy6Ykduzpnzy5Sas
aAIyFqFidt9BpGx2TeOm9L8oO2B9w6oO7uwOfA5VGDQpa31eDjOOkyl9aVz4njMS
OV2KfO0iaFmR1ikZVGLCLltZ1XrRRx2ZcrzME2jWnjhTTd4WEzX5J+jip1LX6g65
i2tG/9lOwIvSA5sMunHGT5Wnsvf41VCTUt9G8yLQda9kIeYhm+xHVDnfO8kxnZQt
iXk751GwfsK0w4sPk7QLt4dHtvMoBch99Y4tQtIm5p19fos+9moaYgMC53O57JaH
c0LDOlDuUCDW3nwRw21cyh3syfHwYd92+ElibV0odscP/BSzwzDKjRbM1iVu32Jm
tAB4sr4sASzNGl5+J4qgGYEexN5VpNgPqQPTkhQkGMIqltCI283WdAfbfo8A00dL
HV3btevJQnYLjlHy91lExIabrDJ9Y0MgsOvl8u3s3ZN3ATB0NBsVisHcptrtPqMB
3yG/ttypRAypt910coTuudUlNGNKdJE8A3RCt7215FPsJj4JLphn6aS2874dyDkD
Ge85y6+76o2W6NdwQVlrQOHRtPVu7yVLmjUrtofigsl7+M2Xp8QKycXg6NYHsZqQ
Fko8lDhulS4mw0Qms5uJEBexzu++wAhmutSK0Jo8Ch8UphHYHzkXHrosRbDQEJlP
gPlhm0hdEItKxdxZHj7l4FsCio/gAICXvZPUSuW62taeLLmJlHy79MFFFN/vwiED
fXc1aOpCJNdO1GbZ03IoHdW1ufVUpZLHi0P0sQoZErD0qMnxN+R8KEd9IRHj1/Fj
aP1GZpXcVIKdXVxcPBTjlGNVH7YEO9k2Cqh1JunDEMw6g8Hp2LZJzerOdZjWx8KY
g714Zr/3Ui3021X2tvozasvjdds3ghTT2tNveG6htAzTJ0wGdq/yzNXGiA5FTYcQ
4We80/S3o4ZkaPI424F8S2ajEumwwcpk1/D4cMuGO8Tqek/AUKLjeBvr6BzUhyxx
n2tjO/sbWTI2+aYc8JQK7sNL1MY63BAvWPN2L0eRQpaCLlXVpCrMR6J6oDfYCiMv
Azev5k8g3WxmO8jwhmuFsxBFmkLJxPc9WksfNg1aVuv/tK0WJ6DlzMUKaQ3bW5+q
7dv6BUuG5dMg4Y0B0bIZ/ej2CA5PKSr00enduZTxd8de6J+VpI5OtnaLeJ9G7gkT
xBStqgH+pSQCBJlklFMM7pgcItcdby3bsSWbA+1AjkW7PbV1HkwUHAxDUE8iMdGQ
1saHBhvE+eBK78QAbINA9dL6xNAWE1yOYtGJdqMsf4xqbS9dh+g4BQsj+bJIsoyX
BzN55ZfQg4aUfvB7bZSdXJiJDa3wRLKPR1PHQUOjViDXKF9r+mgXB5GJpNgF3uIC
1HQyfCM0AzCFPlceaXCWFQyh/KAsisRbQfhTw3EmxXpI2t5xzU//70y/BZDLPdIh
o19cl+ir+bflDf6sRgp8pkbcOv0nOXPDm4fQPiFoj9ns1orSIfY/gX5kwmiIGBiH
vSYDuNLhiw1+cI6iKZGQoAeqKlLfS3Ty+0rp0kYQ7jjtUiBhCqgHscniJM4OlyZS
qjiNpmhPMJTryBwmzNkh1/tYIUVJNcK0xeErbET6ClSVM8on+5OnH+UO+ohMgwho
InSHOcOmqWJF5TbaIdP/bYM87iIkSGfmH5oafr5cnwbi8YJ+H7/O7hY7tmPZkWsF
aXKDg3dsh96yWMdx7CMJcZ5FtA820w2eM76SjhEwNvtaHhqtZcfli4xxQQtUUT2n
qD87VO1dxCCSoqDM5j1FRJpNWj8ye0kGh8l8Db6UgyZ0vF4o5rJveF9F334VJY86
4CiRk3X1rwftEgzIvPzy1eOxS6JCplmKa9Nsbb8NO2h3/kSwoBG3T8LCWrubAzXk
6OWj3qYpUJRiEoMC/jG5IHA2U69uOF7sNxzBpc7siFp3yTbHHIYdOYDBaOf8MIrY
8NQHkqHkOAuyQKOPF2xX4CtrmgGux4l3G2B5oGsyu3VEtuEaoABa6YJNx2D+HJoX
/9em0S07OiY0lg/miOFBdfBU6HpTGkDRRLx3TWn4/lVPjzZP162lBuvNmExJYtsW
mTq2Rp+DrhIMpst1KrzicfufWY5zLtzZ6PMTyWpmHmKmupI9zen2Yjzh8f9dywAl
W4MZdr2UC5r1pyi7q/7IwyGKOc814AA2bxF3gj1sQTPPpkPax2m5t+tRVJo7CuVK
qKmt85nE6Jx4Sp4QKB9JWhBj1E0h0M3glK8ubn7F2KypPW06RtyiHZeH5vfLCu4M
Ge7O/3i9mUqdLnU6+4PSbyA6WjU73d1nxtJo1th6fxePfLjR5avBQGbmFumI4XAi
k8u+Y5GGbJTqxfazd/deD9Pq4woIZnkDjuxa8QLcxdX3vEqNnBiWdo/6pXYLGOYb
A2MJ02WTMeM8FwJC11Uhxh/5daYddTFVaHOoiJFmrweiYJHgy1cht5/mD1LIgXmU
C0HqdIAqJxbGbUPlUVU8/lJvxGWoPGbsC0OnahWO/LZ1H/QveqeKdP+QO9zWD0PH
XerA20XOD2wHELJIeKGuWqxO55l+bByKq3sTsh18ZlT4csXVaoxLZAHK5NiykCW5
a9gOTPtO3pUCjO+jJNLfmcCjdMg9RORzAht5ROZ1trY6NzSEmZBOZSq4Gi7VsJE/
7DsrKMUJ2Sc3PdvkWQOavzupuqceEp3UmUqzwl331fbk78CVkz/a8Ha5ZF+4YONl
7f7+6W1fRjCM8iwroYcO2tZxoHDk6WVWd7wWyj9WSSDgJT4vXLeJWM3SE2buh1IA
MH3PWjy07WdvU7izmTZppb1Tt/Lv7TZ8eQpahWAX/R+nlfJoHFOTQ1qxtcV2PdNk
/f9S7cVn92xa1OD1kjlvy+U+VciyNkCgygwsozPlr6WzhVA7wEWvcT/ZpWDWBY/p
V1nwjLT4ZmecKeVkwhay8bTfZCnl9bR52XnsxhWMlBnDjDKNvVgJo+w9D1F3ZkxH
g3shz+skwoxYJf0GGbzhjKgP1uHzkhIX2FzeiqKWWY7Uczer7N7xXgqsu2ZGIM+n
pyFPR0n5DHANIKmbv8dDbwfsFzH6KZF9CDq46y2HBp7urz1rUZwbYPO1EW+LQ6ki
bA2cQkBxxgw8U148/fT5Hqwk72B+VPQwGgBdNjGMhCCYiiOBIU70Y9nn5ni+6vjV
fQxzdPdC7kMp9ZTj6p0jlEa4yY35rNUegpXgY6bzDB4KlZo8vsx7ENPRgaXf5Uvb
eU0i+YXHpH93SrM9e0z8f5gPUbgo2y9yERD65wqWG7cqNXXMnITbUyUUwOM5FNoe
JR/UzAcljyMZxDsmdxYOpwVBomAQ/E8aepecnxY/yby5hq6WcSh4C76M5Aa4mkAo
y/7u2l7maw6DFNsTq9SE8TSENG24BdArmLqQjysNl3nr4X2lKYWvXHa7zf6+WIvo
TOXs6xjEbLph4sX1nA+04VNdPsQYZvPZKBTH1Z92sUVXotqVGb3gJvR8urO4RT6H
dGFWN8iUtyL+ZqlYSB6bwrYdeqFN0CJQYGK+E7uyyxMHGPv+yevEzZuE86lUkubc
W9qEqbkKLRQE8cLQOSDfPiycFXaAum08oXStO/H+uhhBmCBkzA6OMGKrBrgAm8Z/
iPAtcepQRxeGea8OjrcACHaDY4gPkYsu6msQFPqMc0Yoh+SspuS9kA7Y+LOfk4dL
m0JZqfigC2Yq10IN4NP+n3c6GGcT8nXqNWrBXxn0Jx2phQdt0RhBxd64kPyRIc3Z
Yd4WR5d+670PRaTvaOV0fyIWEi9s0t28DEMpPiUq6NKQH+dpkqknSWmfvGh1Jkgt
6y+gJtJuVmaTZdXxiN8U1Jp3ib2xmTj/Qs4xONCGMt6hQE6zOZvZPgNsIJhh1WCp
F5TS/aYygZhkxDTDFXvDaLESUzhpNFqdww+ZS/MtReNgVs/48a/ILXWABJmHhZRU
hBrgqm6FOrLVxF0CPs3rIAX3ZcRvD4cMmsgUey6HuJOMy+PWcvRC/t+t46wiYclm
vVWJztJvLYlmMU5zeUCnKuGQTb6owLQKpvOnFS7DMh5IW/3vxDH0sn7rvXqAZ6N4
R3tFyPbP6pyDlW7jtE0XPeEF/r7y1jFffWi7YNm+NMnZr07hwbfrzVvL+WyjIk5B
SjSrkl72zPLCJYSL48eg9Oppn7sFrhpEPI6ou0MLvDBha4cSOiX18mADR9rgn2MR
w5kqyBmafypV2bCgTe1PSoIuDCuExtQ593W25hWf/JgB5MzZLGvK3QKXWrvBb3zr
WINq9dgrmG4H1Ek8O2Cm/pqAxuABzmq+mJ15waYircKb8bnoDOxdWeUshNb8vBcZ
+JLrdysv3t0kRMwMCvlihu1wLDBOdqLBYV5aKiXD6mTw1wptxi79qjcR5sjlqhAK
Afh2ez9A/lo6APPlGaeXlpwa5fqUHMIPtjUTqLXkh/SOZzuuzNc0aMuUrMw0dbDa
NNotm73JY3/+W39QgPXylt5FxzMMRP5T0TIcQsPCKRhSeremlbv58qI+cOjtuYF9
SwzA+tpZx/AAu3t61koHLGyTYf+jtDrdnOWgS0jHuh67UIPKc+fnPEbN+5ogunGE
ZzT8u0y7k1Wv94FcqbYpg/Rlu6e7nTHst3EnbGJODsH5ky6SU00KTC5Zauwti0WW
GxV/nE+y/WXosbQJ8f0w4DmRWA+ohx6ibgsPhAyKJurWuyW9SoK6rJryZbWepwlh
QDGkPfl7B/Q9qsy8lGCPYq8gOMojBg04zYgyMwkMBu0nKZt+dIMyR8uKvWLVcXlx
IlD9o9VjdqCOlZ9D+vOV+dahh6vQC5O1C7vVNDoFUqupy9nFmWeNPJOu70twUGUg
ABAGvlfkZvODKMhyKco3LW7eivl6zUFDlL1iEJ94Wi5H5NmgoXAAVSPf97BVzbb9
LB03N7jkZvCoVgZCTL2j18nHGfHq8SQAvEu5e6vpJZ85Sbnpp91d/26QWAIAviJF
22nBrXidfE/VjVhkmhfD04sYUaTyflzJPqiOeBfS/ZwOx1M2QwBVm/+/6ytNf7xL
75BPajOXCr1QDoVVK0gru//q5Uzp/34irdVKfwsYMWk65bc0eB5Pz8WnD8x4u+L2
2b5BjY2C7Z1M+W96nqIinUPFzbkxKC5BRMHyDziUsPRMJbuAi4li4GBfDNAL/Z7f
i3zpx8g3I7aTzQwMmNH7wxhHjXfsJaRZ/Vi0aQIJO8pCTt9S9FdfdE9DtGC4VZ1F
Nqom+vRKjZRCqIC4bqcKLdEjQMPN79pCkCyjIcJDer1ew1GNSJi7gL5ReZgohoSF
wv9HPiYCE3O7kt28xOb1m5w7tXkcvcCF4tHCj99HblCLBbAKXXPPwfL9WNJTUcPq
gJ50c9DmnNKe04uUB2tKhR1d250gK6TFPRDKhMO88yZM/ZE/CgbqLYTi9Oxx6i6O
13qvBHpV7zAlzeKTgTYu44JeyqJZF6B04ENxgc6FLtJUBrLnghfxEhy6gHL+i7p6
G7rwV9Tf9g6gxf3DY/qlqKojM2R53IA6GAHkEWob5RJ9FrdtIOXEh4w+T4OGbyjX
d+7lrw6p7eS58oDHjlMM9d5LmjZAzwGug3MugB7py49jemDPOSnKq0T2Oeu1Va21
pbH+NfAGwzT85uaS/GZufmhROHtJ/gmuhbQH9aLweqX3HthxrGqmd5X0STI4VclV
/oYogNzPVsmKmYp1v9Et67sV6GX0GMacSbgmPLf6+/CQ895y0CsiHgkHJVdhw+7l
FSZvejUeW4r10PG3Vq1E+Oic2mD5oG4gQoOA1hpfI9QSPYiv6zXGr4IS0enG/YQG
FfWX1UglT6/bivVnk1Q47u5kGe4T28d7Ul5sD/ilj1J97O67ep9+ZWSMiyVS2avS
1y1rSMNNU0pR8eOXxZB+gACgOD9QCZCXZwpsW7vlswXOjwtg9jgjBS4Be33yZXJc
1AbBfszDIy9KRsLRwApVqxHue2lV8IE4o5/ORIGwqmRkM3ujtmEj8bg4lnez5vgw
06P7oCFlqTiv4fvr5V8Z6dMaFzMyTcvX8k9oSJY5hpWoLUHhi+yHYZFFeOhVePsp
jXwfspvQpwh9OmYRcfgePIibBBwHlcjNUKC2N3OqFfCqPc4rTuvjIKJ0v7/NrQA1
Zyz2yNVfJ7LBKGC59L2vp3mZVXiqV5fhl+B0WGaX/77/X09f38xVGj6eHj1I21Ty
wGg4vgxkQLiPHBJn+0WhVH9wwwyiNGP3BZlVh9c04GxMFqMgMYClSg2Qgnjo2C7E
C/uIMQmxXu/FtKiYislG/paMmaL+4M94YsSOZr4G0z5b+OmW+F9Pv0QS98aU1CIv
FaWfgBejr+twGJRparOT1TndchsVMHQe4Pdwdt2dDYbmgoJmUP5XPqJjY46J18RD
F0LEoSVLCZiHerTUiKZVkfM4uF431gL6zWiDmRJaEjZfTe9IZaRyUKR+uUUu3A6o
8D9wWNhlixkfxGaYogRHhCfhOxSX2DvDHvAHA90CI+5VPxdctd+BOIjb1YjVhVK0
il1m4w5F8jVH45dYc0YmW7gi9Vcf/KqBlWrCrEU3Iapn9KZG5ZwEn3Ff6M+cdHfA
Uhcb+gdL58ncLAWY70CQNR7dp3pEX/fLsojHuAphj720M2xXCuD5k6TFvzyQK7Tr
zoFqGFVLTnrsysd+f4kE0+RUAsMUj2AKlPVEb4cJ3/iT0Ro0lRLX9CQZtUHWk+AN
3oUUvNZseQZu3pYJtbMTj+NyKTIf6Ks40AKiOv9DCcEc9TVt9F97EdzAgEMM7T5H
/eu36Wu/9EVcqQj/BA06XoGuw1w80oTkNh0yT0IgkeYS2vO1Zq9eDjVNvd5/HvX1
VMdvLVtRedB/ipOrV4HCW2Y1OEC92CEWDsf8lJCaoDoX5fqOnmYEuQXXhbbfYOkp
B3LnuIiouLL3wiqRFEQJzhtohU55Q3RJzHRRNLD0/EnBjKp9iyOgGZ03dWthdghs
SEXQiaFQAZG4VDo9+V66i9px2xWbQfkenxm16VRrxpUSbt/hU2md/jKLIZHLnMh1
KfVehqznL1xJf9qR6+PVHRiuqR00ORfQP/FnlT8e//9RQA5zOuylChMurlPKo8Ur
CxwehREm+S3Qi/sN/ntsa7nW5tNlpJEQhz018baPMJ71TV02PQw3Qgqt2w5g/E/X
N7uCVLLFqbmyTOQP1jkmBjF+nZPghIKRAin3GVRFvx++bsMpKaqv8QX2b+Ug20Hm
mxf0H7D95AvZBpSOWDH3Rg6Ux+kkI5FZtduoDl7VywhxtAKhpPx2uqaujzrJZnoA
HvGAFfQMGo8KTUspmMnYSDgB+b2PVbDpeOAgA0Cu14ZowY+MhpKJWky4a3sTSF61
/3cyU+bvPs25uNSzL+1BMmfv2i1fFG2A46gUnoHGxPyN5nN+pRTQI+t7BQKg3QOL
QSSd2p8cVr8w7E/7Irbtl2wmQjvyxRrGHGnrV5SUXdT/EdLsqt6pBWEzSin3SYlg
7fZ//MPPH8CRW89oFe4NcI074RerpwO26/EX1NrxD6+GXbGa+2DbJGdc1POYto8H
4jbaF8VI2pHR2S8TNe1a1Pu5iXTWa1X3YmmXdpYYVrz8apTiQ1THvwRdPBSf0ZkN
6wItt5TJXh9vxuv5w9v5waczbp0X8vPcAfxa+Ko09kJMLcJHu1dePXDu1/Ps8XZk
00qiwG6wajaIJzuFfe5eiJjdxXVQpK9pvj0rDceg49opqXMgDf95kMd/ckJk64bn
DZjA62eCMnV+lPvGNOVwOspUR4RPZCMgvrzQHvHF1SUpuPn+gGfZmjfye62GWXNe
FheL7PDlLirJK5mMGqx7zTwkaydtc3WUWADGYIr2M+udjhAn3nO/6B4C9l/QAe5E
9WXIGAIWM+E5r/JJE00dO5vK+l8g0e6gP+dp9OKVekBkquihGj/jZ6ROlPCUmpxG
xVDtlZ8J1diC2CFs7CNUpd1pzjTB/5nGqFi/wmJc4jxVovIdLIjEizPt6g85SGE+
Mhk8dBJeK/oQHbG1j5TjerpbtYyRH56p2ekcdlR8d+GT5KMx6zvxkZWiPHdUk5SF
ioMFEYuWB56haE3ArRmGVfmaC7ipuIkHfDhomp0cvoDci9uHI/zblAJGpV9qu33O
OFSboPeJr+KlQ+12Jd5rIXaSdrBzjEfRizP4B0sr7Ut/0f8pAvhk3+M/qfY1bo5G
rrHNGSnn+9o8TSQCcLtg9zEs3sdEy/bI/2ooksZWiXMRSLojpp80K+6D838PWIL4
wr32jlvb+7U/NeavDns4v2ZVmokLl8BOQ/JGlDOJ/GsTG/JAhibIxzXC7dboSeCO
cTHvT9iJ1XBM1bXVr2EVpZbyjRCAe8nf2C2ZhuvDQ2Jx2JDYJSgeIxsMwXOKK9CN
1k3V0D/YDFt/ggA3PM0dgmPxDYu6eVxV2wPtwHo/YQcLNdCvJl+tDrebkF9mDcNZ
5K7Rj6rPlWQKb6oQ0DC3suvWu/E6nzP+CE2TapD0Dy9Ve5QaGc4XOnMf8iGqmNFw
4sCP2TvuCsLQwQUAgj00YlwqyXaBih8yW0jcV7MZuMLs6OJmcK3JiX7/e13Bv8w7
TCKgsyZgSHqUvw5dF6+yRnFhqfhl3JlsV/Hn9Nb33LBFwgjkM3AOemw5V5AW00ar
oN2+fGer7CCOhewzLdnCn+DXY0weDnSMLaMJUCePDg2DcsscA31X03tpmyC/a9Ef
xWRVh+Y9fvGTPLSQSQiotx0IkMGWi2pTxj2jd7XtL/4AazbeIFiFxRxmhoLH/yFC
Adantrte/2xCG3SHuIUFJ11y3IZoc8k0H8K49AZrUBmlpFNM/qGrs08nseSwLZdn
ctnSjVqh5A1ueoqAV6Apq2IWASenPVF20wRkhFcP7Qgpu8Ebr3oJ9lVeHyVZ+VCe
o/4vzUjV+DPtlp1DsrUFUE0MAiPN2xoRHvhAZzL8Ry7y5V4ULa5jtYC+aGSAkZt4
kfdGcaE84emwGfpgJtgfQDqpScBGSDqRfBYoX4mw9lIcd1WHsRoIZD+YJyBM682i
4UpoHa8KQBTygPaYP+kswEgvM1ocZuO4nCiJfO8o3njgY5ND3K81YGBw2otZAw+f
ZokAN64bNN0cxdY1Ceed5j8m5bvT/iPalRrxLGzNgds9NpHhE740HTigtirH0sC4
2joikKi9Ep/EpSqHUwI9oAh4oRHIcRz3fCfitd8kaSya6SU9+TiY5QfNP/g6peJW
RpCbAEoOyA1s3uevu1mMaPQJIjVOxM0VVCko+SnYQceHNhXq5wSdx1AkxeMsvapx
Wn+JMz8Kcs4YfWLBY6m0D9sykzAu1Ucm+OdY4bgzugbIiS5zvealhT+FzyUoc15I
F1MQBI1FF6zuxd/CpsNl1yZjxQpMJvU6hA+NsB1OBiYwUQY8eGjpTXbmSPg2tctZ
7YZqJMEKMCuu6Vlu9emrBBH8EsJk3DpP27JB+k5rS24qnZGCDsbDGc5dCj1q+vFe
VscBPKZU5hHCcjGyCUyQAK+Gpi43XF+j0nmeBzsNMPmwPrk04RN+tzHJl/+e0Mz4
hrtQZdkVrUIRHYoWKKWmHRkpHuD4PxlZKiCmzp4jYKG0uS323h08969jLJybrAiR
bVtHBfXj1OUmCiIYipzjmoeUKHdMmhReY5lxZqsCN2gHikzSb26sT4+ksaC9ckl3
NqN8YQjGs1tlrv2p+7nWr7oq5uRg2hVV6tHibqtY0hHAVeLzI7rt1Jw418T9g2z5
h318bvZ058Z4tfklARrtGV5RogHuDKUEO9rrUQiQFJ0Nek8B9Z3kw7AyRGJOMSHz
MiQWAhYxytcHM3Nk8VhR5duFkVxpQRqoSX0DlFX7oSSRqtz6s5XzVzaCdJfoBskW
eSy6/J8euiESvfxa+kZGl3oYsf5TgvtPKZ4rmcH8OQJ4XA7rJzE/xuZiod1yvnHq
LCLslswXs1GcZJ6jo778ofIXV/oPxQybc84c4JE2Cf5C2LCHQMNpLzQCNVJFgviX
5SBpWnnsbIcTdDQ2iwzc64ZiQ6a2R2SIP/H4ETtK+NYLsp1cZrmmJU+VEg+l12Q3
4Z6jDeRT6Yi2buzV65NJhCQ3cYFVRghL8BWTeyFG7xuIHDk2r3RHi+7HblxDD0gR
fDez1nnnPi+5JTXQyrsw4+ZNq/Kq2NxvDurqFFbUvIuzbirIuXhI6Ad3uW71bVk6
1pEB4b3NzJilngsAXSCQm4WVjYX18NNg1NX/h5esn108FQ7HANeGGZJGkayLlO7A
8ExRiya0edsCjKsunvo1vX6jbhivGHtjvWT/t6UCIRC0fp2kxgJI/f8WSMiMHQAV
OVnVaCTYRD8AVNFr9dllbQJANz9PotrCzn5bS1pOxx2CVf1vzrM0EblY3raZlk1C
W43wCdu911MCmoeawRNoaQ5Vrcag8OO7YiyOHPNFAcN112CihU3h/my2AOpya2Jl
DXHDuYG2xTIgmmCbnbl/o8u056WdNnXi8ZRHmRLVj2UGTMycmFYffT2O6/fdtu0M
DuR7Qcg8hpLT7q4T7zQqWCbr7SUaaPDfywVae8B4w/5Lcvb941LaHkE38gH+ZQV9
Me7xk+KSg2go3qhYJOg9yciLfuK92nZHjSQ6GBHP5rRMw3UWS8eDRjR5innHJO9A
yOJnrHvFeRKPTQdbAMFbpp5mpDHJErAVOAdOLCTF5noTAds9aUSU/7nvSd6gASW5
gOrrAqYBwn/ExgBH8GdFGoVuD14lPmxBDelOfSErKpWcffqGYEr+keK55NOVvwHm
+E8uBprtHUUrOgwHwUmeb58z3P3Qnc3HwuEj0i6nDKM8XPBBCz3BnSxW0LuNgJBS
pfZtmU7YYrmKwDM0V9WBynYiXaSrJ/YSehXDXT/qdt+sfBw8jxH1sQAzY166HP8R
zR3mm8zJyhJcmcAQOTBccUHLZ3WWJEg3drloKHvgsyh7b7AKnrKZMn7H+V82DNS2
5jafTL69LVAWxsdfdq6FBWXfw0f/vFDcgoSRXGmKb3geFEUaUQPVRqaeXBr70PAV
Xffpav5sE/JD8rsLWeNY1Pac0W6NwQmOS5ooJL9KQvnpZGbX7EcTRworvDFqgcW2
luQCcHKyHpBDUCKruUESKWnPkmvsjxs0QSJsF0XA1VMbi071UftZnWSj8JEp0Vgu
jkHiPdNz7faFzJpqksj19cxeor/90zIAJ/c4RyR2AbCvpOKAek70N5/rBk+GUy6u
RKjQsptmkYOW2glxicC+lxQOi3ig4Lyp/3bhNrj/J54xD1UefshF5ewYr+8VtsV1
UUCFT/bWpOJC6tojDrlc1kzAvb/uDZ01aKflm1oOuGpL3ZcUjTusCzVR97PbOuSO
FtdkYKdXt0jPihby247wcH+sZ7JGflbc+GN5pNZHnPjYnPcJz6IQtmqLQs+fAd16
nIG7rJwefq3hyXkehxoUXLWbMnvu/IkKm1e5FDNm7nXtDtutMVm4h64VGe1pQP0v
7lgPrPC/qtQ9/nyi+twcXnWltwtHP4zC0qSPlJLVl5xOuqTiQyhBo8T26uonDA2o
b2rg1cGqI3ihev1IIhdeWFGbWmzKmD2oIfeSXau7W2svo+DWxrSB32Ck0QzvttwM
9jYqzHMWEOaMTDthXsjTqhxHIqbcsjNfFz+CGCkJdXPH4JsS0HRnX9KMh4TG93uh
EYohg1xvCImWs6QH3I0V32HgzE7IrQxmqfi0t+qFcIAQdswAJVbDmv06xtoG3/8W
a3Oj3e7BjRM5MiKfeaGcF78/qAwqoHEC4VvojkhKghhrjh4jZO/FRM6PiFR4ydV7
E9gD/VQBI0vhwqbkZZr/z9mDjOIWB+iYv1XWMF8jwMXEx7zV2BGW9pfEGxjd8xWY
ZvmqZ4C8o8Mq6zNn5K95sXf5vlLZyoGGRwZh+x1ErC5A9+42/dqlrVJUZmEvCQRc
iY96E1MyhAjPmA62u6MoS6pim1rThbNNx+4qiP3uvWPbDv0itlcm15geUg600GHh
i9K46sPDl3+XBNb3iz1VoG8n9q2vdC+Rg/lICcf3pxKm+gD5tzJTU4mAARmDMUkf
7ylz99/hmll+c56WnmGZcjWrwH1BIUstZfx8G9euOvSAt3pAWDhwcNYn9/sOBSjk
sRV8PRBlqQgtba+Ti74E3CG9IIAb6/ruRFBjlzEXHOKvvn564t3u+6DqTe/G+NQU
nL84EtN19s3Ag0LyTUOnL6ykk7Nr5SQ+hcYMhl8yy4m9nLHeKuNDqTz3+hJJZPlq
H00IFA9EjWa8Z7BE3eXd7XuCIa5o5Xis1HXOff8Jr8mP23QQ2MuQ29ip6TyU2B/F
J+zTPNDJDMTUkx6MCLS76m60ZKV1CoPGwdi+gwYRyuJ+H+23jZOqVfpHnPsld3u8
A1Tt+UKiSz/AH95bDZgkNl0Ez5KlEm5QbwS/TJOamX7X0rND0IAac9CBDZobu3Ca
QCogzL2IG47ME13hucnWdNgr5mdCLM0LJ13H3RfAM/HcLh3M43V2cRjjYXFQGBIr
8Xi1eDHptXkPAVSPGhrGBNwsGKK/izLGKoLBihHSQktjEPh9nUrFhkpuTHQrcmWF
HYLyvS0j+LhzTMIVMPH+ziW9GKNpYATSP6KSGxlfk51NRe6A/LhmAlwwq5YUyQcm
+2tXj5rXzF0RO6SOIyUVFHy4xfhyUWkFsB0BwIIjZsR2zrqgFBAdZF/nNNytBCne
+aQFZs158v/gxo7UeTkiMro2zTD4Ridf0zZNJc1ygp5DOwqKb9gNjmPv8fwT5sgP
lROL8UKiUAynSGKjNRnYwwQqLnycun3DTbPc+lBKOqwBOwndDAvZctROKwmXiK1A
X1zP3OGeA5qhVukrKsjSaLUEERgvTMC4Uw1lSkF9hVfUePj0ZZ+1YSYITjah/je3
wxCv1ALE0s6CLNXswdQxL+btxc7i6iVekf33drKunJRIy5jb6SuEFw6WJW4S8/q1
MXQPIIK2upii3rlcbsk3wzR4iL8X24k7FK1aPUY0eHy/4zph+aj7p96oRm++89tv
hQZRVllIsMHlJzF77l3dl9nuQidPoWpTOlgIsX8ZWBxjI3paSQWI7daB1Iw8m98J
jaYJtgJ7Jqfl5UEq2KlRVOpnRdSS69PwYyqaLd1PAMs7Cp52/jEWmLp0dMDxqiHc
ZNkd/dVD5Du87zV4CGJSxEL0SBYkeZtK01qVkdf6LmHTYt1uPFlXSEk/im/BQ04I
3ZAtCkmOEe30rNn/H/XKsxB7So+tYjV8y+2f7zVoVKdmbNmuzSlTKBqGBTV0Fsm2
CRJMPoLXhbJmSGL2/+JoHw0sjgF9HwFulDazqxSw5fKiQE8fGKgXywOeYssAsjlQ
PHwf/OEyA3xK23KpNZcUGQMyf5XWvW9z+DXgMWQk2iadACFtHCZCWStqQsAaytkV
yvTvQFKs1PXq5ZVQomKPtTsijBuNm6OOMgNPBxerp2kywHrqap/7YiJZu8+cZE8M
9vfwhoxp9gm/5qRf5gb53333vYVQEKSkmnDviDCqy8/J65sK1jawqJqWQJEge6G3
iHmgimbqBI6/IhBYTb8U+m5YFSnDFdZFNJ9jxv+5jzS38KNwpdocR3826Q6cBKiT
VliYPd87q5IPsLR5RvAeA5xobERrgICMc8d9fSb2q9pdIBYcau40UTuy5Dqz7vbT
krMB2vZv9lu5GTOLK9FQwZUraVAcZkVRXvAVkXTLepNUxvbAf30sOOPfiGZdKfIr
VgaBOVLBmHMen/QxLOVqPvFGy1LKtmK2wMEBmE+TJv6IgHsH3RQsS2ur++77Ycvx
mTScnbnsBVvhtXd9mH/5brNZezHDjnzbZ9iwXUucrbeT/93ISe65lspAOgwWcJny
rSCdopIQV2Fy23b8RTTSGNjQYjn8YXV9iiUHW/8hP+RbdSn7/J31KUHz3+sokB1b
m/NvyowvOM0wGOyMpSe4VHslhHCcZHvly+UAlVtfxGSNeKhAZ5WsjQZJ0j11Def1
aw7DGGLxinyBs413/ub/MjJ9pK5FOvPXEP+XdNsv86QowQIaZRVaxVdjYj4DVx3y
StFjjbe5Ho7ux7xBNK0Txp/F64RGwfxP5ipHk5XXu/DgYU05ypOVsv4CpvwYMgWb
rdwtn0qWLdzUTWfIQJ/2aI4f470mZKt3a/t/PBCTH/PVSj32ujgpsbLzJP/QN6Ds
1+wkQV6uGqg1ICG6xX+6LBjWtZEDW7Viv75jVbnV/2flO3fnj9ZZIm981o0UUed9
OGsqmoc/bTp3a3LYROmIZAHUkWJJdlDaEHRN6AP100fdN/DAvF15YGVq7RS7IZv2
qYS26q8Qfxn2mQgW6NWfk3l5MllxTQ77wkryYL2R9gaAgnaAdgbFeorb6RNxiWg3
m75tjwoFRi2T9JJOn0FdNfFCWYacUx0cFqUE0lp1DFe+e79MSoOLcSDp8qX+EE1X
NBkEAL/vJ3namS7iiacqpvve7AMAyoZ4PU/4EiQJVaPq5WjLA4YpdXI60fQ9XItS
tB3khOfOLP1Ha8EJv2P7/wCMu71bH5jqEMuZSu7kqghevK6UGrnXmmWgHrx4TctG
PMNO78rKIQg9/HYp1uUsPWPPoMo4xkYyzGwhSABVuyi+zeo2/5Ix/xIcGNIqpbAk
+dDaeTzXYNM0KgKnR+E/gxInJUqKmsFyyLB6J3EvuoaMJRqw+r5PaOHmKogNrKBb
Nh1gS+iPhZGOVm0acVleeaGGBUOILL2BUr7RfyZKR1PuUoQeIAz2yVnhps5zFNlm
FuP1xm9eeiCsPPJJpAPb3FVh3Xza0I464kG3mDGo722G45qleEsNS5sN/uBfxAzV
Xtmc/RuQasjVUxw+Qjz8gSFoGbQQ28K7dOv2uwQMgzo8ZYJctFPCqmx8obbtDKuN
wXK2L9mcW0iAT0Zn5ntd2DTaX1o5Jp/KMSluVjpdgdyPBlyzDREvZo+9/E4Rj0kH
ZDEzIuyon1pUZllyGnT9SN59f2o7QJX0dWXuPPiQUtE5+gnX89P5f9VP8pXRAVea
Z92AWuSIlR1G0AXIMV1Yf6l250dtTYRchwBUn6g/6C+A+pBAOHdhuOh11HMbOFfg
OS2xpaIj29i3FgWp4N4HaxauLY+wH4aDD88zHBKVKemUVnXtcSjRasBbqoJuygOU
CzHEAoxWKDZHPmKOAP4lERZPic1cuaLX96JsYx0W+IqWZD7BnBTMvfYk4JR6ASXi
xcH5B732lj5dXy5cIu1H4cacLyJr52Er/m6CS93EUPDUTflKXygUzbABYzRyvE+h
tyn3G/MmIMf6ru9Pqk8XgjFwpyc/6PekzN77Ie9P00MFRMk9PL8kKXmF+1Rwba6A
2eCvebsVu5BoIxuXPk/ngNZ5aIYRFyIddYMiJ3OII1RMg8ZM+MRALT69xdu+8TQz
Un1YKuvLlZXeovwGrw18y0hGogUDTZGndo0dxRULFNx6ysDksjXwm44Iz9fBspjp
L7csEMYiA3S2HuCQntn623CXdWU4vGcNzAeMQ+D8OTnmZlLQBX94sdTvVEKeVo3P
XQ/zfXvq/gVpYJDXUgpZZXFYeqexyYoBtkp7Vvw0/YkBd2MyaGBIFwCix5G7tlEC
fvAONi2vpjw1zag58ITqJVBK6W+lw14qmIfi7FliXd+VykLVP2PFgYzkeHLsJtLB
MFbZP7VCVSB3RUIKrTStwyinnRcjN4I/lLd7v1KWRDnePAX6W8mBHmBATu/1RaaP
otfFZ+oGcNSpeAPcnUtf1dkaLuwOqe7F+57N3ZU5JrPCzT7aKKZXRskuTjFDm3XT
kPI3XBOusOPOJJL+CJ/6MbiXF/FDr8JBdNcmhaI8m7IaYxJ8hyPuBoVrv0zm4EA4
S/JkX1Bg7MpJyJzupdSOnwuaPFrS+txb1E3QMY3bh2b/lp10Sf/mGYTNHfzl5ppN
NJkYEn7Zl+r1/p+wAt7u+qHppXniUP5T/ByQHo1yAOueBxV6WWLskMbU0M6cT/XU
G9EwrXeTwDX+N6xdJyPC/vdqpGUninLH2235nsaOPJ0ymMv6WVgz+SJzj6L6aAXw
mAPFLoIkkU1gBDrw9AXcuGBLjc6WQll3p5v9mAM6RFqpEEnWlVvb9fG/8x/KCd6l
tWERTZswoKguDiZDBLpNZYnXfPHPAUBfd7YCwAoAxRBz7Me1Kkn0RTawLcWaWX0n
/4m8z3jKFC4WLIK6Qt+ePR7Y9CCDMy5R3PX0xamTkowvfhQvVf14Y4kLeNfnB+0m
Vh4wCao5u1810MLnVEr3Boro9WXAUheiFAmoJlsWDQtUkOI5jafxyRC1xDb66dyT
Ly7hASmfQ6khAQzrpqQ9UFmPX5KDzAUF4jWvtfXPD9+IsSAvFaWm0dnkUgxePZ7m
J84yj7shVi6CYiSPcx8ZJQrmpmCahEW28GrS74NCbjIXzp8BT8IaSkpT8Rr96LVp
NdOEzEE7i7MgZ7qRqAykv2jCpsB2bV/PKy7zhSGZbnppknSkslh02ohDewMmU+1R
Yj+MVX+gDO//WIn1GqgEQEf9WvqVbn9cf6i548WEyrvbkd+szSEXlfBCi09ZjVz6
zdT0QKNLd/in96YvXgmdqOnyCzGLJqA9Cki/pJs0DLCsKN8t42ku9Tlif6etYnpU
aJ1u74yENtfs5lyKLY5vPxNpBbkwzPUVqgrlW7KB7uXMoRyb5k81iA3MFNKpVTqO
3YYbTqElh92RwweN2PQE0cltKoXnbMtjnnggfuHIzvLDbHSiLJici0vMyvq0wuO+
8FcfNO/vfvHcjtY1PC+bPi3oedomvFkjUkgX7V2oKriur0vNICHMX+BRi7WqDnWA
WX+xkNBk6rT+gm/EhpGEo0WiadnavodfONlrTvRuGF6ZvehQke1N5zftheXFSD79
1jC197JpKFZJAuPz1cqRUIiMivN1V+A/RYfpu1mGdcEZT9BGtAFg0nMqRvkgnkCB
4/wiq5yTjvgZd4LO5e/ixiwfaRqcVOFvhEp/thitsb9yRkecINXE4uar0R9UeaLZ
fbYBdn5N9kJ+wduXqgRQpeDuzvXxJpzNCLNOlnWet4PmxqYK/Wg26vSgz604MyN8
Y9svkLi6uyanqtgclf2dsqeHqIWxdDLiSkfcosHVXeeDW7wilgGs8Vwb0c/WG3CA
E7jP3b/afGelnyZofM1GAQG8wlcirJt247J77dKVgGl32vHCU5Dl831hogy4cmyn
pL7a4xykqUygXYP+zfEY4vEFylgqVuWHKw5LFo2qAFU8XWclfQu5FcLtf/GVkP/Z
WOEVD3amAjxp9eHpXr3qukhcTyHphaSfyTViobLgmNlepeeYrXIvkdFWY5rQl4xz
vyhkboCnLYgRxGVNvbtPo1OKvavBXhZ5zdhUYVd8YqAYuYjjT90O9J1VePZajQad
3F1uj5BPDGas/+KOhd7S7meVPxwnrflLHancGdBpNG7LSVZPBSq1NAXL1lbkUID8
N3EIwMacXfQ3+mN5zWHY001CaBtDwmRL+46bUFo0y/UUA+ndUb1M6QKNxN6FaGUT
ph/CKN2cWFRxd84nvyQXhY6/e8GHVQz2fQ1Srmy6pV/EcEyftpHMOtt5AtFr3ZPo
yETWaimgd2Nr/aANg6z2ibHC/PzK0f+r1hT1I7buhwPjowSfQj2xN2O3L5TC3oea
4e3DkYwiab9byL37R1SyrXvBXoDkfVvrIM1/ur4p0JOJRP7YBkGGNwaHG0+c4V4t
K3wrG1vppAIkF/5BiU2xMKqnI+fdSKyoVkAL0ahQhGIU8JEkR2utJIuzRVx4VMeJ
IiqLTl77sAizEDIArB5Bn0na4JEjl+XcCbBIWuwzM6HLfCS/ZahbWOZsEHaoGxb/
dNB18SnAtSHP/w24vdjZ67TR5gjKVGIqfehen2Z2IFx6xumWi395Zi97QkuVmBI3
PhHhcEt5wQTj4zyrFDBhVcQy9uX6iF7cOpHHQnaE+Q7DoLIMCkOdjtg6BhBejfXf
o+fqfylaU7CHqAyOlS48966FH6kva35b6evxLJf8EtcZmwLFg7OgzGo6Jn+sdIl1
QhMBqc4ZJINM2hRjgIqDus5bcSdssNZJ2tch05A2FQyZu+hYUCENNvk4SqOe+sZB
9P4n8H9cBHl7NMaNkZ5EoH1/oubqZyYzjUoAnZ4JdRdMP32+G0K0Q7Pwf6whX5qJ
Jp97XxgKkEl8wNEubZit0LTwgSyybrUm9+vJB0VK68pqRflpu1FMg/U/aK2aXb5P
RIonfMLEkMNAmjdA+anZJ26PqryhwCEmdJBiPY8wtkUKWWHNNrVbuysaicoOALN7
Rjkct6BqjS1n2FRvbeGfZQHsT55uN66+K38812fwwJh+6lnmBIaxZHmwsCxzBS4G
fpnjstUMnl74qGQuKgCKaF+wmuNEF9DRbHbPR+t6bsUZBBZiLa5MYDyzIYKO0pVL
WSiMEcgZYyXXAa7tjmpfmZoe84v8S67X09boRMd5ZgPMbWGWyLxlJHOynxeSDpcF
LjTWm8w/j0PkE8Z9++zEikVDxg2iQovLatNtWKMdlUsy0YGyd61+z3jHudUln87A
C5fJuzaOZmL3Zq1nipxoD6t4UovqTSf8SjhhRX52yyT3vqOQgh6VZ0K+CNhf/h9J
atDKDE8pjJr9Yob32QexWZgwQHsv0D5mNJAuhpu8hRmulepGU7OPxe/f7tH41pcK
MvGYWWRS+zlswtt2pzs/XHfjrA/Rh5wuK6dANthTxIlIdDuhR3tQyCcE1XmoZMJX
KAXP+jPvJGutBxGKS6hvtfAHigsGz2ake0w0zgHeSyHt0FZusFYd9EjCuDQ0hnDT
m8Z5yFsDQ8K/spqHhIzLPLtiLG0pLocxCOAZZXl4+hkhYd/HP0mecgShgQ02LEEG
FnDIQPOvToRsIK4P2u7BcD4fHJ04Y8NUmusuwau0uSVnapfXDt+Niinu0Uj1C6nU
aNET/OV5qZB7WMdANIHoJT2P6AB4QB6SALwaSfQWFGruAv3WuXB+pl/cGOeuxh1T
n2HqNmEtEouCatq9f4GZgubpXhGCCdVrIiUWdYQldT1J5KgHng6OzQd9m+kpZAGX
3ckmy4l64Dvls/8Tgi7nwb8ag5b4C40U0R6cXbStWc2N9Z8jw9jYswusxNX17Gn4
lXC0G8bNoQnWW366tyjWepeqwzghcHF6Q5R8Z08tOAR1sJxRHt+cJm1UAYG85Bwa
tPhvGTH/4OYTNHNC3ZoMCgsi/xWkyPcLtScgVNnvYgdpDP6/Kj4MbWmb8n/TC7YE
zk8tDLRFL3E/b/zr9IcISkuZ8C08JIMuRpRgxuxGQ4G2pmWlmLjYCYv/rEE6owKY
/as+qG1Alhgvj9KzvBPTVtBosGxAj9iI/VU8BXWMoWFt29y6uzHt2pQs4Oik58Qu
FDKizfTb3FVAp2KtUqGhnIwRh/6SmBWcbBGR92Ywwn7Tbd8LZAjWd1rld5BELbeV
mzDu4iQG2Ogvr/Q6U5q/h0zukbOTWrLtI9hgfzTlD0GwlLWgcaE+bJG/eccmo+zM
uNPIK8XalkU9nknJrc4T3nbg5hmaQqCDhqqK8KRpCaMHshlX/R6EG7r5xTKhRmM/
WJf3gdRuX/cPqiV4muyN5GiTqOu/8N2gcScHK/9weviduaY0jVe5cZv9yZxGZs5S
fieJC1Jf31B00Hzdm73pqLmxCx0i1X/fgHwW4TJlqKtxyt80kYH5jf4/l8g1VaTM
uWmdfH/BMZ/C0fdPXE0zg+bjmxIowlKPumQgPcDNntX+oyn150qtHHWoL4fGsLp7
UBuVnBOlghCzLeYErED4bVyp7mzpYE0hZbwugasI8vw1zlVv1ZQL0167ju+I6hBo
AQOCg7sC04IuCbZWO166FCrF8PK6LsxyJo1zd75ftX9Xn+6nf3+y5vJcqHnXEH4o
s3Rp7yUDllwibzzaW0P/qc30itsB+tgGsHXAfgnQz1acnjObsMQuTDwHDuB9pUoK
8NtIwDHGE7J7GSeRNNn409EGStqp4XqBBorzwPc8Bz42m+djZ04BRlAhRS4VKtev
tBnY7cfig6kgRt8EXmpfItPWxQslmxe9mM884HnQcZLVgfZTd5W4+CfMwg1Dl0/w
dPdDFjcfC794Rp15vuyBMawbikUltFWZZ/8IS++sUJIZbf7DdefxxWEuFziDeTJ8
ksAb1x/ZItWDWVtsGZCNqdSSno//RQeoLZyNyPw1ujzwNVFfaDdgj2Elwu62ZFxC
CNz0us/c88y8iW+jBzt2LG15zNvdBDnz7ZuG55WcoyMwRqyLNG59Gec1IpcOi2/t
d0XAdSSTv0Cof8xBH21FymxMBrY0aL0w8qqZzWeysnoX0jjqLJPSFPcMBEwfUBLo
9nJ5bYVqOZAhEAezq9JFRYshDiZuL+CVZR4GluG0yukJ6mlZxJq0zaeLS00Fbpfh
W6zZo1+698T4ijLZ0p1ha1mhrT/n/AJB7Vsbm9mgsQl+tU7Us/jgFxjbFGN9yNTa
E1g4hQg79cwPNe9v+AIo99YcGaMBDl2Tvuu1hRyFY8jve5bmDlztb1tLfKgP0oEF
ouzfBITavCRUr8SQsHtsoUn38G/y0doSh3EkXc0t3hu7lw9bD/d2WF3qw6zyRCXR
lqr9JduC0+aanHWk8QZhs/01JIwXKHZMYwEbS32LqWF3CoyV4VNy+bZSmBjAuUq1
FqWquUPwASQfaOaPsruOs7gXoYfDVm3xXWkqqaeJlRAKE/cp8CN2lm8tsc628Lrg
eDgCNCtumtSrDVI+daCfFDP0wZ+jHalz961Oa++u2V4ea40ZP7iJvW8hpIFUHD6T
sMmBvqS9yQZzh7SkJwEOtVhjc4Hc+A6ijH4nSJQg21+Wzfds2azGHFv3m+b02dSb
i1QHwROsP/rLofGm/aTi+eAss7Y4CzlytXc+MgG9+bwZ7m6cukLHG/DcXTe2k4nT
d+/V89lnzEBYxl6Zm6kIg5EesCFZAO75XJ8yxtkwXDUMrLUnhfoN/b8XtsMndTy4
8bCKASnS26PpoT/xoqI1wSNM2y0PsVJbNgM7YmXqpnDs46LUx9pZALSwQqjBWMd0
feFB5q7F8yeJ9mURjY6AIg9WeHli689Y+aDtyllGr/forb/PRH33lUse5BnAjFXp
nTvCirVKC/hnI/AyIeqsZbyXkNAu4Whlrq6EMXR5PjzINnAtmOcNXAbWAIaUTU53
AAGRdy7gNIDXpmcmZVHWLtxVcna/lT2ZjdGShZydOT3x63P1HjoMxJiaGqi3I6nH
iG6eEW60snRKow7qCenaVebIPbOnHhT2Y80i/ZHoN0kjRYDe0SuIc0R47r0gZ6bX
hCnSmEA9udGekii/04sOFBtu8PP6DcdKHZ5QBXNiAulvFnYD1ojWmOGpkt1uftkl
RqGj313aL3wI9SGIbSfsCP1ks7AIZ3yvuAUi08BgAWTNOLXs6zewatMuGRGR2n0g
WXURoQKX/q4+dBJIh9ouD0Xo/jWteQlajl3utkrAIFyV6LA95pvNIX2zOTpXq1p2
FUEVix2XycGaGmBqlyG7Z2ywdHnFryp6lcfcaKD2oEfoQ0dmZhUSyhoUxM2femx0
r+339BN7BQQSGMLyIX9vILYrBK35Cnf48bF9fhAwb04YWP4LKXbxFssWw22ul/A7
CFitJKQsDWoPvDrqDcIjTiSrY2BDIiFvfJkBy6qWEwvLzv6x0I53+lsllRwjPcz7
OL6nWcDC14qpmo8LyMbdpmfzduQrJYVprtCVMriogt6CvJXYcJkYoeMzYWKu8zfB
7f9l2V7rKt6SO771EaIPNAYN17CEBg9ek/9PMFY2C1A0+lkiTs8nkSB8WnUkOa7F
8+SRSmhs7xB+X0DVG3694oH9df/GcHSBumBn5Yg4AugJMQtuxWAfLBqA9xgXEOKV
AcuAlqHQWp4JwD20EFWg26ikfiWWMdhYW7uwCeEHj+lz3Du8etc2jLUa5K697BQK
l0mxH0WjaNNI5UX5k7uhK+9Uf5LLMdh6b+GSc7PUhqptYeUj6NmPDgcrndJ4brEq
vE8SyBjlsf2Z84gsS49Zvens9qUHXFSg9veBZrIVe23baIn2voC8NYdaPJ2+tqiu
JlsfexnXaOolOM0fTNtqiUlrBhMiFHreJGn/XodCU1cC11GvkKp5WCzr56fFIgxw
nyRIa7gxDsNQNivmnU/WLWPxULX7uCKYSWQvOxiTMnHm2uvxjaOubH260D6nYzS7
1cCbf4S+i4+E8F+zbrC50C8wUbAgETWGvvCeSsZennqABS8tRDlnxg89MDB+75t8
NGFyOSjOWdwBGUVhwdoGktjRMYNCAPX4sWAvAaE7XGpKQOs3NYrGKBh48ShndZW2
dLSDqjQ3MCztYgOfeHOYAyI/BcXepoIoXg99vUpMyljC0MMBs9GtGJ8sUwqbCaWy
hvTamu/y4ABtp9jqHlXz8EOK66ZpPAK/MAjo0gQct8lG20EjlrGiM5aBvxD+xlYz
OmgB+4aZyjd/kPpR34+Iea3L6J24x8s2PjPnLlv06huAW8X7jTA0JCXi9+xtJe74
jzlEPxSFM/MVg278yABQ3CYyhHTpv2DH2+bh8E1jXnxoxBwyLFMCGTady4Sji+dI
iJ+ZRGhPRhWPQVbALQPyazEZxTKVa8+5C5M3lLKl4idLQI94GsSO4u8FWh9/iSqH
Nt0Vb+YPMyn7vszDq+IaYLfhuABH8G/KUrTR/gSRSimQr+glX/3bT6w5/VEtCFrS
KGYFwR/79qRHy+ZzRuAu3WsfONqcEAqEUzWPWli8BjA6Kik/yETkU4qCILaSXSgY
hlM6yY7BBsS6yQhyOtEuUPYsZAN3BlFT0qExSbjdio/LbWqtPk5B/TfwUaevxr4J
NE7YB09GwL/KgVgTRijqaM9HD+PmxEi5ThGpYGtBZOPymkmxZ+0DfUol2ztbS5fS
vil9ZdpmozUIWkxAp5ZJxj1Ny4AXyH6pTPijHykm+jlWXDSnmcOQV83KjW0izJDe
ZV7ercXy6E1LQTvHGjZrCyk2dsDttGHBi0LuE8B5Zr6Yh4FzmXXr6e6HQMa3nF8Q
yJCwvMumhI6W4I34A+GvnQKlyeK1anuAkFB/xBo0id+l12WxctovjePR+K0RdwLq
tw3Hgp3rG8tEBPxw32eM5k7c+UZDEP7Y3xiMFCnhnxJ2M+fJjemSSw5VKCF6/DGk
2OCtXzzSJKFz3g+qPbm7jukR6btsWHa6FfI5d+5ZEeujAFjhLiPI3uac7O8OGlHW
ogd7xu2FAf2JWlbXtoHc3wDWhyYSZoHlOtPjiYEH2A0ie7w50WSDrr0glv0cyMEr
m+oYtzbkiqtv4ZYui1HVRJmRpMDUk+VvFH6UwvGeuzmnUX4MCVWTp/idHHHmbyNz
IMjrk/zBqIVdZKU1AiLEt2eWwj674sTs1YkgB0IVGSYBPF5EMc0jQiolbCw5LdxL
HKedymmr766HMaPRrXzEdlqQBkFJha7Q9/ervZt1BWAI0U2ma8JcugOyO4j5dlZw
qbm6AqJPzkmJdmVzb2JmSfF1RAE+7x3MAhNwt1qw1pC393JH5SqkEctEmMmr1wQx
mE6ep65fVw0KFyaK2zmdZa3H1xKWx9/D8Y0W558hp0I4Ft6qnz8tVpakmJbaL9UV
nDTrNAs8lLyJqse4u4GohZw0na0PjNjrtGZmOOvcztkMf80YZzpGsfFLstCtpmRr
jUoEqaKVgGTJPCd1wN2WR+ms2Ywf+ZdVkg4g9qlCd9Y6697Y+sBfHlnxbM6qDe5Q
x4+RpbNyZxTwXN1sQiIbofcrOHlSGYTMi/OVAxkwqRiDnmXapwGT8PxwRhWEOPFA
PQKJ2bL24ul5UPPkXBglUEbCeLEOpf1cmMOAz6VIEPSQYHMBXJBGNLhfANNFG9rq
a3CnNrf9hjatGwHVid34fhA9ZD0PA41keOHIpyE/4yBwH3xhb9aqvineLIbSJccQ
XQBN6UDrJ39qvTL2rzp2eudWBi3N8J/V3r2QFwWyLDMXciW0hwai9rsm1XN87QlX
RX6Y+rb5eMr/kze+wPxk71+cDtKLbMof0Ae1wGVzw2DPVJcAnFbpo8DMcrkVD/VT
tAErZyQR0oYHQAlb6Y5MPbRkUOcFnVx6hSMQ/jyHGPuTLYht1vihtNf3+OUTozUv
v0xBoMbddFGANIh8H3lHyQmL5aWrV29+fb4KXi2UdWvtORRUPnDO9MU+jTp1627K
WTH+YO0Ixqwe1UWyAtDHLv6APY1qxEX9GQM284l9ZOtQsLxBn18Ew3NNTYJWt2IV
QUgpJpqil+H6lmZukSCiBX/GXQDTsAosLoSXqhJwoo6fE+PSIHmm3Prc42d9ELSi
iISkPPD1kaA3wMpChF5HGozAGxb++9VdfJt6CmovBGoVoiE6ke9Jfj3EnvH2ZFme
BfZ31AAQ+WQ2IA+p4FYWvemZgLjYe/cTIG3SPp9WLicbqBLyEZF5IYYDWtq+g3h5
jmoc7VSheddQC+0rqrJwhNW7nErABBMCKolsAZ16TGoaihga517omrPjEypQYwQZ
eX7vo2phUxmKRnQ1x/H8iRZNyaAbBWxF5c7xPufz32BpDh7NWS+0tBet3GC6Flhr
XkEN1K89tkK/XbiNM4xvRDDabAwPBK49cHbxq9sgZydwZqVRXm0A19JtycQuGswL
0qn5oNN3N6C/7pvCQmxKTe5D+i0njITlKtWziXjNdS4fUboGQYgKN2c2HVUq0PNt
E4ZcilKw86mWwhav9TvEba4KPTyPf4/tHB1q2PvqFBjsqZXV51sykRxiXy3vievb
Lv354mrBltjpdToHixEMak+letEINvwxUEmsUaI97xCzB41gFLk3gQHAXGkt7C5d
OsGnh/Z4O7wBoSte/tTNTkOzvJpqjC1bFpPojufeJJOh4JKtr2Iym87aXv/jmdEY
SlHkLeiC5mlK2ekmjhcBV82JLVA2shgEaBssghZyT06ShYDkCxiPZtjflRbAinmR
ZiMwbRIJdgsFC57No/EndcKTAi1gdE3YnUx/LMDJsbnpHmasopn2icAfl4E+8dXT
TQHGPDUV4ys9qulkYNkkRHELF0qamlAfKGhupPJEpMDfhlTWm89C/2o78YjXaG3T
gamtsOGg2N981avUcG8q/woCddixiPKWqpaFWhnWc3YSW2dasolWylacelYGCGRM
SevkkHNV/QkAxOIOACAblyC+Iqg334p8mwy9ZE7PJGixDzsSvGpGMHK+TRsjK+SQ
L9e+SZ91DYKba0Vw0QfxOeoUWjwtZfMYjChahNF3+NJ38/Hsch/aFImqWNTOKMHN
g/VREMcK6U8PqQHM1phSD5ore+DdNgw5oQph/WeKPtG/RziFnXLO0oNrm1oN7sxy
wR6IazNwv+z3H3aftjflDXFcXwTjqLHEkwz7K7fUKy8lunXsr/IE/5ywn2TIkoIz
2gs34vkl9Kv6GKKndCPmwsA9aiAZ4s1b486uarBqbSA43Vu+N1XplIo7k/AbPixc
j5a9IwVHFAXW9oiKZKb5X8dMcc+tx8IiMrMNVeF7OeTUH9h4lwfEp9kFKxvmrMSF
JB7a63c46clOP3ZhR8IQKM9vITYwtYSC1AlmEnD4I/pQMauLFvH+PFeajKtyYmKC
e4ojXkrldThqnybte+qGVoiQjNQkcteOHDSwUvdoD2HaiylBLg0bVzqS3g8QUV9a
GmNA7CVmYr9hNXGD81PEfNjNsG7HK8c53g6RBC4HFFj9qGm1u+bzl6jPXSoZj45Q
rS2Ou39EGuFKxKaCx8FNUp4t9I/OGU+2eNJcIzd9GO985jznPB1f3kFYJguvqQqH
I58HPC1XVg7IPVKYaxlVT1WU3QJj29abZ1V3rkFrt1uK7KpINUN703mMdozeEamq
cZJBKRBF+fceZzzSu7bBoymbJVDIHPer7AO+62jAd9FV1O30ZIyAODV+eE0o0QAc
9ICvss72Xf0MNcv461W4yrIAmUKjfzTNQwgPa9fpxUnAAnMW8Y1QGqNGk9sA9OWi
fQwrajmnkRCudtk4FQ09WDp4MGN8Zeq6gnmEjAceXhGeg8/cXkHf5rzCgPPVKUIj
RAj0hJUphrrFtNG84Et9/VVt/0myBiOtGbhR/oRT37+BX36PJzVh+FnC0ccGurjC
y+eMe1iXKKrNaBmGxid0koPxn8CIvEOX0qbmbPUoSF2Lvpf8alQcCD5iR20im2I0
bh5O6waH+3iVTGmyeBvE+CZA6oHOSHKskSBbtZoOlmWf0eyeeYj+PsIGyj+Cbb/V
HPHNjrxKWLh+HvycXTUHstYxkgiR0OK5UnY/bW5sRvcNsKJvgIpDldXhhnaNPPLB
cHtx5YibAIVwAwDzoJPRKuhlw2rT9NwG38wbvufgAh9p6K5embSao8fuds8xMKDt
+klOA4uS+0HKbhDSjE/g6n8rphCYmJi8I+NnZBoV55k/qNJSMSuD/QoNccW2Vxaj
EqVt3hKwPuR5DVj4wyIH0FnjZ0mXifma1F4HBM6nfGNN/p/NKPLuNBJ/Hv6prywA
Tlfq5pDKFXJSCeMiKq+Ov4AU03ipQK6wCx4NciCHl4FVOb7hnlJX0UFQtw3GxOQe
hbWdaPb5wfT3A1ja6HuNsZAcqIFe66jpk/5i7WH5D4ny6iPW3Dx7tAte6+0usscB
ntbAe6V+CROrBT0NEtlwr1QnZkEDLb/SwrwAYj2oHI81aezKtp4nOtLOPjmHH0qt
ws6ab/v3nwIcH+fF4KXypmr9SzEP1/1aXLQh2VTvaLBCwRZ9em8flssQwjbJfEwn
O/L4pGAvt8zK6H3K41n2BzccRRzJeoRk48LPQ/P+yuFqoY5z+3UwYIu5J4UD196e
JeMak56TJu3zsNK03cf7DKiv06u1X4o8V96i+SLcMfcNq3kWWFkxqx232HXunErn
1PHggvOs4OrG6zq/3CB5xyz/lDWyPMLtiw0wJpewQlIGsu852smuemEUTRGY1qoc
vb6ZPaDPXzGHmFGwQC5UvdMZwASCrbAJRHMGt98VbWOaHLc2uXwj4hgIxWOQGIbT
t/qg6t3qSljrkfYwlgR2YrhiUNWqFg+tAmXaRzMO7Tvuh1rUiumLNGL87nHnMRYV
MJIcsUpAi+Zc2g/wDXX3oOCj67IQBP1itZ3xWyUHwUh5ZEuBl8/s0QqfuWCD7DX2
QrYALWXcA37J22Dj/YJAMi59X5NV/J2Gu9KaqqWtugRLQpNMA+FhST7lCwJSUclv
8OKQefB5VV5e0L10VbhF0hmgsQvysgL34OQzP8oGnNT/GbcEo1NUweEgy6abNeNq
JoFrwAXJWtBoh+7csyZWGVuGVGJdqKIwadFVnj0In09pIxwiHK1iA0mIcNrQHhiU
RY12j47VORxpW9zmEI3ZCk/dcyhypmbz69x5684wMxwLj6p9xtlV0OPkomgcI0ij
6A8/d0Lox2SVvqPWzbOHAXnudoJ4iCYyeFzRZfP1E0uQ20Nb1GeQpeI1u7s20fLX
S8/BzQgT5uYQcOKOfTgjbSBlb9k5bQOS/Nfs+Sd6xkal/lERFDHKhWCDb7olCQag
ig+70Qadqgh9azencFzbo9jv4T5TJ1bZZyrLYAJbzFmtPulXdCJbESyaxdVJuVGG
tidDqC4sFX+e0aYP4Il9mMwbw2K0zY9pPU7vQic8xwdc2DhyKiP06hzRt2E+D/Kr
RXunvQ3XyChQxNSv5BSpbJYRyBRioHCxlrbfJAr992ZMpECHRt1ZM2K3gijNv4Ed
beYtYvFFfAV9/4ZYH8Y8QLTfS+jfuYBF6nYKaq6cbLzt4/qsiPEPTFfXJdhwojZx
gGSD/si5sYcxr/DBpwSlzz0ebnTWvDHQBslBqltvrMKUG8XkSWdIMeM4R6jSF1Js
PjdqQKMrryuelyg/VlrPSWIEIWCNiXmpOf/u/NpuQhz4u/bbyeGjAswQ726OM9FG
gY7hrC3ttIFz+O1tvcws/pSLXhtGL/qTM+mDZ+2lBL1TlDXu7t8fyMyOMdPWzZKi
jELsdzX7jR9a0toZJRfWeKwdYg3V2v5yAt8TVserUEyEuXxNHi5H/2pZCkL/V67I
3Yray1ScNItYFf1eIPJ+11mUqSChrtrrrWjNBcccQbhIMT1J6dqduOdDh4Ldw8/L
d0zc0pfs7mWVAutHkb1xxGMJZnMW11HlQsf6ZX0L4V9rT1hRFuPm5t+pjSYi4fwz
Slmq7QJmZcJb4ePnzrwzAZikDaG+R6JTAqAyqXvD7r4HJ/uQYUZrjuJ+PH+BIrU9
9Ecov14RBs9nB8w0MlIsWJyhbSH6SC9MjBXgGn1/PmhgufFmsvZrWn6jzbuEckJA
nfB+gfGTEmornBmICdNuja3PchkcGQgiYrW2s22GkZ44Fe5omz0ZsKEiUCIOnLVu
vRfaK4Gq2YhxQJi6A5opLeSM1sUmWtwVgD7e344v9vS25XBvrrsOgCh6hmfFP7VV
zB/W32Z1q8cMBhBVj6ca37G6nsLs10rlX3DyqLajQFKEgEAHoQTU6yJ3XeY1W8/4
vv/o1fMeafJJh1mqt+oQ1Acjk816Q68Pb6/b3uqs3jNvN5BV+Zyy1m3hYwVwTkoT
TidI1EoaDVW3nFZJWF/xfUs7Ps0t9dW2FYiZ7xgW6Xf9nQtDYSvG9pVDyXOVMnSE
6t0p3fJDgK0AxUyxlo5O0ndI3y7UEjl7WY9M7I7UmFYOZXQUukd163DWLgwIEGzx
x3C+PjMya/577YwdGVT1jStW+TaDTAgfS3jrFLau2x36vQ9qSN1P7TERUsJodFUY
FG65X3+cgcbX4hewr8ROcbZx8Ty7GW60BT4YQDoJ3173KMi0mBiSToBPqIbcJ0rB
5bG9TlqTCLw5w8neUimKxoTzMvvxwatP35pjltSRXRLDBgMYOTPaFkksn9ht/ai4
Gds9BKK/7zLAPyn6oPhqZDDnzXyDqjPuI0VS3iqLT+1l6pr2KAUWQoXxA8hayAJL
0WGGOFiU3seWtiEzMZZ3fSwu6DZjWCO7ogh+5gpZuQrD0+C49+1Lrt9ebZVaIH+8
3e/PuTeeOp3DUYNosVx0P3rCf1bYT/cSnPEtGqXKjLcsED/efeqzqNFFNi3PwNbR
+irWjEqPNAs+Up/Dfvwr+oabjrQLieIdPnzUPYqB8xlsY3qWfZNNX4xMGbd2Bw6q
MdjTttPccOKGF32w4g0fZF42gyRGhy2b+EnQJv3dYW3I/o/dG+1uKoVo283nONiX
HjmmoHFAaBvcsnrAx15sjFytDzzFOGWDoj5FCY6DGAqnsIvZ7aXvFki7MOHQiNaA
Koa3QWgzhTRVw/HhkTH5RSdIdFH8gpGkBLK56TNp7nLHbHdaTQdDkXEgqJhvSxwJ
/IxKDOhOVBI85RqeYM6WmDkdBR5736XXeiPvtVUlj1x+6Sx145JJnTWT+dp9ZI8J
0sN5fmNzurQWAGEw/MW5a0kxnLuN+Drp4bqZBoqEBiEwMbzU4+ymFl7GnitKs3YX
OH/67A8j582kbZJIPGfKEOwUQsl1J3t28hpokbbmdBZmvr2yztSIHa5PZ9szrgAr
EZWhYI3+l4ZY/iR9XGXv4FTeuEvW8oIXnx6BrWDaWGunYVYyyTVoo8ss8C4SZ7jE
EvbEpbpcYc41gdtuUe2wxgchsqmQirDXZ0r633ND4t5/hbfsCssrHHVM5T5pkPeQ
bpz+4y/736rN82b1jF3oVEoi5CoVFDDssFiWiueUmv2e/2hOMxv+S9Av3fTthEii
GnQ7hzOwJ1YUvun0e6b964GJD0VtAv6MDaQdYNxudAGPKqYl/NohaqmRIWzK5lSh
KV1mp/WDrRE3CLdtSCS2F+I5lNYBYYVUWv2G9lWcyd9oUn0WESxnz7n7k4YxurLt
FQHUu9xlDueYv4IWZA9XS4jz5cePhdirX/iKlsno1018EsshD37obe+mdXbRjQoW
ulxRLrsRv6FhKDxwekupw4HbT4qwv0R2FjEcPJCjZjJoEs2L3fZivOj15rUtiFuG
rkQJLLUFeQJw91SIiMT8a2yvXbkFU6RhkcpWSewEde4WLNC55bNoWxPVOxltr5Df
NHGuT4ftwrxSvN4nFWkbVB5ZBLYzZl8/YjkfZB5N1WzX6a+y5fw6A7goIr/UrDaG
g9d+GVhIwZxkXGs5D9XwzrSWtCeGOr0zk0KmyoEOvDDwiVZTeomI63R+NC3Zynzl
dSsyHPvgZrU0bG9dFg1lkyUnOiSoqRWvMOYm97QkUySq1tTkuNSw5+GB6e15i28p
h0P4A0dvIGrJ+NI57w39odRmr68l9Sa2CEJp4Q0n70Gl0/g+8QJyDu7WlqQHuo+p
X8LSWIzwmis9gIOos/+texJL9doUVI4v9tqcAkMqKHHsOC13VI9LScokcyD4EbgB
RzKc4+/MoOTFsGiXw+TnFYRF9omdMA60XSPUbzuETHnGnckbg185djVHQcF7vEpt
2589CetstX2BH/WCMIM1VmoiV2sYd4IMI6mPCu7yD9Tr5FH1heuOzytIKn+fEJHM
6n71lATQ6M37QhZkErPJmo5ovYm06Vs5yPcnqsdEIEZUTP9w3HRTO9l9OmGzA+K2
q+L8fhawWXtq6D5gXoevie+RUf8G+MKnhM6fLusaG/mlNNFEn11lRoyLaar/808j
0jivJFWcDC+gkSooKMt2tN7jXXNnjjmrTwuFu5Vxxc5Q6H+nYF+lYsZo7joDP3Wl
FnLQMiW/E9CCucamZXcTa6VEH2jo8JV7alDKVynZGPh+sUoT7CfJs4k6fj6AGGxa
ov6VoJwt9j+0Gj8amc8eJXbNGRzkulG90ZszbdtYI/3Wlhc2gI0mUAzIs7+WfHP8
kqBqmpvMGW+iit+/q7IRoLei58I8Z0wD8dGq89CHqhKJ5PXtOc6wJfOwkSEIT09y
HxlsaJ0gcLwSwvhZi1us2qb4Or9EN4AsCCyZ5ijtKOZM5kqVT+6NNTYPx5AEhXO5
iODdMhQUmV4gSG32X8C6QEkpMv5plLS05OO/Pj5CSx7k0XmtIbIxfKAstXIK1xps
Ednj/stBwWGmJvkMh0OlHKapRPyyQ4sNaGtoEkrfS1g23I/fUOVZe9oiSCTlS0bX
Yd2U93Ss8ugURMtFsFUZUT2/Pv+O1e80zFSMDhymtP4Vf2di30DbyoFUNfrBzxtt
h27D3HeaTMe8mDkuU9Bz7nOPNnUDvtPJY+Kk+IfvmTd5nyaI87qiwujkycB100xa
Ftu6mVkT1PuRWOMzf3RKK8bNPuJWQBraaNr+qqkYydrKWNCvWWqQPfrZFsVA+LGk
vcV2dni/oVIHMn2TeJIPelOp0F0guWLVQrksJmYvaBmTumE8mdhSWM5Hf5HiMo5l
kYbLQ5dfY79r85EOK/4PUMLXJDtVYfzOUBMIvy99nQJi6wvWZ/R35teEshZTak3z
j0xql/pDbow14ir8nBs2eTdx5l89pu6OBrMHENYNiSlfuQCCwfut6KWSFOxFVGEv
1ctVlV+7SdP20EPp2INdvS22GGaXS/CMt0bYhS191RzrCFs4gVkTqR1JY6/ascPG
HyGjc+ZglQG3tcDSv58D0k7ZSY0kSacmeF9bFzN6YlB3E67NlS8zIKhfRGFXUSEN
fugm8PrJapDFR9pYH+UBsxQ6WwT1Pp25TyEOPebNUxna47T9KHD68pc3Q6GeqsEQ
QmgwpmeBRgt+ER7RIIQfqfEOnYo7Qm2TDNCyP2nNqzffoFALTpcdroJVo28bZr/o
BeFT9IxB1vlrI8/Znl2X5fXIpKQVpRLZ6MepsBKnHsY+Tze+cI7ZJkTik0clUxk0
gsVvcyvPk1OhIa63ZNcNRW5okeLtADJgngDpAjIefiokQ+8gJkzqYuXZfgrOXP9M
sJvlGjXeV24UNwjWQpvl9c+rtCc2D2LbjRlO3Qez8FeONPFGLnEfakz3tdmpKuFf
AV+w+TokmQhvphoZ4WpxIU4TMaYNn+gvUDfAdJo5nxV7949wNGASAsAratKnxn5P
T+vm/ng19U/+Mpe1cN3/aP5CzTZG6lifkvhLbTih3Y+Q2eg4AEU0uFfc0baOd22X
h9hitHsXIFHR1BT4pRTEV9MK3tCkFy/1SqMn8DF5n6gZ0WkLAttJtPWXIyXXVrHG
M/Hpqp/Q1WV11pSAXufKu/obpleKRWOrnbnWm8lmTlCdaK9zbnGJv0g28oWDPUaA
et9R3KaL8Xbr2M8N+9254cmLbJQOKCopAH7Eke3eP9OXgTad4zSZ5n4/eMOevwDj
XXfh9Q/eMKkdNWBYhbcmav2/o6fHToDy6e8CXZI5W+f98zgfxdPwtCcnMIbW2NRA
+gYKgc1X9MS111Td6buDl23IQn7brsRZCeenaRiw/dwE5AKzPMtK1KNYY6jzqOow
a62b0OI+o/NZl9FgOPVcbDDDlu0yoxhb+GruvzTmkH5KwA2PpxfAbPOu51sOCmxX
Jxb4QRcS3XCbBveyI3dYFqni99bsRimPGiRIh2qxibFiqD0WUYdgw4qb44DqPZMX
jmrsL2l3Xuz+GCmTTBvX5ZYxISrHNTStHnYOH/vz9cXwVaPQAs7sfNA5BwL2Ic9R
qxemoCM6hojDPoSvPsn9dbsWg/120gy9/TU7WKaiuHpWH6vaH09IK9dCIALtnBIS
FbvYxsGl/72Qr24nMbMQM4Bub96TscIhQvUvMCoqap62pJBClxz/i3wAY3VwmX2N
YGXTx5iWePWqkouxy4chzpP/7Pj8f1I3GKnQMRoe8RLiiNHqLKWE/NOR4k17S3D9
0dGIbo+Nhvp/e8e0Nv0O1EXl0jnlxvYVa3RdNtS8m0hx6+nMJ/b7i0WAcA/ELaT/
xOwpzVV5bP1nXo35FgGOTQyQtAgff6HpqPeUTtRpxBh6MQFBUbdNwqnS/Pm5W44m
zV71hEr0U4erWB1Ewe2hX1F8N/Bw2Be5kPzryA3TZUwoMN4BRgpugvgWkF4AbGkP
KuWhp3zf+bcyHDYZsj7f58KNLOVKkOeuwtEhmydgiXedNhtYeB7Y3pkU24sqDW+O
UnYi26PpwOjnjYFfZJakvp6C+E/hszLPwyG4vKUlCR0VAGtb+yyX3OIoW2a6YxCX
+cf2wLCDF4Zc2YiuBBc9xOfXUT3kqdHUjdduBpO7TuwG+UlwOkZIB+pF2nUtKcg7
N7t3Sd8jeXDNIMiZ4ZZfiuDVoNPGnVF4VUJzQOAUzspmMjc4H3t/lCaGJdNHMD4M
QynyJOYRoiZoA+C3MX6DhtSiIoqbbMXLAP2uu+0aeAhFuFbsS6giZJlZuRazHhkv
lZTJQ7SwiuFHpH+nWZA+8ZgVG+4W9p27yQM13OvQX/btdBh1fNZYR4GgWgKm/ut6
vDSJcs494wGfBvnGtkIPjn6GsJPGq9/H86frHuLClvGqoPJevz768SagBNz71tzB
59J+lHY+dq1ZAaLkWAqOhRkyXqipIjD8BVMVO5MPF14bb3avq/ulcYbzjroMqq4+
s9X7Hd4Hzp/8iAJFUtPVyh2U4+uILUk4U/0BwnZVoIWlFewyr27mqVnczEotD9Ib
8rQynXjPFOxS8jzDBmCG65EV2LsNhPuWt8o5k2X0uiWRb2p+KA+k9QigXDAcIC2q
nC/2HEgHVduZCpko6y0SzLlL3589zK5hgZd5KWFZ/L9bVH1EFPR4O3BMyHdy+2cG
mtCU4AOj5qwoNWc2DldGBP66fdjwW7TReEGO/Zv87Uki7wBEfj9F+KwwHQkaGNOm
UzFGX2RyVaH7w0ExYP1x9TeHNPVXMPs26VQjnTlmBe6LLx4jOcaUNtgqya5x+VE/
tJfGenGRUgLJX0LpXfNmuNHDCy2xmxQ0mWvgwszKhdflcTPJJPbFbfNfWsfvL4p0
yzQvBFUB3IKq39OsIAD490cDzy/NGP7Eft18kMEpxknFPkLpJXiB5Ki9b0pmLCJ5
LKnOK9Vylj8gDH0uRvh5MkROd05qAQw6YicblvPTrneHqaZPHN8FqeS6ik7mVt4H
QWUXX3hm3wIpiddRkQv65ecSRk6I4v3OjO2iInAbYiLQLnPQEz0hP3waIYT5BrFP
zH96cmkRPDqrMEpSOgyW/Zcej7UfggTzOcb5pncn9xmkd6kGKLugVsK3DPk4i9E3
t2Jq6I1nBFaZ3EThGFThmvuRSK3EfVeWpBKAhL+8ZifkVW9VgXBM875OcVQ871WE
ffmJfiMyMT1KKNYDt2vumR8eTtDScEuY5rvCMd4KCvOKv7EeMRzQ7ONFAZtQjYWx
aAmYC8SrZJNvsR2d1B0dGd2jQf/+ROZoEcE7a8b0IU1AG2P5NeyW8hoVqDfNpas+
gu93f9NxgL0jLtFi246ilCDwsPunppw3+zDIEpFDIUAukJAmo1M+HT9umlcbfHX3
3kMpDJmmKku8BEKo4G6tFdNO+8s/naULAbp5PQAbmMu+KTHc9jiq0nnnENAUfSiF
tiZTA1FLc8oxkbo6a2NFBBoUVNg5I1o6DD9vRRo/PlZN6PUln8lcYdNL/YcDukly
aDyfo3Yr3DCdWbOPLEpXQhaLAKTjhHwj1NJyl2d3v4DpH4fhtEC6j5qPf0JKoGGJ
1qUs3k236P1OLwj+Y2eyT5TSxcLQVX8HuyjyfHU+hUDkHCzoA/AHOtpImz0ma9tE
YtmHmAznc1t4hSpSeXFyMlcLArKeeab97eDFuh25Dnmvjf9zFZqCDzmd8D1rn18j
N+Lt9DInzz3kdPVMXfNwugdQtsNJEf6UhDLqtkJ1cFjObMbV0eXTy2/c0jawWe75
0ENIKf3ZOe5KoY/R5GKr1ng1EsywoMTXXotN0eftEiVt954U95A5I+vP6CUa5kTP
xcERXQ7R9K6pBILuVZJQP7jVKUhulZlOJp4nXS9jwLYC/7AknLBr5uIjrkPAan9J
26if/wLTapyx+oc9TD/fG/mWsuzxf/gcODJG5imyQzBBi5jVXBAgzzHIfvViFnIH
fKsQvEDr+wublfpABXFOQi2NXJWX/IjOZ2sm6YuACLFLtS02mafsVr9+XTfS2lcM
4iIC10/R4HYGhcfHFYoQ9tQ7nY9AAzhw0Eyn8V3JI+kDTcRxs4XCD3ryoJ7/gNso
N9hWagn+8PHePj86QoSZ+MQz9IiV3ZEhp7Z47ZxfXLK1clByrCaonzHr2Y4bzKZw
52YvmgdqAjp0xcZ1ETGA/cedvAUQ+fREjCFlmIJk0hNx/SCAIydgNQ3l+ec7n0Mq
IZ5Kk4Th95PqiAdbDiG6AHha5LxYTTMWm7HsgpmKgsHd3OWasDs9O4pRcKUORuqU
/+7bh5b/WskAr5pipOfAzNWv5CddLkwLvujm6w/78CG35zNMycWfcw54s8iTbHgb
yPWqBtn+abqwXXF+z+dvEeDDnxDyAIkjPov/oVWXnIZGPgF9d7ZC9BfLebI+r/qu
701yMTd3S2SVka1V6COeO0rQ2zW6RtYJlR4qQ2UcUGbi+LYzVSVhA+VRULaxvu6w
DQ19yGZ5llYROG4JM3i11MgPavHgyqwmtel20+qeSrSACuf3FwkDPHiensDNk+m/
lNW5w2UtvsnMf0swGv+Kh03rz+naRP0ts+12mtbOq3f7Q9fKYERxIZwAO7lJDQPj
1mVa559W+aXRIW819Ec/gg2+tAKar2ETymgHqGqBb3ygYmkoT3ii5t4Lkx7+28T9
3TKS6iUlW69N+CJXhcX46CeNUc16zeq6lWY+qzG04Jv6NzJ/63eCoy1vg0nrI+7+
A/TaIIchk/L4wOonjfT+gpi13Xlp/oLqtcqw0T5Ek5u31YhUlYb22eS0VlXC7z1b
fK+9A/xaP/vCNyxttHdQkAfWv3WaWcc7JFFrblYlbch5EpUKWETlp0k1gYioIfly
LbUw5AXdTfOnxEX87ayxwSt7/0aDDA85V28Vzkw/M4fUdFWTB3B6B+xD19B0wgb2
u93uqgFLp/y7JvgBkkJlq0O2q9BA2+X6hMXdqGnp4cqtHG6eMEZ2CXTFoR5qVBwS
S8AzfkVvqzv8GMeawb1FJiFnzG4PEMtV8xXbHqEO9rXrYEiFA4PcxKbrtZ9g8etZ
mH9uPoEQY/m+3tIQ9ZwMjLke/1PYH0A5ac6eInfOFcc6c5R3hC9E2VXQXZHtjD9E
PrsJae0wDHRq5TX1zUhckd7Msn99SX7smFWYmCANCPOeTNEvsJPzxtovLSs58jDS
rXU1yQmOgzxQ2w5lmJjbfoKD4dEaYPu95v/abTo/36qL3Chjf9qrUARQgTcUDG1a
U51o7+royi0E/bnnFpxdC4cNXH4bFhJlkmxTpee99oPV0RcujZs7hx2JRfL6sZma
XLIR3DhjwXp0rgrm+CDWjbQhHe+4ww90dWSBndBxDtcu2kBRHt0XxH1K1ODitxXR
FWUKdrjIgUVeYjFyzT3pI0+/3/8qjfwmr1JSI2PcaGqaJrkJ/+9P87TuCMFGUsSj
oO/AmUfKR6xiFGGiR49IGUcG2zLo9bET4WN+yv7pNIMvdtEtjYAvnXQrRLBg5Z4e
CawdkG2n7xaR2mwKpC7Qf6WMz7rZI1195RQR//8iAYFW2g93SPq+BFAvUvEOo28b
sPyvELLoj8hFRONiTswzgdCCENTrcL4M/wJLm+s4Bl+l9X3OSDRf81Sxk5SBGIvQ
0L0i56zVVCpzdeZ9VNCCLeyCQ5vyW1aYFiqJuu7j/WW9i/K9RucWo840YTPgBW1l
nBkg2uk3OAjJPLSGlLimKV1fPDP5uC3m4y7pBcVEYwRSp0Y9Hk6VtziLCz/AUWVK
EzntZ+u//jaVdHkUYzfVZYcTjbs4atvh0h6ooJ/XoMgS9UNWAV0bP0Q/Erf/nf03
fzql2jv8JfupGCIgNbSHwfCnbD2ucAg7d7t9q9Z8+OGx5nzcS1ynctrU9o4gvZEA
Cg9Ov3S9VDmGmg4eTG5XJbRkrPU2reyDr1bbdIvc9nXT3cnYwR8NS7Zhq/CcE6yU
0R7sBD1bfIPpm8Y+oStAgCOpbAFLgDmpXsnOkzMRPrVfqvYGWDSmPG02ZKPo49+3
UaYq+fnfg9O3vPSi4wQJEZ2DpEix05m7ky2g0CQajAZ4kvHvmRF+HjyWbPimFPUu
Y50dmdYC+m3cOTm45uIlok4yOVSk7Pfo8p0ygmOuzQA4Ee2KkWlz0wss9FJyXHZs
AmqwuA+64oDOvl0XJG7+H5hT/WPKgAoePRENiVtBl06B2As9MgNsRevtPbxiBQnQ
ANlQb0knS7dalxww6c8JvH+m9drp8HCz8YZOh8RqTYHWplU/K/uvxRrtYDfrmnPF
82jlm98GuG553jtjm1DP/FLTE2hWqHxQYzPldsfWvmV3GYEwmgBv4E1qjy+KLpXS
1sZ+/UlA5w+9K7vg+sePHdhRWpj9hZd8AHVRjRvnCJByUkDqE6lM2erMbNE7udFp
9wC/i1S3/P8kOWdFRyCPObG/+oEpRMhG0vTF4KNkacaBikMSBGBhC8+6Xyix4Vmq
1M+sB7fC6KeSHFk1JqWHPA/PB5CJ1nR31tOCHSnwpyG8tNdUF2cFmyZkCMHPzqMB
SpZuhJzIp2S660q8KXyWoyD0dzzrsPA0sbixU3ZdZUd6v7Av2KZYzWCidS2gw4ys
QySsjuBk0kfM1///w/rrKSIDP+nM6sIrDq5xVXrxUU7hRo2zdcLMKA2P2VXzlmBN
u9t3TNZVDc2xiwF4YImQ4Y9x03/5KjW8fLvG7Y5EZ+EFngQoPOP6OfGELSMPwdRK
kJugAKRRSVueXgK28DnZoXJvy3q/qnxYiVkyFTgf5u2Ywo9KHBczBYa+B2aL1i9A
kZ50eW+FkUeG9dVTqFYs3wjCXlGH0ZENz+lhignvcyNhYHgAHAWchW0zLhANqj9q
rTb5d4msr08kqTgpxoz7BldDUN6EW0tkdo1TWDX0kN87ZkN87hRn87GtPb+z/MtW
LDdIAHWIUjtXMO0p+5HkubgI8v27V8nE4/zAUDzMOVp0PbuIHy5n3Pw0Fo1Enjro
maF1kZclLNUjVHekZATG8yWwhUQACn7KlbLUdD2666u4tAmKXP5s9C9j6kp5vojP
q4totpqsdsui0NNCBo2I437J9zjRp4D8T2RfBSFymkR3DrL/z1JMjJqCeVF6GwZi
oH7q+nLjQqeDiEQpTBMUREQ2GuqCn2ENeCNk4ElnnfZj7xuYyJ7codz4DqC0P+oZ
N5A302EEb5kNJKx4pQDYPlJKO+j1j7N85cUFC6vbIKHAVR7cY/WSlnUVfWNlHvLD
U0OnKg2x3ZMvO4UQMHqyGAdCS1wFCNmobRJnJLxtSJIJZBpyRvSoDEtIpbUDE1Un
yKspWpLCxJbgOq4ZyWXw0xW/QKnxF9Sjcf83BTBcVnokK1brpI10riwr2moj5FtP
AwLziDQZ+R2vXDxd0bRBsVZE6vgYTpsxNbuvrR4VDYJHDFCArK3DW/+57fYEEcRf
S3OyaUoHX69xfTKA/vREtiLmU8P68GoJOK1HX/j/XIaQ7K48usaW0m/c/O9iGHpO
Y614J07rNWMs/TRzGG97t/zfYLxyHFN7Dh6PUzZLup3pwNkjbRhRae4Dedct1/qG
5UM6u3wH/nvlNu5EAxl/tr7aBDW8SGN92ZTjTl2XDhMTwkV4tT2rNTzWhX0v4msX
ZKB2Lo1MS4WIDFeDevWy/g4fjLg1u9L5Gb/YhjA/zMh+GiBvJwQh1xiEfJbotjsQ
1kq/JvIAJN7039i7IwFPFPjGsu5eUxRuLYkZopt2eqJFQgD6c1GziTnIFwOYPa8D
yLGRFXEscDcW2bwvxJH04icstrw4ZqU3AcAvAn8Q8yUcqKDIuSA54QIcZoKwwUX/
KjHgbTZ5/auIJPH/lAirVPgF0rktvbW7K789yMFNUR6Md/4KlnbynWE73zlOm3xE
V2lEfY9EakWyQfU1K/fNEMomSyJI40mv0qu9bGCQlJSwdmVXKSGMXhiW5GJPucrV
+0Oq2dQODVrue4Ok2GrbQPwhfsrdzW3oGmfN+tXMJ/6h9gd6dUTsZFfkjxFn5jrm
TmEZkxOlSgjn4gSdxPl6xmScz5OZVzRXGsOpKBY7AVBE/xBLfo+R7z52Q4mS2IYc
KX03YOkfNqTzp2Ntm2cGkNirpNcE17n2bNCo4XRCl2LncZZjwO72qoRbBLhpJr9N
B++CsCwItod2YulTbzWFEaiUjufX3id2USzQS/5igo6rU+v8313Wr1X11TLc1evE
eTT4XzqMG9qp1iZZY+fMEfTCj2CdgRxGagDKwvf5ihaIy0ZL1fadWjB+rH1JpY62
iU5I9+hNMSuYXwKdWw2qWh4Fo2a9BpCFS9OLs4ACCdaVWvOKPc5Jx0LmRrn8nOYk
Y2vIOYe1EbtJLiKRq92wMXDdHybO075MQ8uWkCKeJJevvBPWPPU8NobBD4ea0zNO
FL1MT1JxaeJQJKQuPbufQn7yMxJjjG/y2x8lV+dzudIrtqmOVG6Q/VZFJ9THF3Dm
aBAcCfIbV34n2S/mCmTeKTkDDeZ2YyhrWgiFqQQUWQxx1Zri5EqWz8OZGHnZNTRg
ajdLNY7GjYxrKMAdWumVMi+8YZi/8KS09RtGkbj8OXU0lBGuHzv8OQ+J+mqOvvx8
MkgC10VTRY9vAKW+YgdQHwySDG3zGV2aIpeAZ6OWj0kADaYaB4NG/0vHWv5QuiDV
tsavguoYhE8AUMrNY+ZcRn+xhpPkhXOf+lQQzYXa6JbWQtfVK1W0sO6TclnswFRs
KEPPHNC2MFj2zznG1Cgsb0WNcBC5Erp+LgYXkuvBIT9c6cZ04RW73xvZT4cMil2W
v6YzSDJcuyIBAUAEo/daHnuIfx/1Z4U3HClWIvzGkgl2MiZJRmJvC4DtJC/AxYqX
aYL1zXFuxIT7rdpvKgKQNhdWzVTtdVXhTBP8oUJi25uwu32a2utkj+eJlxGCZSyx
H0p6SlA8HW5B1RT3HC5eHvkyt/4IcHXQkZbY2/j2VPCvV2uGsgLRYk8kuzOK71dx
xMIIFagQkwZsC5THgQsr7W41K3gWtaaKscCKwRCtg5dgAIvMC8X/e6Z8SrVQ2zrt
xahKMKvMGcA7sz9QcACnwp7ns2TiIg0Dr/RP/IGrn0o3WkzFAgAKGRPgQKmA6jLg
6NfbrgaGL1/FLbNp492J5p3uwQuz1exFPOyll3zSJ2UJyj+KkYHotFPQTi9UknqK
ZCTSjsBTF/4uFMLuE9YyqsuG3ddIFQ7E7O9xHxqjRuQH1O220XmOSfsbyCjavqoq
3go+M+cHXywhP2807vTZckgP6+JuENw2vhZFSqtqmQUf0sRgAD76GfRSxrqg1DDt
e94aG4tU+SvjX3ELS7gf0aD3ytZ/nvHlbFcI6FqYiseXmr3TFG2eXIVwtplPpeHH
ONprsgotTVRlWxfFVPIMbccesKnJryZKVCrhksUpCwwThXMft/TVef+ELDQDWJMh
9gxTAnv7kvDI9PycEoF7/ZkHprY5Hgey8stjzEBFMjpieCXFt4i7EC8XZK4VuS0l
d43+VlOeBWvQZoOMwPB+/gA5xSBuQx0gsRZno2RAqDaIJEVXXLcLoSXr7P0KsWgq
Cg8iTvofJDil1lEto4e5WLLrzsx28k6CQZZHSFfMhpwAobk23WPt9GwaCigVNWKl
A1b39hSCy8WwVVeAdXIkls0dYZP8YrWHXcLRdacqlrdrHfhdVy9fb6tqzwE19p/9
UwGqNTOb1Ki5zPrtu9vaGQ+AcE6S1tZQZdzuBmd0D7q1Rc/vVNn+LLM+XMPf0ER5
TmKO3iPPtQiWuyfSmP+QIl/mMonrUxv1jjJ8e6rkqa6P5HwHI22DRhOgfz0DriA8
P8n3zbmWrc4X66pOgkFJsYmZHT+Pt3yvPFBiHmzTzLFo7KFXsmKYEI9CxbiCx5eV
ILQM32rvvTs5+l0jHYJOC/vQRE7zJM/nl6wEuaPEydJT9Q+bpsH0bbFKnF3HYUsI
Wk8FqyKQgiwDJq8mEfNuSsPaPlstrJwuv/p5UeH9pGKkPdEElU1YLlcgJVTlwcgC
sHSEa3m9coZ/AS8vovnkocNcBm7c15DVHzafEv+u3uCoSRazKRHJF+Glr2iZr4Mq
3+D+yv9N3DClMRrH7muncp6fA4bLFgQGWQRu9X5O6+lO/aEaBxeGeuBOCu2XEwL/
L4kH0Nxl/MUeOe/lMwJO+33REnGNWrG0Xj2dTl3A6OUfrfYeEzy255MX+0b5fC9N
rruHOtJgggu+VVwekaDStXdpYjlQzpu6U4a93qMzIeN5hpR0FM9TzBkLyRLsL1bN
nW24bqs6KuCiQpv6k6tVBOtDhOkUeh12gzuiZ3qqUX+Pk65ktahmK+zi5GAsFqLy
mpRPKsfQTAikmG7edyD1wKbjGsXuZ87KjeGrCp81gmo70cFvGKihMXxKDDdN9BOs
twcC77aooHJlbaPhy0KPdBaIAcf5vdqNSSXU4bHX+U4779J3Ysg37pJQa8pC6SR3
nPutwFfd5+9RgcuOwnrynhAYebku6AFy8z9m8iXOfD1dTKcvtDCiHcyYf/WBg94o
uuJepkinD37KL4wOGasBaj6ITGVy7naWcB0iUG5+hqVQSieXnOo3tLEE1n+40BQZ
8PY4BnrjwQKK1uDwVtRTao7JArlbauXsx0M9flG6MvveFWs6wojkCdypx/yatMCv
ajDr/UtNAluvwgdBUxsS3o0M9ie1fl3VeZSCTKf78JAicwN2ukS+AhEuDe2rbeeY
C2IOm37vdM2A/T6WrVxC8NHqdup9AKmffniP4aueGqZFv0uVg7V8CPRh8l4VS5z+
/HCC1Gui4FmCzN9GYdsJgg2WEGWSEfCHAYypQ2CBCyDHVFmimERVnEgKVk+2RAm2
Oh95aROl8OvUnp9DCZrqL+K9dqL8SVj68toy4at7vEuGlAcxQBK+cqvS3CSBBsX9
ylOsJRTctPE5N/XlQz0GQD37pq1uDT12QzFzv1f6V3eLixlEopCyFs06A8bnzYQW
5pJpk20zUItKoi5Rmdbrnl0PzM9V1PtKz8Pa1LYNtRKK9esoeW8ZYgoXruzae6HM
oaobRyBEn0m1RtAu4koPzz5mbUvdni4g7X4+0q9Ch2EUglN1uci6UF060kBEhxpt
oVf7AjxTDfzPpQNVchZY5KStZKJY3Syrg84AxSIlOhXC1qv/L4zS1aJrHfh/zABj
VUqYM30kpDPfHMof9ag7OUkL6vr2IwVR9SczVFadga4wQIYSRd3kXjvTdcvPe+nm
a5a+HkAfA39wapFyaE2HA/khTKBUwIc9qn0xNlYiKa8FY/STo5QdCDPMT01RM0+v
EJCotDxORzfwKwM49upfH2YoKo1uXh47AuOuaonlN1e39PhICiudSPdB7YWuWnBn
BaGUWf6zNXWpZbDjhAmxDDqLNyj+WnPdH5D+AJR1H0Ip9SInHO5W6zRdZ/qORs4P
Njx+9i4T1NntMMz8YRYxcEvTBZukVoGdUDdEJkbtoqmx8hYS02bFfMXKBLlowC/l
HfnAggYSYRTrwLuLStFyWYAKwZbuwXk7PFmlr54I2RPVn18vbXmpvvQl11G5FSQa
MNadMZ9fVfys+NAbt33APaDOpovJwQ/5y4uoHutkzXhfnyZmInKA/Jq8OgyL0hUJ
9T1xcVyQ7mG4YghJbHSeVF7sUch8rIg0ORbxw16Zxx0KWRmo54zI6myA8PhcGxqD
BR8PWv96fshHES95PGBUv9S8CHrYKCq+oTzKY3+ot8SEjB0AU6drATBYMhaMyryj
LTAXLv1L37J8ioAve1/wXPmsM3bQHG+UNiBjOScCZfdCPwPpPhorcFpwmuuTBGYd
tPlSAJFhH87MdJMVV9c0w8CX0FB0qDye5XXIjzncDiN9fY/cS48PpBEoEHVRdGZb
ZIR1or881ktP8h9A8afbx16D+HyJkz9SAkX0ZlStoPvcFssimDotBuScV4NNI+Ii
3UJCauxLDssiQqJRAKvtqHA5gjEZFgEdClP644Dy4F24GwsX1TPeVwPaU+L9AQ27
EKdXSvKL3VyvwqAWPHfSmCApkXKbz8av8nJW7xqA/drw7VrQw2tX/o7IjNJd0hJL
5iL1UbwBHg2LtAUdsEpxk23ur0ZMvyPfUTtjiU3OPWZeId6Ft8lrWGGQ2y2uo14f
Avn4TBtAfFBADsSfJZaL1l2zYQ1B/+JhIL1ZYNFWj2ZT7aHovjp3BbrJAMhVgTH1
RvV1tQW3AQ7OFyiIFJdGDGbG17UqoWXse2sc9N+1KSGtcYHrLnSs8Kmfnpvj4qYm
YWevA0uITxjY5Qhwz26NJ5ek5d3EhKn6KoMNFSMRcPxfMth9DFwRhAQLMk7LFYqD
9xxTmsFB5FDdX3Lm197rTT6fLofzohXVezyT5axbXQwbP6vX7KoNtwb0S4BwMQJE
/wkQ4jcDbUtkv0R5gx7+D5xMKQtJVarGRl1KojwcvhXmhEJW6ibuOJWyIZF3cThJ
oPExcNFg3AAuyViM2neb+RVUUS5jxz6o0TtureU+53EbTqPeaoMTwr0e5oN96bTh
5WO/d0uYoj1nj99f61nP0W/79yYt/VUFS3St8kL68ugeCfPCb9reRq5CEPI9cwEv
a30pU8flFRekY5ffaCbEWcj1HKiKkdFxGruxVB9pR2KwxZHh6Yti4dtT6mvCCd5r
ejvRehcJTVj+H2GNXRFzdSwWgzjN1XyD1HJ4vxHTeK2sHusPkIaeIByH96AZj1f1
0gstkJIif0yPTW0/THtswAninRWZOhj0H3fmoPF3yjMWKJv9ir+IlZZOSDthrCvM
2ckRVgdaosJkiwGWbZP7xfzL2gIlw50Axx+FwOyGoRh+h5wfCjjtrO5pWPkVcZ/u
JjRewyCEc52WFU5MQg16LNkosZ2goWMHZixUCYFCTHu5e+H132syhEQWOcV798Pi
qQf0utOhAQkU3L0zQTV6wzyC7RGeNPXt2sTMpfi6E5KdFMU+/HUbVdky+oxfI5t3
u0TER/X1WyytU/WAC3OcazN1jWpbsuz2CH4B92wBWgy3NpO049OTmcf/2USj7ECp
ZlIoGhDTWrcwOTS3gYY6FqSEtrnYBZfbT11ufOM5ai1wVr+WAssQpl4mYabZHHV3
ZnSiuPqvfAofENK5vEW5f+hAgH7Pmi7Vll8lXEl/Ekw/vUGxIZeeAjbTNRdoQV/W
Kk9XVitn6U3Dg4UKzHGVBHLndLXOUNLhQ3uwpOOnmywW2fpekYXBI+iz6YkBkwmW
4xUNJuPMUIDZdKwsGPZUJUNqJj/UrDNla9gQGJnxLEe6+gGOtxZukBxqjvubfs/y
mJR3prZInfMro2VgJsjs5sFR1rTIU5jANdssNZMO4i+qk4LRRR8nypd7qYUOKZFV
rZR3UPOsuxFmKvcaTW7ajNEj8QdCxX609tZ44w0px7N5smQDC1DXkZvjqpqpOBsr
nJXkTZsnl+NSQkw1LyqwvexFAZFqZuphtdqrkh5FI2p1wqqCEbojcUKe4aGo5pWI
uBw9Bm1gOusrYKbuRAqBUKA24K5AaQEUV/gbvrUUeR+RJsiMzLQjzL1pVuEzOWMO
i9LFoa0x1w3muhMAqFomeF9MHbwZ0Pwt9T881pi8foc7i+9ncEwqluodU96RgQIB
iQxsBflHgRs0VK6c8biS2LDYHaxt1TldqP4G+bXeV5tZMw1b1Aqi7IWnxJlUwgfe
Lr/CRxeb29yetKjVcbW+yMJGlD9kWvScuPohjxg08TiHg7qTWh/Xj1Yv3YYJDd5+
zkclNfQoGHgGEgxGyGUupcH44NpcQ7SU2O5xas8k0+LaU1+dNNOvkF7+7ejgZhE6
M4QtzKjKfYNzaGpx9Qk744OqCWBMCPVLGKzvYw5LRN7KX3Q9eDb+x4HYMjVIQUpc
6hgmW2Bs0xyGb9VX4ewHgIXTN/Lz00hP6iULFyfr75zQhFCDFt0BqINqb+kh7R7k
otEPSvyeBnfp3JfiV0tdpgfZq3UW8N4MuFidmvs9aF+X3oFzyyxDFLSy/aKDYD1B
1nJkjyMZCS4xClTxmbtC++YCWMARJDClThEWBfRR+6ec4h6k68Q4mZFNY+6hQCSe
l57COHrI9O5jPZZ9ETjwf0bkfNLr38m1sxHlejqrnTdWJowC92l76MnoJEMKAn93
zEbsysdJbWzqfjOViSJgUUDER69FZOzoc6Xicer1/HR2oKuRFmUdFquyEFoqJ5gY
bFC06YlEO4wZ6I90wAreqs/EYGEZjA1HKM3iu1wWouZA7tF+oa4+SlrRRsbnv4KO
aXB+B7CQyf3wlqjvWa07HHt38WAIlzMkCAUlv4yD+QpDagnQ7I7GuREgbj2plBs6
SJBZqyKcbCYph3gqQVv5MPpqvxbXIaitpAMEaEwcsHsojbjwNeVfvIQoqQp2WFzy
yE2PMsMKSlZGRGI7DqpbpfnM0qTWhh+ABg+5vcwuS2mE0joUZuc2unP+zYCoQJyd
QUJbbCEabigChzVDZNyvyflZ630rDFHG2pKEJNk1/pIwKR2y/oUv0AltdkwTbKV7
8XrhJL81FfgQAMNCPukwKCsdS5/nsMlelm2vLDu4ISBarJEUBSclislJXS4OFYGR
TPkkgbhSHjAm6OZt+BLupoZ35ft7vBIKGa5j6vfKbNQtUeqq2DsiI5nCBMBMy6do
uoTC/PDKjEevDi7z8IrUgCeAVv315tCENdYm55BjcxEafd4KyBuIN59I52v3Vtri
evMbQpboKEUGhOqnSAcgBagJpRjyiDre5Ev9yXN+2t285dMNsImgxkR0bgcGdkgk
s9ePXlhc6FfjbzW5qSXn7lfDa/A6MHY4JpMK6OdlRnerlg1e8oPWSfJHEmIrc6FG
OWNxm6K57M7Ob5eERwA/qmFjGm3g13UwbU0AUPJ6ASIHPbvTwB11FpQ3IHiPzCmL
TrtgLqQ24lQNwkb84Y2umYE450WbNLjuW/cIfid08E3Jq3Lqq9fPDwiAno479HHq
/FcWwcK85NAS2ZzVVaWToJ2RoG/DR+p9vzPReY0UmoozirQCXn6nTeoIYaTj1EdD
XINGEtpF7GkYKgfIwQSB2aRjyLUQlxGG8xF5t8ITMunhNeBJ+z707aKZG5E6kX7/
xTPeT0NZ9g/3xvS2oQgH9rJW8hvcOyk63alnXGorFi/Qeqd3pCTXMuuV00M5DR8V
VkNqOwbP+7c2nKhO9H/5o2nRG/QfJJ68nlK1TSgwXh1afk+KKrt2kiaDKDNtcL3H
f6hGUAj9cS8/8DM3bHON9pbkz+BBbOKJ6gLWtqdsEIUc0ESBxLEcShLM5AysvcyZ
KcNVUrjLKtGmGbbqkws3RxQH8Fck41PGS9DriCSbO3unsJ6ic5JElUq9Z0Br7+Jo
MOJzFuVjYTHIM2l4rRJgmQ7ZKx+K8+MD4NEgj5ztZmLAZwwa+w4/tJ1GYfZkywrN
0B0nRdQPZgU8ewc3IaDXE9U6cLCszSQ1VFHwyuh4CWgjsmoTu2PFsrNAOpGVSQwD
qx1JNkMBBC2j8u51fytzmyz2EOETol0zS1YYaKwkcQyHZBjjogwuqc1XltHIq6kE
2SPauEbO/gZfZYwBfP6Ys8rOs2b4bOv9Kxt9Mi6WIwrvMkDndv+2uw/nUpBh2ruR
nMi0K7pIHcj51REjgu+cLSbSd53Q89XK9pgTnJ6USCnVi+9dueJs4yOOP+p4vBmw
xxAlGq9ya1Ok8T2vBFx6F5bZN4jRQGLJ97PCo/ujvyOMN4qtgQ0D6vj3OC192djy
xM4ICRZpHGLUnrJycSFumlICfprJsDNLrHc7VVdrTN6FUZCowhTnzG1CzVHwNDAW
EzFELqGIA1Izmu8g0VLZlXOSYmZgZIIykqQ2le+7kHsBZPLe2B9xBh7HVvite5EB
sfnN5loExO3k7YitdMNFlAPKt7Oyr06qxLnCbwb1+3H9pURPQbZISOfr9Jo3T0Q9
r6Y0u1FHiQ/IRbjRpFF7+vFIiTIAPMwDa50JnNlbWrw2PpiOkVnu4UMLoWS0EkDO
s7oFuted+JKyk7bc46k20eDODDkfOC6X2IYsNL2+nGw6J+wjksq/by02uaIpZv26
82qnQhnTMf7ghxoMADNeefMu2kOqueLH8WgGX+b2di1ymjpdy37HJV6yMeK70Dn0
0NrvTFQUjYE61Pejse6qVcmQCfKUdKjGxEqeEJN4b90SewHetgB6oOaqxjqb6Co0
FqhX0dALJcJOd8q/e/JqkGLrxM/F1EFCd5HdNA07lRwPhzV9OKAPh+rCx4q/X5zs
9NtGOZNQpHKTwzJnsTtusp7OckySRXfz8CfD+VoKMT8IMok5VSlt7s9uWXhYuJIN
X/pKLyj5yVBx1nt62hcG7+oYiPRbEJDhGZFK09gWz+jJzVqc67JUXkTzhTOrsyur
C/SDkRLRs20Y9ALlIUxwr8kfxuMQhfa+W/TNdi2l/+bxBa6XImtyqe1JhBBeo/6g
k8BxMFCP0Xq9WxSxrUR7SpPc/iOpH0pAtp5vBqnV7MHPR4M8OGb2Tz9idR2Ve2r6
r9VedaneZFflCGaWlkiM4FzwtE6YfKrUEeKHcUwrFNNXS6ljDMLbSb/uhwZEY4xk
pe9hbuX8lkTFmslUiVDtxtE3PQIH8ncJy1cr6tWEGLq5erAz8z7csnWTArFQk2c1
/yhxq2hLs7fBe0p0MASSWK9rzVtJq7tuQRLu4Qu+9JsOGBUOqvB9agUw3gtfe9f9
epjKrmmDBeDZc8ZhhgEqpvy9v8Xf5r96U0K7GD/BRYdHDYs2UgNit2Ic7dpWOS4O
pgB1Z1Hbi6/YZlJJ6bzOHmUBFqWGQx0MeZ+xz7mTosnJ5Q3Te0HMQZ3DQvqi3jWg
8wz+nQzGsFpr5TF4l9mkOBDPTojleY+IiaeD7/kY/VGU6ZBDWgqED3c5LevXjN6C
5YSXqj88F3cpJNtF/1ufA5LEKww6HDSdhYraQYh3H4fHz2eHRfH+M9EUFK06fSnN
P7p6fbqhvFp1R1/bCHIN7eZ0rwutj3/FmTZlzpTNQwShedL7ZCJpbYpSiONg5T3i
PphDmwlw7D4GvduQgzCsELWZAmENO3izw6skE6IvQuMqb7j1MBZGlVsmKHuvyutW
JTjkYUQUp/cu6pq4Ab1TNi9pfTNspos8zgIiPcsL/cN/QH7Rr/zXnTD3hxlbHqlR
E5m2/lURDehtyxfzUomHkNPNOOa7KApBo0u1LVVLUHTaKhOoILs2iLMI8Qaoq5O7
3ZYaHyMjjv+hupNycj4/BmixDBVhpFWnnNuYBNJbmsoKypcnamqofNpsLeQIozI9
y1DZxPxFtSG6YLseFpjwctck6yneLTMq4grgLWpuOLERBvuuUYewVGPLTdMOc3TT
tCts29VQHZU3t61Z2di1nl4Y/JehN3AiZUPuVzvwNZV3gdpEtcEaZ67m67NqUH2k
7lQqXXM6TICRMOrzhj4y9cuOrWjG3zJ699KuwzkPkZg4ugT0hlAg276dOZX1ibFY
neUOrxYGsM0ho52gAj68fkHfUZFmL3Le2wQIm1oNOYaiAEmA2wamU/Rux7v2tnM3
3Zf9j6AS++8M6UW6grEznUtX5wmE4q8BamxtK02kv7/LJYJRSFcBv99WPE6mHmSf
4LcSPZRjU/486rZN/u7n1dQfbbaJMBNxx0xnb+Ml5GeF5AdKFWuPBgxsBX75TxK1
QYAhciu0Tt6Uha8PTZ2GKRDljnMcIemBIaLK+WQh9v3/Fgh714hTNcuSzgJ8vW47
hefHQzKCIgVJdFWsYo773nNHzoEJbn7eUZ6NMDJ1HoEPPyBB0gxwre8NObvdqAdT
2uI6m5JP619jruEbAB60hD1oUT1yjQjcjX+Lc/pdJTaDDKKCPaHL8gVKDV7bJOdv
VS/uVc8EFeewGERFtwN7PNHMcJN6D4qWzh0xU7w2SCf+mp7t2mQtX5/kWIWxhZ2Y
ehE+834hoc1/fm7mV9md2blxo2IUG8fW7df1jr8YACrph6IP4vphTS8xvkE05z4P
ziYkpDkV2j0kMlFFgvSG/BTCdRetLjm+V3XUkHM1ZJNsqQ1LvFsA5geaCqBb4TXq
za6hghc+QoF9YE0r5cVDFOncGrVXSCa0DoODqw3pLUIBUPiyc7jLf1pT0DR+aH8L
IOHU+kxPPyClYnakAJEDXSYCIq0MbcnUFYotCEPwbahSscWlgl9wx3eaP0IQa0rO
gSvRornXWwH9MVtAqkx9RPk/84iY0eEJq0jmW/AF/tf9XMnOJfjJUQjTT5Wwvj1W
5uaVKjAAVopsT9TyhqEgq41UoN5QpGx+FTbLnEsLAXuPnZrn5/2upwlbUAXLXZNn
46ZpU9k/G/sy/AeGuW3YImo1hXnt50hlVJVQCjsDQmANqxh2TADTj8/H9OWjzdDX
sp/PvZq1x0JhrZTPvcyhc2LAFYXJbjnVJrjGA/HeTv2EfFF6u92b4IhkP1CqQ1sj
qU/1sCxl6byb02n8hv6hVUAZONgQIWs/3qKSXkvOVuuL3EcQedezLcAgui+rKzSR
saGsxTSvMHUSx1eiYNPKQWuwqXPNKXOmy8gxutgOnL7LggQ+3Ey0SxHV5QfcN7e1
zNRxZFhRmnXTqa22vFJin9UWvdQbIxAcBgfqgYJEcxsTtZtK1WU1tsnkjGQ+IlId
H+H7heTxzBxvKGl3ZVlmSoNVTDhSKkuDSoUVU7Yurh5Y81O0eejDESP8s+s/Pc5m
XTEneNBX4aFKa28kp6x4PbYeq916IP74eFU9lxkXhXjyyGLlm6digg4BlgpzAiv6
VAf4JDdNpVZq8Ek1L/0LJFzbf6h51FmJqycmETD/XSbdK/C508TqdDLIps5adj9p
0A1D/XZBo1SKWwYEJduEp7qlCxJT7c/mxg+g/fJqmKlDjYgailxYZuzPwiPILNNj
a7nlse0VOkEYzWoRL0qqLb3YM4YJkVFaqKB/yP2ptBxrP8Jb1aMQTU6G0t34saPK
J4e/7tmZLuqgV5MYMOphFvU24yXXh/Z+RdTsSNguT2BSMwDdTQAKknPU8YUWTBLd
GGA9h30+9IOdgkVcGVYT9oxeV9mlvjuhvVw6c0X62sSltpmdESphd0tdez4eKvaT
Vhj8YeC8RIqw8SPWLQVTXSulBhDh3NkbPjbhc79zfku/s8L9rNeEWr88lF3D4RVA
+9bJ69ARZqd+bDAGJ8Su4qOP7rtcAv0vsQEayUdxkcZlC7/fWJiDSA0W559Efdwc
jTTirHz2h9U3NfA6AoS0MPKXaUGPDzeKSBrDlBbYL+BuRnuTA2S7M+5fGKusQ8AL
4//RV0entLdp84fErGKfbbkziyxyo7IPlqj7Y0y0e3bZrcC5zqYPFo+iYG+hOhS8
WqCbHrG1LxMA0mKl4gThqgsv8oble6BpEdKm43uT5gHWn2RXiSzfSAW06zMsf8if
V8LYHEKim3F9+VpV5e9HJYQs85J68KAuZTpJsQyMkVTPut51jgs474sIInF9FNre
pu9aAUDZjbvrtEyNVaXVYmOI3Xmo/QDFSAvkaI78i8XdCUQj10IVWjySpPMy8/qa
nGQBiw+fSPJxJERr4vQWQjb3o4IkvC7rAMwXXzknzHFRkzJNVzfuvWNh9le1ekOz
2vP96A6R8o4llexlGyoplAkHRX42X2Ibp+kc9ZzuKzUCgVUZ6DEsOzExXdtqY9mh
I4DKI3GiJjfI2TZqUFGr/q2ABcReyJbsQP3O2+JoWl0BeTO/ccflMbZNOu45o7hI
7ytJBLdfPYvYuKpaXGbzHYN1pcc7LrL2WVc1hjWHF/sHX/ywzSPKxIktdCW0AU/b
eZmGIfXIprHGJmB0A1vbNV3wigTjKABUzAprc0XqESCRHzMebQlnhgfjRqWp4dU6
aFq12XsZn33JZGfiLMsGPqRrUmiZKnbyqmFTDC7Al6anGCFDoPFvQhzkNpgP9PZ0
QZDyzWC8V4Hr8Hr4Cw1jsrMwLfaYtu79UlpDwLgXhYANNjFt6V41XKxDVWbgDBsc
nqdYU/locuLegkJFivmsBQ8De9X6i5Gvi4eNip4Az2g+W7xyoMTNjbV8ApTE2JUY
GrEO4hSmSoXWq0TXH/09UEVFrt5IJJp8f9WWdKQ5jBR92zJSFfMW+tvx3cZQT+Hv
UWeMShcjMgBz0UdNqlXNwi6PtddXh+NFMxDmn5fMdFjX7pUC2G9sdKAzoDKOgxgQ
16SE0Vn5K8+ogKpCvKmTu3DfD2nHVqa+t1HFL5iGXF6hoRcCC5sSN0Kmho1AbD+T
dbNWd6NFR/z9VC9SprivfT2m1yHndchza7CrEUKjKUj4m+bH80KHhQotYvXNrDih
+vDkoZZvIWofk9Eh5Hx0RgGAqRcdKc9RoPejA3ogcaPlCFUkLIBUlrvvpzxnmeNs
k7dLuYKy9T8+zLHQslHoZ2c+Ks7+XLUtPc+/v06C127Wz8Z5qOMqL+4vw+SYidXw
C31jCmFhoxQ+vWAQIWmXI+71ktzjkyE7unAalPJkEr9MWsJgNHVRTxkQ5nbsADVd
5m7wE7PJrKtLuDQl9AN781vT4n3TPAUm6A5tdpDbANiRn/JgzpqCr93qewNdei3n
kIkvh/axSBsGwXgEAc7FYjDF4d2Cf66eXwsbD6wniZWepGYiCbhAGcRYTeeRyu8O
1tAy1vc2zWtpJ7osQWYWPajYVI7Szy2AtCDGK2MRcaa5VwwP+Sj3zEv3lc8wG0Pz
tkWeQgE9FJXeH0ACZbQ3ZDmGdTWPC6ai0mt1dZIhha+hBcgSY9NYmAPU+3nVHkNg
MsUTOZHl7qKwb1WwwDY5A3V/5fSTq1yiVN73ULvFgE1UKfR9f/mhf3QgCy1chnp2
L4W2hizwT00NavrJ3meIE38r7ojqZMfzUbyMJszNxLQsu9i+gNVfbZyHwJ2ICosc
j6Caw59v9g0+p2wfwZyCAx6SKroIklTaMelXINu0lVajO6Fihw4KxCHaunhN5f5Z
/msWT2ZcydAqeRvYJN6gGCJexC4GkKwwr2DkZCGpFHWlWZHGk0zO1WqMtlCwPi80
jy3F9crgcJRw4q/OtMSwda7i3xkksoouFDtFEqf7isCAJHiReniOnp9IAaun791p
1AryXvw4DD7MlHORwF/LrrPGs6HuAibmGIiWgToo/TskfwFgMRluK4ab+sKI3c+o
lBPYlzZO5gnjv33emyG/SZ4Hu9nBWgXvopdEWmCSkOZl/CKWZxhbnqluv+FgB53+
XsQPOV5KLk7v4DsOvPSq/IEGthphJ7ZRAlW9I7qkxVTDRjt8eugpdhEJz/CtrWs1
Rahv5J4y9Q2Q3UoP56yc1d74b9enMJuhdF6bIuj1qNy3g37bMPiBo9L5izGpOJlm
QIXJWV671CInZU2v0ioT7fUh1u3S192+UIk/+dq99m8zr6gC2STMSK/JHcfifc+c
AntOlklPSgXHEmE6ybp7ma2k5uoFMQfrpcHvQmfmLNoEH66aRAY+OctPSOdn5dnL
fmZSgvXm6ay8yrT7UwnZXafEruTmRAQgH36S58CQHSiKiJiq18ZrVHn+t8+PG/cZ
npDUbjiWjW2YcpFS10P3KE4bdRz5eKvNZ96wifDGTJGu41TnsOqRGOfMwnZ9T666
F7lg7MhTVtjbvNLgAx6/5/l4ZvP/jSBv9lDiVjUQINHl0oJj8ohW+eSX3wyqcYwI
gqcbzZswJLP5Bzxf2SqfxnQ4Cki32DtVewgXkQ9h+WbEvRGbn05tQ/l3OxrFrNH1
r8E7c/atlOQnP6Ojy3SbdhbEQAzytl2ruPkdlYtacAr3yqKX0jLbgNBUB3Il81F7
7v/R0xSULm8JXDKJvUt4mSJUUFCTmHUBu8ixQlggqfSi8J45CCGJeYKMJIHUDozB
8pAvcwRgxWaL71GmPexjW4aall0mqaYYB3LH2sAj9xtpVY4JQiETkTLmDMGb/SmQ
40UlssX110o7D0awVewS37xrXcFizJMkJSlBOsftHMFiLM3Ws+KdIbpbhZnRXBQ/
fcivmOhx7mBSBn8DCFcxFKekRwy3G26W0hkGcQi0CGVuhqqeKZ3aemFlCp2mOc0a
iJ/VS0oueZZp1yTCVrnNfui/x2nCvQem5a5CoNPz/Py8ld3owHM9ptosmR1/rPFi
KB+/SUq3gmxgbRsQY3AZNEm/08EIkCfbTcApJCEMiiuTZizR96jykCuCy7dRLR3H
O3kA7hbqL4peqOqbG+sI80oTzpt3V2Un/Cpee9uCCw87EI5LzIZxIUEJlrJcHKeH
HjRUk2Yv+81EpQ4VutLwOh+3bcVmC/Uv9JGXdF68IeVy17JEQWPi8sb4ImLOOQgg
f7tfm6vgKIoPRpH0nCacYPwSNaDPHF2nVgD5tC85/0I5vyOkah92l0wdLL8rsJMe
V/c4Imdgc//pI7ESnGL8A3lC8U/hsRBbQ7qKLI8KmN4ypudYqqm+LnHmUD4mE0cZ
vvGE5QMu684MmDaOfb8MAP+BbHdZuWr6oj4jJ8615TXXCYwTHEW4d5YOex7gLZXk
DFSQZ+I4i92UIKuNrHjlbrSl8aCApoAnkUBO3adtfQChzY+vX5YwxnDaJJtZkGyJ
RbVqCKe4efUhB4g3+w2W8HsR/ymjP8HS8lNodycfxkKrwORAkTuz94QEA+t5thMw
Abrf5HTO95q+umE+Fc6SZ/YB9w8qvDBQikenOIGwGjQRRhM+++CNDs5ID766XvEr
ODDGPDZeDhG6vOk8M66yHJpouuee15lhJ/DllPe2Cx2lXF48Mr4w3C6FE8qPFOgb
hBFkjrMm7ZNDli0bjbMN/bmEIcayPanfHPTLWWV3ZJco7gGIdrqhhor3FOZLpioK
WqzqMf4MJk3j8onyNdpy77rGZ859vN//gjPdkGr8qv6tgGrnXOW8FUHKE/1KNTTN
4JY09OV5VS1g2IrlY52NWHeNpASdR09Krf3/SAhSz/+EYUvafrOlvHjJQIoOqzvR
JYkY0tJLP7gDiK6wmaEc0Li5OoMMDjASNcl8yRWsZCigXe/eXK09Fb2w1q8hHiwe
IQR6DPlVhRjr6HlGi1qooiZ4cfiw6FS1cEnM9MFimKqJBbDlS9Ch9RnegWcnHI4a
2idptZLEZ48sLRNBJJOzRwLei+NS3h4epNX+0uuSy2G062IZ3cux9VLmrN6EZWoi
LmWQ8gQntdZGIqBx8feruOoYkucla1Pu512Re0oxIsoPjeafNsp0G1LXAxFnKnPZ
t5+YGvnzX7xOcDB8xpS+XTMzThqjktUgBfd1ZxHFdHNw9KouEoDuuulT96VrzPak
dTaZJFb5xFhoSSX881hVTkgqMTw5NGIdrFICfr86ETN9DJnioKQPHeWFR5axMqzh
0F6vqKa8v6riEkwSauV6zL5obywnsXGkddB0SfGcga++6xHt1fS/JpgBlZJUYHrw
vpmXzL2NkxHruSGmZuEBoUK7NGSip2b6mzETLzxh18RF7pmMUlZenx+7VniuXPUC
wEDUZBEF6ZegAyXimlncNd9+Zs8lpPgXnqtkAEGvShDb9n+lH45nRzlMkCyOA5jD
b5Xg5Jf7/j39fbK8Ie2SAJVwJK8FNl2rOy24AIo185c4g7P7sUpigJ31tgCBeqQi
cb6bLBc42ffbwTLGDw6+kdv4M29cPX4Wfymj9yqnjeQDiW8f00uDFjcND5xU+aHX
8UbFsyfQBRlAzxT/0WPY80L2vHVN646miAcWdsFNRfc2oByfxjm7fOrlfY7j6yjW
6tbpT4WdRecHvge+vaFVe6tcs5gTwyeu7QpntFj0b4b5LP1hbK+E18UBBY0TP3L5
WOLijalLJGpsMuW9I4t34PQck3Mf/RimkosWe8ArSz1oPGdpZ4iFCKoAm4Ar9+eE
3U1Y6H7y2snWdwaEysQ+koFm7ph2EgU+OEjxSo6xBnd/2QxB/XVZV1WDZqVCW2zt
NJNSSzhatZeMVgSTiPCzd7J+NcsFMar/qlzFnOYMCPyUVXzQ9iLgg//apSndjvOg
dQ55ZpyIvaFIKLypJMokLyJKZiCQGZY91Q5JF295oBkM6crB8JEkEgcWR1JWdOQO
S6ZTGsJ1IN5V2rnaXPTs8qBFhcNpbR9UQn98uYmMP+SKAPRQ0Q9cHL3GlZxy/QUn
g8RtDamVj1T38pPhitvQBAxH8cCaEGRzBeoEgzbOAZw+9aJ4wvrFEzZtgAOdXCJF
RAZ9XRO1SU3okO4Ux7S7Or67/VD06EuDZBh2HOTvEUJv/ieM3TvNrna1ihIMUtVI
pb7W9VyQ7tfUmiqSIrWzY0SMbZv4jiY3Hr6uevEMA+mgeNfubKVs0GJwhdyFlMlp
gi3Ji6bUjShr32fQLJL7s2e3sb7qqTIGwauekz7YJtGGZPG1mHNVqXyV/LzO9se3
kjQJ7FugPIMzRJ7B7DUzA2syNb2pzUV7Pq3v534xfzrBozaFvpFsH14KGp+jGX+P
Y0tH3/4WeqFW9dQFt4XgmWFESW+uKhYEzfhc4CZJujtCR4olRELEh8iBDusQw6zE
fTFGAEsm7G1lcHZKJ7/F+gQWcQC9U0zlqCU2O1wgVFuSvp233+JtH5kbnoeIk8yb
oG7YRXvNfDBpNO6ILOmYRCJBrsXy5n5CZBtrHvLt66RtDHZwcN5catCku09JEA5Z
iY1YpwmUysmW9y0XXJXD9/oT08WSniLhwMBxspzqn74+cUdcyoMfssgwEjfakkAK
uOhW/hprX4ILQtqaP01TLWco49tk6xElgqTcUTeEGMmW5owrX+B3QbPnKdeKmf9f
V2NGATnOW9+u6DxyyyLXt8gOKqr0rHv2GDAMItnLtlWKQ50c6NhnRkEYnZIMMWFn
lGmLE4dswnlM+MhpyiRnD0sTvabXjmZ3UJvqxsHtExejsm86+IIeDVkm0EUK+qtC
JZGKyITag//lorlNFR6gRmKI+hzLXw1GsnqO5SCvSPSGfZsPbl58vj18Ljtz1zq/
X+rl3SYN/oT/VQamLa+JzaeG0GBb+ItjQdNOo8k936Bn90M5+GHUlvK9ivLV6uJA
F07aZJdmXwqDXjgdPtMFERBYEcL9ZM+2eFoCkpYrk+TbEnw2XK65TstjCg5/1sqX
hEqBvDBhgaG1Ja/FAjjGqovLdRyiL9O1ShcwmrSxuBFc42mlqRpGW/akmhTUZk1F
5W7OBfX6pHe4E+morYyRjbBgJlCMjtZ8IzufAFLnUoiUelyAA/HtT5MOz0KWCUj2
R0GWGlkyeFuB5W18kOazOIEzeJeJvyCSwxNlabyb77mPOF4U/gs2h3gqQ4Ymhy5+
iEIgx2sw7zQm8yBXtLu70VsDbgxgr2n95xqd90PGCtqweIMeiHmksd9j4x6pAbxC
F3GEXGUnAUTP+Wb0EDlXXY7ICjZG9VLlXkmA/IK7T7aflNGGBSLylkHjfFn1ukKH
ZgAWTC9CfZEeu7W8KehisXL8xxBJJHkcl8FYxPO+c+NBdUowJDIZyywuPiwlkUL5
n+MVInI3hxrSDV2HD/pkc8d1MDoIO2TIy3K7wQuT+v8peuCDrq5yDkFifpg+cRzh
mt+q4ppQJJMQXyO35z+k2mc0sKPE/H7yTFIz/AaiOpGU652ZHeX3bs4b0ChJKpYg
fFKWMUWYRiOMm4vve3bFPgoqE2F+LqQcv/1AHxbLz7YGsPs2VnflFt2AaI/peR04
ieO/14revcF5ESVtb9tCpseJNlLdYe5MjSR0x6l9KwYB9jG2dEp+f1s9VZGGZ1G3
5LKIFyhlmkrFXzqv7CL9SacoyVv7LN0mmJ7/LPapiPGNsUCHUOxyBI7MWx3oGtWP
Jv23kki5+8iOgD0e80Q8u7GZ4K3rXXRXGkWc1FbWONGjDPHHXNYNvdaOdySsDsbZ
pXuzUBXwbRVWEu3+uBsxvcmbBj+E8Fin9zLDaRzm9vXZqiyGYgC5gymnUOz3UQa5
dFQ5t2dC87EdrGTFnpUi29Kq7ekPIGB3VnHmM4R86kv261nwR05sW6fPOy1GeGPG
9k9D9m625p7LJU2bAVA6r/XHxVqceePk+GrWzN693mH1iyTQ2srLP13kBu2ajdsV
VJVcw7ICjceECRTvp5DpaNz4EX7VBgvntYZCILUgoK8qHo2MPQgwgFn1kIMIf3hM
SKFp8oSoa73rbItxOuQ7a8TiC4Ban2u0lVirPr1+A99tdApsF5BLM+M+eVNKegWK
aMMkvW9b7FvWnobWikPmk8sH3Yjd9k8B//C5maNalPciWHjYEiyr2DF2CoKjwlfn
TvlyOZxm1AXU+p8waC/zN39ImwfMhc2N0ZXzxypNpbfYTTUCE34h4MYAX0E3sVSn
3XtoLY/0KF4VTP1RKLG5eWkvH8NDY4XQGRLPDAR3I9b+8jylrxpqjVleF6SnlwXj
ycnMXyA9ymqhEfBwzV1DtL7agyY2cadNyNFzBA9KCDTcelA0+D1X4HaBToC4/4V0
br8sEv28MPdKMFqhOQLTlaZREAEmvD3kdUOr92TaqHyeeZ0zYwYlrO6w+SIT6spY
IfTqMlZJTyKUvWOhYWEhWNl+HxuNCGR7JQsfKBbs7geQ1ncZqb7oNPFtuTmHZrNQ
98VDSdYZz22Db/L6Eixvbnw1WNnzs8dI/wxKcZ64rU+nTpZRtXmVA/4b6YrZOmnD
bRKG2gUBCJK988eVBrAx+1OdnMqzsk0m959ZDYU2cqkZejBf6ltU7qkz/IUVZDCi
WJNn4GnsCFSlN0R3iKSjXFTtd8GNbHDyphr2PmfCsY5sWdZHBVjkXyUBhbToQY3E
oNMQ39lrtAfdsCiDKBLE++cStebT4jVBWkssQT9wV8s1y2dShKIkfufZGpMhzjG5
PoKEtIgAAdiWNxmAnsND+DjAhAFktrxvS/1gulPKsL71GG1pY4phJ4FHRyWhyfAE
GUWcMuxLSKc//J90s0OL1yQOHohcDsjgKeAbBoE4ecUFRMYSJKbqAufdqoKikw7e
77oywHep94UfnZQHBA3gc6f8Xb/tO+XPAIK7P6XXMwtTXJzl0jkfkQB5bTvxf7dU
No8nNKRurvLzupKaMlhipmu/sgyNVfKKUTeHSVh+ZEsJ2mg09s3PljZTKI1zz8iV
6MJV6BB36mjGC0Lu0k+s8/DcLxRoGzqOfA0D6aAmEtt9PZeUhW3gaTEeSb7Euu3W
2ozKr52/RiWDEGOS//VJTFAOX86UFAo36FApAtVpj6rLfStSSr0hoZ/Db5jTJKCo
5XB3pwKvt/d2SdLktlF/gPy0VBYXTcKu1IPGLOr7fMbQl5BFpMBNpZp+roKqAJKv
9PAL3YTWpPia2il0iJLMwVTDKEE8bvUbubrTmdqE2DgGV0kDy68JfC8PbLqu1hzx
bHGsfnw6Ilixc9O2lqyTQYiF370mRu9MpFnc/cctkpwVdXHX9VpaCZ9xCUZ06YAY
DBK2hMLbS8viL3wOm1SJbnjVk3HGeQCiGLEhuB2Vw8afN+CPJju0Ji7YPEBdpdcT
bDH8sPeYH63ePLTYcJxEHNo09bclOFu9Gpml2MxFWkaUh+XtRL1+pXpM3/NW65Qi
fdGA4Ev1wl437uLZrmdL8gV4zivINkflyswLVrTs6AJPydUjQVgo524dwZDSvMcg
eaPfVXvg3Is7r87eZRE3xsTT4QTCPzQHJ7M3OMd6RNtfooeIKtVUzT1dqspAh0Yd
2EEO/P0P52Rq7SEJy6WRoZR5ocsSV8BRiSMibfg/pzAm93kYra8LY0CtVDAe+ktQ
ZPuRNQ3cLG7Il3gmLi3zcrj2G2WT49nXh6j9dFbw5UmfBrkGvKVplid2EBNicioN
L8ZJX+osLj1yWZ4DlcbhKZWIzmV2CBU3jBHcHMibnMCVlbIwUkO2wPFnskjfbLZ/
Y6GCevRS/JdDyUvkIuf+zjLmWO20l2cfiAu71nMSmED0JNWHVcUgKCHVvPQDj+gD
D0uF6jFtyqU8IrIap4tAQnsY1KX+tPpyOzRRLttOdX4AwYywWsBx91QKDIfBPlpJ
3TMvBwzDzT3zD2FHH1kv8xzqucDaH71qd7uSK/RDO8rohbdZ/vrEu9j4g6igOfOe
8LdGkXkypm1WLT7jPimASD7XWNIYnpNcNlBZHEJtweJVxPkkIgVe/u91mwgS/1sm
RRCGLAUXENQXdWk9zSHUIblnH3NPsacBb8CY1ty4fHBJY77+S3GguPs8Z++fC5dB
iApIZd7aKLI0E/nL7mG3q2p3nAeghYrUk3wq6ASxBIkBHS+xk2S/6e8kLezPHjSG
GOIBD4U7GlvR1OgmH7sa9ff0Vxr7Qqj3rGAyb9buW3zMyHDQNn22M5dsEOax3M2Y
afhbdELbUx/RpiSpL4H9Ix2AonvC7bC484Zli1w6Wy/lJD80P8o72SgoF+RspX3e
Qq18pWdFtoCcmypvCqzhBZ1RaiRY/ubNLRgtrZ4G8aUrwjrlXpht1W0XTU37l4Wh
JwBXoqb7n1O/HyvS0QMwU+8GWEVwRrgQDI/Y3sTB2mTICoYNK7B1JLoDF8hKdgzh
dngOWOU3xTkBIq43sHCFq4wT1BbowXJvTaojeGTyGsA979Tbzag35WGFPR3YCehx
IeJTuDmvBRK8CQNjJIXaRjNcwA0vHVM0ychs/YpURZe9Av1zuiXxUCpo3RFg6gTz
rbYCIZQzXw1oJzm7q3SAytUsZ79T7049SiwXKDW/KEvwPJpwWHOra+lTrNx+uuqI
Si01Xct7olVEzMF66r1apqc/HkfRcIDldMu8fACEnunpRuRoIbeUmQJ3PqaK+aMW
oUG1rHxTja5kGGoQ/mHqo2lSJCl0/Zcb9XVCaUBwCCeO7JBPp9u422wSIl58AVcT
q5AQDCK+NV5MUTchROdJyfJ4YWBHLHD++6Wyx8k8oL95FGtAtG27qTJ4ll2jTepm
WOmWp97vNvl9zTqXxDXoo3JndTWaiPKcpep2g9bPq3foSYckAVgtx2EX8xA1d2HO
01GulyJI28t2OuMl1odJi0vd+E+idOqFHFldLQ5tfUW6YsIGNoUr3vesmrZRNhtp
ZW9QJyBcnwrFacMF6eGo4mOjqlchSGKy3jY8E0fkYO2gi5edIG236DEgZ4Ran8rZ
d6cPu1tQegsw6xAuU3eqZA6/Bu4OpemAjkBsG5cyGmcYpdcUj/vzdQaYKo/1JqKr
m/Q/7oenaYhG6uJxMnO5aTiV8x+L9/vAdwG5eBxFWzGo37VQfWd8mBzqc4msAz7F
yGyH1HKo3OHnHzm5SOf3J3G5KPFYapICTM1m92Po2H2uKpwP8VCS0xPYM9XHU//L
KQ7VZ5CZ5pbJrBGA/H/VWuVz5TTFmW960vNKMEkACGS+dqIkYZhD4hOzNaOsCBrm
wBvJVQ2mH1CMu1IuQlMhySMYPVC4bPiRC8LXtIL5B03rcbYyf+eCtB361+bSNXMs
QOAhcS4pfnEbZHENXMVJERYkwVWaW+cU2oybbEBo46AF7sU6HRdV4qzyJ5zAE/3K
W5zDCGICvs1jSHc/nZi19mSRRyVJFlLW/jJpliZnBJpwApRfZbS3njqVqpI2NejY
AlqgWJJzXoVe3lvXm/nGxiU+Rs+7LSZD/Whq7dehiMOFjn6wMYe+1JiEdVjEHnyi
Kdt8iKCYVYWANMn9se3ZhoIIBj5M71T/k5LazgvGasav6S1gQdkpdz0IE0brZjAs
6YoOiU7DoWL4vlu7c3lXNx1/j4FnqZXNWmQc4tSFVZq/1zu0jts/GWg/oyieJseH
BVvHs4dpH3d7/668AQrQXxD7+FXM2BYaAJ40hotnn2+juGtgaYzEkk5DjH6E3k9Q
BPD3vZ1rcedKsuduONFzyTGhdwGIksHPQry1bfNBi9Nf9vb//5ztCWbZqIhT1Coh
o27OWYPPlASrhs06RJdxleJh2Dq8QWAnvCXP0Jv7gOJq8NRt7c8XHWjvfJbIq/LI
z0LgdmwW4HDv6mfx4ADeHonZuOxorwb2E+bDPYDv6FwM4ZiwHHJn2duXh51XthrK
clQvkCPBWF42ap7oF5/rn5dr6HtzXxQ+Kq+65lCljwqEqUveM8pr8Op15LLgFN2a
kaWW/T3IIOVGhlI5myqiZPl74c2gJqKiqbYFHRV6iyKgK16/o73pqcWIMP2tLjNa
0cWkC5adjJtE2sUMEBNGjynDirb4pAAMmvQCF7X+vKi0iQYCcVW6++HBxxq6CEYz
NRehpZsPI6VkkTLxtyp/9w3KhKSRb2g5DH8vl7VVf2jZKr/fdZOCJBjuJO6FxCU9
CXkwBvmdDk2vXuxjhgiqN3qNdVmhbPBhSC+ESWZ2PiC6l6oNpW2b+5xTryTPidH3
bC8gtUVGnpe8va3+Jku7//u1GXhwRnRmIHkL29DODwcwNpZWwsiPO2k2jhECrmfr
I+Wrp/JvnojMiz4izLCmqF0adUVvH6ZEnRmJaj0SJGHK/bVZU+n5wI6Z/WdVeA24
rbs7b8tZvaafcCj2+h6zpwst1gxXq58PQLNFlHo/C5hcicQdC3SVLYmEBFleyZfl
imkT/iXRPcT7ww0gJ4WM7oV65BxmbadWYwuPXGEVOh7O4ArfPm3yN/jBMGDjryfJ
UuiPuxU8fZxDRGdfBzKtV5pMClLeyYg9dP9JyB+5nCczw1qevVmlsDZCui2WgYbO
reF/KoPJ8+icxlcvFsObxSXXLEs0ClT/KFy45BSPLmeWbdTpbb91hhQ6fitGeYQl
v1bmV4WcOb+10cMhOaMiZ3f6AXuHDwjXnd6AQui2CUnh3kApVrhqkXaPyDO1TXiL
eDLeEeh4ulWFG2D4B3C+KKBVFE7w3WCzTbT46+l9wJkcuB8VroSRUwMESwrjMQHj
vPSu3ERAd1RbUw/Gmft4ckKwd3DuXPAt+FJfV6Nieb5RWstQiW9CV4gOX4+VH8UW
aV0PxzCV4o3uJRjhlrjLkhkfe1hXDqpl2lqc0h/Bf+pg5bDrOdHQ8K1JgPWqHgVV
J/EqVoN8TjfDTRWvipmesUMwyy5Aehik/r7kVLANM9o+pDVvgK8R30BWAVAo7Ozw
5IUP8ewYl9xXKQrxhthLNqMir1oXLCRj0vXhP8tcTnVwyMWpPWrptkx+XfuBSZfz
5SKkBnajQU5ticR11rSbslpMcpsVVxUWTcolmX4vfoSf/biZ21AHJtXo5NQic0wB
FteBEzrI1e5CJoMkv67GJE47lCedSzcYACKW7w7aUQfVx93ihMq94oSsBHssXoi7
ofLwEVZY5/q7hrBXVhdSQUfELs9F0CASSwqjRhYM0fM7SvE6V6eMZGDsO17vA+nS
3KQtPhCnrpaTIeK+Fxj9oAFGHZTCC4end6bdGDCmEz0ckpr1fW+7eWgDeYcM9EbA
NXQb4CfeT9v2M08JPS/kzJxg1Ts27Uh9WosEC97gokxp/84XGiVp22jk8s9j6Fww
HqhI6cfKrIFHGSh33mzxN9E/ywu56KKUr4SB3QXs/k9nLaYGIcmsqomuJA5JPJg/
eYRJwOEHTJ3YwCfaT6RgIjGRtHAZ67cv/4FTSuzDIlK2sxcobeUUHut3nIngVrsT
2v9GjeSDXPNghoCwiOHGgBe+H31IdhJFoufk7uU5D0Yjvv9gHpUMxYLL+uTwS8QH
JaPwcinFxrQKpssT0Iq/F2eY+S5tFzgGVm5+9/wkg4nGzwEPzCIY+bYUT8IkJ151
y3AUcVHU/29TxN35/K9Hy1KIPZElDVBdCu2mLvZ6TW7b2mLaPOura1ZwJuMfc1Me
NU6Alaf1/MZsr91/ovhD7JISWqtFvhnqau4qoudaUwcZ0FRZpwftu6mdhFjaaIMq
F7jqfzbM/iZEcKVEo5U76OnrznaWnjln049jY2Xmb3YR2EwX0h/ekso6tkDSY5ex
5WzuaMmJRKskPLDuyCQA0J/rniED6DNmznt+CHFVj6aeQmkrjzLkGzFQXPnTIcKJ
yib7PWYWQpVYznhvci/oCe+BjPeBl5YlVELkJcHvr2zNwJA4zFuym2amZfdgTZ7F
l8+3sUHsT2t8HLsNQQTrlgt++qhxn8h7mYqyQm6OEvC6FK8oZsoEESQpI75pu3Be
TF4cW6nNMgfHG/gvo5eDz8ylKCJdhTOM0VxYyE4vptdrio/huIK2dnATRJnHzpfJ
0hvuttuIY8W6mfUIXlnrc1qBIvt67IEXeySD3Y6rq6V0nSTqnKS1xeU+Q4XnlCcC
cVk43SNs/NguMwYRN5zR+d3suQiE5cE4m7JekhQYbLmpQiPpT3IDHShW7eExqwIH
vfJcjxxRT4DOYpU6shFVKz+wNbf9lVFk1i6uoEL+G62VIs+oyMwCSAFATZDPtCwU
a0CGlK6bJ1pej1TGjLfHDhc6IKF5hoxeRSmbw0YnhQVX/6mq5NIrvdgei03muF2x
fgxl+5YL1bclEDIKLT2dPSXqQfjnYTjBoQWWBBeml2/zYTct2nK6zXkWgshnyLkx
spRcRUmD0wd9d8w4ovfT74x3hnmqXbU7G3L2A0JEJdKtiCR22GW0B66ov8hlr4/X
hn7HY3XwiZwgX6GHVmctBccdSJyOnNosxt9HI7TJ1rYA3t5G1t4NiopGOdnBaeEs
C/BcPyOGUqIwpWNLHKTakJp4OaHnCGLA/7A7qFm9tf5vSWFaMqf1ZfLltm16rLkI
/zABdJFZVoTzvCIfIH9/lFEl6hbrxzKBawEFsEjLvm/qZq2Tw1w4O7btbE+gaxZu
0yqM/BrAqWnDfQia4R+Nr3R8djP6owSRf/SKj5bNVYAAf1OUy2hC7OZieAKyNCDq
w4VOo+oWCetCPb0MaSrr+xjL9l+w1o+kTc8k+IWPPBdh4wKG6CDKdKc9NXeHoTEk
Y6GcBdOPm1F9AluIMEnKCP/FGA77E2nHBSKt6G0rwB+qvwKSv6XS9V2hYsjv4BYF
xvM7F2QhlzSl1C/XSfzO/3ZHeGVbGUahqjbwQu/3CkTIk3YoDixpt2AF0RiSqdlJ
OB67C2IXwLY+q+r9BxH+0h8jk4Z/ugKhRxvPtIfZCDgy1ug5Wra1oUbXFSSDW0Cj
4VfqpCbnXX4+rPda3K6Es4xFFOBo1VkJ+f3u11eaAgimh8rGY8qsZB28LVEQ/97H
r/tTV1ErQDMp7LHGb20b+8zGLAOTUBPpoXP3kdbF5VRuDLEt1LapbzrxnckoAtCb
rIHccQJUuzDhmJsZOmRrAafAtIDeiAetWD24/3QTDYrB23mrU+fSrOm/UAOXmvB7
9cxQVWFqekkcgpQIyigqKD4R3Xs9OFqN2ybqeQqp7S835nhY5Ckt7C+HlJLVcuUh
od5tLAKstTGeHdjIHMC5JaxwsB/+L5C2vPuAItRtqMQcx0PBZSVZEM2OgvOF/arU
1mqGjJEgOenrA2LiiCanr52FgkPTf5C05tfLj1AJ0YeO9qMDRNWBj5oV5/AOz5/1
spvHxI43wc6k+51S5294hkTiNJUdDjtNoit3hLosHcTdJJ0y+pW6mxMs7b1fMO03
TmDjwTgPHJBfJ1CWR0j41uXv8N7Rf5Mz4DK9nhHVhocTnGNTyy0kBC4xe7YW2x69
vGXjsf3u2xYOXZtbr7Npe45Xrr+fFA39iyV1gCKTklmEGfPAQltDf/D4DDQNivs7
Cy1+8scYXeDjkxDk2tDo8bwDjkEeK3I1X/yXdolGgNCPIrAbiGTLATrmznIzNB5G
PNXhxAU8RJuUxqHglmtVT9+2hz6st8gBM88s2lhfuUMyucVbl5DGCQZlR8cw1JBc
uLWcABKzKIqdG5G+yuiSDHwapjC/XCNcczkwbPdyYeCEqiXaEuSYQblpa69KwNfx
RSbhnQoWhBOHBeh2U4UuO5W8O/aGE9nf/TsAjhbXOg4Kz6y/QcJli7QSbsBVoxCR
j7zlWPXfzspGiO1qnqQlyLMDkoN3RjmrSn9udaL9WmtMMhyqAm0rvhbgd7J+fFys
F4VaEVCZpHmdWDJTJ+15V963igIJJ8PFiB2mltQ7teBh7eHA/Np6AK7+w6G0ReQu
zYkl/vXN9LA9lFc2f5snbFsyOnOUfOHcCk3oClV99eHoYLo/Ov0BBmo0mv0tT1iD
E63d3H7GI3xl81cTSbbZte6SdOHsbEeQiJblWM4WReRraZ4xIqQOxMMawEm44Jmc
XBjXIlzXjJsNaV+g131Kreos6nMGBErEfZUU6x8HXAYmihHeLw8Ou2yh2Unb/Q3X
YTAbay5WRmG+0/QC/3yQc3wg8zhqhcCy26ia/ghQiXycw/5qgu8A5xOnrkz8AGDN
UxthvK2g+58Mk6RdFdNl2xvqwFqzPbG8uVmpKh8THR4pGNlzdq9lYecYtMBu/zOp
9i4i3pNDnV+lkRU1AFODhhO2QKQjnwQjWzqqQIIgUrmHecpuaZ/yga7o8oyx56cT
Z/cnPW4mteUJ1WHqH85VR6ZQrgnNBjdV1ukgk256OkCl5jwrOl7eP9F+/mtLhdu+
b5lK+v0A20tTMBP1/GS4HHF+fwXjx+Tx6Guzq5xmI3y7/VeOIz+9dO/Btn9viQnw
Tw3PfMnIg7LnHzv1p0YFTYCTYchGWZgxvjs0JM2eehVPZQsDpagdqUqu0IiKjFFx
yiiGrXNR869PrgeyOpev1XvXDHTOiiyc37VXr6X00XqcxHH46F46sJANwZajSsPD
vezD5Dkp0P98G72kQKyNrHapAtAecXkVDzOdVqJp5LT4MSHlPr0Bac/rmtnVWPRm
pBzBLqp+MbsimUPv2Pnahvh65vmgiTkqVjgxphuJuJLWRYGzOko20OFWXurCgy2y
HROHSwuB/9M5zetrD16B6ypz0ArrFe7QepKBNBwOeNVgiqNIwn8Jpf2QP18MWHae
zkfoV6eY2Ayjlwbj3oH+mAhAycJjWpigSq+RTRGmivhpZ7ZG8YRm6WvSyTfcSvXc
+DRjQzYGP4gtJbpP4bJ1bQNG2+QhuNK2VEEZk47Po+YQda8oA+LSa5Z3soI0HwV8
EdOzndAy/ENn+iQGYLjE66o0M3PY2gHsRUNuJ/NtaVUZtwSSEvTnhhnNvPj0TRGx
6eHWP3Mwq0aefMdq5bIPKfzDinNupSTQBrUTpN0RnsXFji/GYKZNKJ8Rec/8YN1F
fk0fJ32P04tDLvT93TnNjf+XSbwrkm1rEcfGlO4Q8/4XI6uVfL1LrOeAfuC8VFRi
GLRKLzVdoTYxQi3Z7NoS0CwXdPzSFydNGr7rBhNk8LhCdAmQJdWtQ9wZMqwvlD+5
go0OtEwsFw3IKETjOrRLSdnFgzqDJhcp2VqWmlRraqRpwDsNDOQC0xenkAoPWmjI
D+Ab94RknZjI9jJnJylPuATsfCCoHT+rQD2Opk/1iK8ylxWGkJh8pCqC3rE/Nmgy
dMB+yRPwpeSOfgGZZ2hzuSSOpyt837fkfoU7NfLydBbSCul0Wsd/TSjTjv/D4rkV
xMivY/14RiFSfc8Kb9DqZ0iYhWEzgJR2iRa4FUuWuJpI0KcnSxxUMFTkT1Da2bYc
XtAu1fxT4UMQblhGx8Mo6PRLn4yy6aM7pqfMnsGTyrjL6sShVWbEsE/FlIwMRi2w
xdLcYzt1agzlpS//HNGtfVcvpwfNAoVEFYyESxfp32N6FfBxp8zM05wdRoszDmnq
+NBEtguSoUQnyh7062Op1U9Xm8CXtKXiI6SpRashSAqeSKRhEB1KzpNJ+0uKhiCf
4K49Y2TpeP3VzDjiN4NoZ05ijmG/IwZnoVzyaglWRrk2E1Kd0rRZ7n6vyv3MZ2yv
eciYqDgV0BGP0HLG8qVVsfvbVE+34ZlZPEy+1Qe1wXh3lvPN/APdq4OXn/EjrlXC
ldf9lSExOF37c4RWcxbs3a9RHlmWxCJCrqvdeeh6LBNJaKUkN/KX6suDISKKI5xp
fs/N1DYM8iL7OCv4Y4A6W0pCPhXAgJqUtiZrn3QVkStw2JVnH6A/508w9h6dmdgL
vrdYDfK9cJTzEJ1+FnSelg3S6pGpKXY9q+zCH33HdYal6KosuOv1TRqCKvstUdOz
crEPZsqSZpHcm4KLdqTdv3GLJO7apz1zoXigkFOnbztjvzDhy+3q6tyYCzJ2oyTa
PIEY2wdiiIBijj37l0r6D/1dRV991tEz7z2+HRPLcvMv24lZlTGxDJJY0Itf9ZZk
IxGOnYECPtvavC6Tg6ld/sBJzPp9VXEKI9nf+9GsBzdbG3CWASjaiQ83aLmLIZ8M
rmHhI/pODqPeIuXsLP/FcUq6zpRtnuHrXj5t4em0eHHNfM3+dd5D2TbH+vcPOwYH
OnSEr3OY+83VL0LLVL6Wo9Bb97P27+lgmugm6IJ/5JvpJZm2LRNI8jx7kvv0phc2
Pckfr73nNngZazPZeYti5gvzQYCo1i4vmiKnwnL0NPRJkzU9op+eD/S3nHw+JqxM
S2B656hIuoadVyiBjQc4MhqhqtIX49Q3txmyISSdBKQBxAZnQoKCvt64J1hdLxL6
jmoMQ44XYnLAsUNA0aM9dDb+/QCJhlY1BWQsAub0pue1Q0TrtBRG6L2IQilvhCow
rmvvxB9n6XXRan34AQKmLIqD1hNNrHABZ/qcS1PLDbPp5D4qGYFrEMkxWmWikIU9
en1V4TR1GJRj/Y3kNJ+wFHLjYDLaPdQf+mjSHw+QRuIkly5Wz+GZFcTpOGC0GkBa
iOQtyCqKIUt4F6r/H9qXB5Ii8jgPiwD7QdyTrx5XtUXMkwzbliMtXQ374jpT8iOO
iYAAHit8PNbcT2K1gfEnQhNFh/V2DxGlGs9TUXe3qaBJO+HJ6GcAoSl9ufolgIuB
5tOhMYna64HDNGo5BiKBgZz0XLkw1z473Z8E/NkGKc9woX7yohE00Z+DtwbNsAzk
SDyPMNyGBBdNyUcw3Tx9s0wIf0vDJtF9DbpQb7/lIkN/wa57Wh2J0K57l99F9Pe3
6NnsNedvTkVkSlhaqWbe3s3Ep3dcVhI4SMLFhmhoWUYX9r8DPhmL0fBZy74HvuLI
O5lgSvFa8BUU/l9SFOZJ+R6DHpYlKADbdFs+Zco/fUBL8NcJbisxmxI/0Xjr9Eg1
3Wxpxbbf0mFvZViWKd+taFjiVvZSUPOYU8+oL1PlatJwRCNKxceRXDevHbalZ78K
/6HtARPptA1fe5+vt/JeYDABS3qshzZuXxa+F+KcK07TLo8GnsDv03SNX5Y+9cw3
nTLFEnrdZ5u7k6sBDoS90xClhaIiAid5TzGkaTd5dcJPDofGv+VE5xpGHEHWjl2t
L9F49L/sC7eW7fGx1yHiNG/TOODvzkphWK4bjp3PXsZx8PsSQrOXM/FOOQfVXlfU
sFvyUdFwv64tRzQQyyXx+W0tq0VF2xQy5bOW8Zr1w5u0A8ZtEsAz1+AYBvFLu8uI
93T2u6HQIKumD7Pt++ki/pjQapOcwduBS0JaVKKJsfoOmfpx3jQsCryurRRBneFx
c/T2ENpnqCp5MeH2CevRSEZZsUMdmllHfoT4qyZAAkj9oLhU+Rf5nIdRxzJHqza4
dLSSQWyNR6upv2kNNlXj0YPQCcq7I2gVRsoJ6/6k7wtxj0Adp0L1rBT6nMjfYEx6
lq3BtqpIRhEW7I3CFwtAdxPEKp+TL/ceN/7ls1gS5Srap1L5JK5iBB79+Is0x4jP
DUu+76Up4yt2IBtgMcrDNmbfHpKafbLAYtqh0rlh5BaMoMVDUmwBEI4D3bkMtJaM
rZ8Eq1ZdbqwSj0JEUEzjtDYkmtB5hdkjru3/qePYqvw6YirxW037sf0rZeH0mb1w
CiIWL5QhPkIXRL1MglMhYC/5H7P4ZYfdSWx20m/H2vJRuxZM22IbnTNZ+bfOe3RT
HHckXcHNjng+YsMSYD0QFe98K7NMmdOOwJAn+fr7kileJQevUij8+ZwwDa78J9Dz
zKvTt03GZJuFMUg/bBkyVtPKn1HNvsCNeGf/RU9e6PSyWizLumqGhE9EIA79qcsq
fdhbEswl/+HARKztJGXY6MDZIHMRKi/QDQBSF15Elyzr3KKsqClrtCQaQ2460T+U
5ViSn7CxqxNM8j35E8/zfvheqr6WuiMg6nHAD8OJKPLc6xZx8oV3QVaJQah/B1Ht
qdd0vcxCg9SlpbMVyy1w3AZysu0koxM+w5xSrzFQuEO+Dk2rDxVBqUfkWerCMeIx
HChqCQKrdE7BLMnQO4GHbKTGisFzguJwDCT/Zg6D9xvI+++l5gEvA0E2tbB9PuwF
huUlM0+x5S3bgcSa3F91TT4/1XbwpTQ23YdBh6g/C1mlkPoo4w+fbU5JXhktVLy3
fQPrlJyXCeaHeEan2mHB5/HgkrwpJCKPLOW/TkYilpHQfE1dci2T2Euymlfqowtg
mzhp4tb/Mjrb1xzquZNEO/8x6WOOi+gL0sJG/HhM93/27onI5/Kq4SnUq1vnGmPP
gQSxY4iT7HDRU0L+BIARfgO/qysIoEmS2SvnjgpNscK4Jdc9WH3SMa6qtE4zjl+3
n0ijMHrd+LXbisjABXWda2l8pQYJ6RTeNjAYX6DG8cMQwunY1KUY5r19x1u90DY4
Q1zVVc+5sBTavhopuc99wQi7Xlr7FVrXmYvxCQh52oLJjsEbHqbYm6pEUweelfxK
yslwbdf/XvRH37iGcRcXY77+tp9E8yJ8dlizRssTrmjOXvWP617DnqIupgPTWTsQ
OXh2rD4hlxruYtC5bRtAtEX8yuODuEp26pZTo0fcs6P4utZ+eCyaLE5KjTFzOAwd
0/tq0j5JxfnWmvCfK3g32qFELyZN1/BP1tVpzNJx3uH5jDVL+rsbzjzLp9l4Md44
KNWEFWdT5zFwmiycGDjVClE+H9CRBEtZZlgXPZUSnZwkv4AMJh5Euq4l3ZaY/wDf
jJd1iOgnKC80h9zEwbc0LK12g350ZqjXBU3E3MGiszICTj1Crb4CBKJYQeSZ7qEC
ePaahB5SG0XCxLUOBpJ5b3EJT/6lf+fzHOtpgJpOdL8ON5CV9BnN1pcOrzE7ZIHJ
9iXL8l4JfBz94s3ROxrrySE3L1tAev7JNstSQ6lLSqFcdZK7SGC30KXUB1EE9wg9
ck8SzRQprBLHkk+cVNYXE/8n3LC4pE1UACe2wx9XRFmpjrovpg1FrBjGUPR6riEI
9w9poHmeu4ASHvqwu6B061v+Sns1nUI1RuXyYnPrzwfFhabM+EFJT9zOetVgpjH/
QXDv11rT7PoJEGaAIaFgUTIA/xpIrDgZqHMyqJC8EgFt9WdZcSUPnzNAM9n9KAYo
2dLwzGv4mlQy8fq6hCECYKuEKVR8QIIPQ8cfZOsWovAF4dBiW6KLlfHgoA8GHyyf
GdRuvQIJkVMkV3oNmvnuq9u2eJUoB1OdWAGROQmb9FeO8PG4ryFLIcH9V8pHLjOx
w9AtphclR6sDLpMlgQuOOkYxzN3AQ2vuwM8l555csrS6gUwEsH224WDV9dbJXJE5
JByI8XcPmiV14NMhu4WVeXcy4F+0HPOX4FGcemjEGvu/yL9wQnBXZQcaIIqXJQvU
PAX+u3dcCYxFYc7oAFUsSf+8CIWsrsVIBycSWEWeiNjLAoAMs9B61UZ951cMwftZ
LvY61dtI3gDa+9VKs+5yyn+UEcytgq5ON2Pln4iGwgfZEqKIQ6s13UW5H/JqDY96
A7zB2oqzDg31WddWUclNy1JiqkrAAooPZtQvg7xkIGBSjWcA/sW4ipJy4HjWVvSJ
MQZKdhEw+wgj2XDSiPMAHzq//kWDBDeneFJiiAmiV7iLLoREd4UgrTyGzSww6EFs
a4ItWjJ5T6DNgBSvTLPtkD5u0yqfDqEd1yUc/8wuVrV1D1NrsE7MM/AmV+wjwKgY
w2lkjXvhdmegwffJ6d9PYOBKSxWSRzstc47x6j4kLHGKZQuASaPjOEcBy+EvV2c0
3YWpD7MIz5iMCqEQGKLUecdPQKGs3pErxfvZNN+jV0lm3CL6kaXXhn50HWiBMRMO
/E+4CdS4OgQiN3gh185BxnsTmW9vXLRk7TzFcupZGUlkCE5kk2Umrb/0inwQQ1af
P2UI39LOq9PpDv6EFZUYW1GXb/ubX0zhUbJzN//ObY0oPtZmRy1okO4igHiTsDjC
Dpaa7cOMYu69u2rSBFNboWO5Ofxhj7OjSEvOpMFuaxg7MP+WXoRlCccldvfbMW52
CQkQytKAS0lF7Wr8JwufMoxJIwO3HirQFrObv+roOJTpYPYN9Q804D7IWEW7vbV/
TNvnwHZIPu2+L6VIYbuaeR/924fBMJvGaq9yyWDbcBQCQuwDg73RRsKJfpTdRdLS
lH8iezGesUrlZ2NIqYr9oROkdAGJj1DnHT6aIsU/ZaGU40Wu10PsbKw2G/bsZ7GX
rc3WiRoUsZecoAYimfi6TwePEeEg/okvdgTR7aLsOQwY2MYIM148M+6LgMbo5yj7
uwNnEtvg7T+UQFOIBRxHTcLSrv11zr77KzPmaa7U7u9cMtTE/gqznkUNmA8Z28wU
/1GBuTS3DiUhk/tQxACz8KXFmeWzpq+L+FrKo/u1uspqJSFblaa6/aHwTPsPvM5Q
/krOg4d6noLeoM4QujjmDeRT2uI4ycNKhmTb5TQYdqvwJucCXFKEB5tgVW0NEsL7
hathZoMoTvQYjuPeSHJBkhfDOc3JpBrMk9jH2aJspa8692lsrD5wsR5bc44ExEhs
hMqOEOa3jS0yMMPZy0hs9bpHnbv4hbSsjKt+YI3Znh5w/OCclT2HvNSRRwUWa9ib
kh2p8Efdnmd5R+LUul06U7O/Tnkf6OL9VujaCtjQ7aJnO2AeAj8N3a0Eg6kBvaDJ
W4ywcbIW40bVrO4SPywBvpbblfheA4rp22Yg/k02fH89VdQvJgcYxJB7xalgdg0A
jslPzq1m5p3FPcJQWGdSHBMrnbhQHtGHfLFZLD9M+a0GzSosLZGTRGXRsRgFNJz7
zWxM0XWX3XcrpQptzihoKtKIAPrB4m9Dh38BQ9mXLUHVfi5iRAmH8EMg/mBtDRhe
xqjSfuRBReVmc2MtEktvasd+/GIQCYtzhHhGG5ivjMlX67cqnDRAQJsSvV62NwQ5
L3TaApxZPKaNhKl2KpM1etndkrcaBYN4YtAdF9NJFqlpy20glM+AOyZYQx67msXB
AkINol8LrqT9FeXil4wJcF00SfYrl01oMn9KX+umbOkt8zZwMTythR/Af1fl+RlP
6MJtdzccuihbxzdvcN4VBU/7y/cO8DWe8bqrR4dnMbFMK9j8mJyBtQcUUixQEjsn
AhzfhwhZ1mjvyHJ0WRaQMlnGD6MHtBJLoZ2+SSSTcBJgMRRirZnQiu7M2eLHrTrv
8VBG9GtezaOEn5aEh6v8maZU/Ubim0x1dsmnxcVdmz8lTBLIkDDxPqS7wk1mApp7
eSO8OHuxJoE3hSkuOkygD9Bf/Y7xZcloVkzwn70+z1eafVjkNHPwKpPx7RoszSbL
FBXviboOQcUJOxKVzV0eTFaTptKyTqg+MN5S3e8vwpmHxWLwqLWOoq82spgpUKjA
x4ociojS6gB0dM1zn3VUDAIzHE4Mm7ImxtQY3rpOv1h1/CC/LIBNyYNn/R9661Kq
wMETUO5H8OaCi9Ku5Hwakc+u/w4wMsw2QN89/2hMhbyTZDKTBunImVER3zuSQ5wx
LPVip+wpzGnxZ4TUrJJPxW3Lov76UEY/JNxv7tU0YQMIBXaNS8D/zXTOmW89PeJG
e3378+ZIZ6k2plq9qLAz8kTx0qiSd6VNJOq/ih5Sczks9oQe2dGrZuU6j/YBCAHP
/i4363DSit72799d0P94MXZPQOtY5unKaLx9C+3xSdhA4qt9FIUQUia3uDsPMRIB
4Xj2ZgKwTJ7o1EG2SDgOFk4J2JDqtawXNTqTl/wAwnUVLVhieKnq/Zl3n3tQLpSy
p+AWUFzS7LF3FLNGegmMcpiOGYJg1/8in2YgsgPdttD/42+6b0JkuleuX9DKh4q1
NkcKs4IQEm0SR7YUwf1a5hD7dRNOyiJrrKaS6iEhxniIO5hoOaRShU4FhfcGsLL+
Io0MltCgBcRjwPCvTgirR+FTDSwc0DN2p2b2TLW4D5TQGucxSbnSZgxl2MRPmrmh
CTmmOX7FoYjRLBXtJLcEDSUnJzhloB8oeXeyhX2Y1jFVankSy+vFNbbOtB9OiyTF
jARMNAoA8bsAuIMzRYC2C2RXRrjk4iPeensCB4aFzaqeaoo2zN29vkdGABfBCAQ2
ukVVbc7tUIniE2XhBWrX4ziXf2ZNkupCqjFFJ1iLlrM1cd3pJqJ+NbbqozmkIyWG
LTqKiU9mvMaXdYejw2uJCtaxrIL+le9nitl7hnYkoUWxPSYcmHeVZlEphwgzb651
MiKHh6wtSsbsby5hA9A1jvYHMOXkQvfveeblWYd4dsfWj8Xt6HyFuW9wpMkvQ6J7
34ZM1lMvIPH7Cmk/WUDLDciLPuv1tCojP8sLb0LeSnFZ1NxEUG5gKsXWLxHOHjDq
7nV2vl5/p6iE2j6PjxFZ6KF+b/e2iEcba4aWaaJEuKum0MXXE724Y/6JxcYIGFAk
61TigA1RgXWjAaMjHFuQDTUJXVTteVFnrMeTJJ91PwWqq9Nw6leXr5p71SvzLd9X
S3GsZWh3DpG9acIF8U+pCacF2wSKH+4GC3IfP2a+Ig/dx2m3vQ/TgbsRbPgUyGi1
yXM8GFb4naItMrrda7xYgj3O00dkIVJSh8KYo2kg71dns3y4+y6oKoo+l+2feRBM
sF7TAL5+aC5Xc8HMM7mBGO2vx/d5EXR0SodOJtNJoZw6eIGF2ZO81QGwhjW3647l
131uRBey2O81l460nL+fM5BXe1uyOsKUwvM6c07SbrYIoPR+QFqLN2LRLcziAu1Z
ceppG+szHcqQ8vIVQSj7LuGP3NBTVtyIbZr0Dm7hnkB+Jb+joVwtnYB2DeJsHbG/
8LMToQJ6opFteccsOG+fmv5nwBlhUbhmZGwgZiQGJ4zzmoKJdHcnLqO7l9YGWX3R
sR1zP/94pa49Heq2kVmccPtB7aI/EFR2Soazgm2ai6Pha0B5RpdCol0xghq4wLdn
qJqMmUJ0Z5COtlYkfUysgqREs9Zga87NxfUhvmqbGATwcFMiTrYLYppfXQUG0ItG
Q5lVnBTT6s/cz4qBx5394FDLoMda7nIBIwFoHMM3pejKYaEi+jzW1P7hWqaKV/4S
LCAk9+bopw4e4ADLF3ROAWD7W7FGHl3b+XxQ2xXoWEiYiiWpECtROLsvIDE6/pi/
GuO5fTKPc3KFOfn4hyjniSFAZWFQvhzjWXgRugr3zhsuxc/ucFN2DH7KGFSigPQK
M2jOuwm654OC01gRaCQvIGblRncICuIGefs4OSWdND8F5Z8W4WfiagFWIJeHg70s
J317JIb0oRN8+yl/cAz+sA1wZrfZlH6BYgaznayRcoy2GXEM8ot7nMslkXBdbXEF
3LzmsdLcxOEhPdAd8dHr+xa0yz5M0FlqkkgaS+zqOUJ8NKcTxbFsNpCMGIhJUjeR
CSV3T0m8JMvD5TGqkue25i4n82gCOPw1c7WAXY/vtoLMeTldCMol2S+ozn+wmtIn
x5kTYFjlXzhW2p5uuLpXbIJieISAeCOqTZV6EbI4sud00e/XxRbELxQv3OptqrY7
txosyG+2s1Ux1+QECiZFFdayzdql82QaY2DP8MyszrcLOGAcc4kD7kI+ulLiLO6u
h29B36IdVqdtLeYCKMmy/ptT+8H0bGYhpmusiug4hAqZzuXgtJITQIlmZWlHDKkE
7bWcO7eKBjJbPoEaOvYOcfdFKmlO9TSDrZQwsV3qEgW5UCWayzmJK6iMZZ/mNA5z
ljBZJgEbjy1fDurT4oEfLEi9uMMoITJAb3DBuXSwvScDzqiOKS431Yxx3wGUl6HI
mP/xJHnr5dkC3CzGdehu7CtqNTMFLbqWAvbamvumF9Ci2H/oq++MjwIou1m1LJ3g
UjnRqhVSsygHzGsjxXgmveOZioPLVNknOQRnYNd3HqlAuc/0zL3G7otpZZiMj21E
Un/X1PTqr/IMkXaGGuDuTCTzEQ3o5AQGXEcxQmBODORHnygSDUDeRubaJ+pJRB5k
wm3EFolCcW0r32B2Jp3gwYbDKf16eCFHftj0RCYrjjoUCuPOUhnOufk58Mx6DnCi
B11o79Lm5PEnact2wBcKCELCGQIMU1oRT6aemQrmEiDGs9mwMsdFR0JF0+6gP7Gl
0x3AypP7kEOTCPTDGOc8+HcauJ5EB8zkgKQbJP3dmdw3RG3wlKt0QZfl/372eQq/
3WpGrWbZwp1ckEuPPng+74qQtjEAZ97sJ6zwDUKK/hVfNInL+IrXBnBmwI/Znnro
uPexrzJjI60gvYz3ERhkniUcfdjk8+vET8x3hIJ3PIutZQXVXhuT33w0/HmLtSa0
Wh3dVorATSqQUWYdRb93QSuJHUPxSn6EIBbT8DfanxG6rHVDN67LxNGob/QYO0BT
Fb8Af17tR0EbXp4QgdZoEjqEwh2T2Gkim1RVyRSnm8EUhsxr3covi67q6SN46LnZ
stGEY7QR4bY/U4/TkN0oMgpNlDj5FIj5DISFdIPqBsAZDsnVP+avl3tE9vSpJa6k
fgQJOxQ9Q8H8QNXQvifN8EszWZdwyByCWuKk8/LErRA3+Z0lVyrKKo04kdOkCwiH
XYdFXJGCeWU674renOFsFZsgMH6LamjVYNZfisL8H0L0fc6Oo/CcpXQMjyOzFhVj
LIsOkIhEdmKPCp1oj9+8T+kEzoLNCDgM54ZiRiRAYZe402Xea1LNyrwgOuF8ljEc
ytEhZryi2JloPiy+AJVIz/1uUq8yFfTdpxypYMyQ5FCVkTqkKrWVf8i1L57v19qc
IYbC7bIFc2/kQ45MvyaxXYuvtZh79QLiDX7N+8Sl0csiOqpBEuNsG5Hhk1c+hkOr
IE5LZFEf8UjSAtqZUF1dDuGNyZQ+6KBDd4RuekxAx9dIqYA77UWF+ytBL/BPolSK
Zt29rOOH9GfdDRvymdNE6IF4igAlDFrZ7OYzVFh4GhBX/qoWwWZkSinEZJPQCJwy
xD4CegbgBDMWGK8WQulj99p8nuQh7z+Th9PFDWDi7+eBCR+7eZu9wUTqjvfD2IIE
D/pt5M2mZChxsjC9GVSjs/J79nnhKxPElK4DBCHdEQHhNl+VAkOEBfO2H2IbHZfO
0bErUuokxkjrZdxEh4e7C4tY69ZlLaisOEPqOaF1Ef6fviNxFWM4xF2jV4YjQpHe
orbL/Fr0oSIyIQENG/or/ZmPfM8W3TtPvr/pB1LpgsEV0yrgzRSRbEmC2mZJ/z2e
O0zM6ueW6i9MHoeEsbhY5w6vpQDQ8bINy8Jvt1I6yMRrwJKa/m+WhszqZaF0wUOw
LXzf0cqehlrrMUY3ycyOudnp+SKRo/OHFeSwVYFum4vHe+ontzCWzAkfdm8sPFTk
cyn1eFv91hzsuJXKpCM7xAeDDI1Vnz3EnCWg0KUK3HBSEHZHqZ15gr8VeA1PTZEy
ON93791XuMY3GLwjTYmp2uHb+PckVzTtz2XlCT/CfnMRlZhc9HY86qmc5URvUFvv
sdGHuqp/41tA4GAOeNgcGGrryIxgB8yi1bOen9C207w17AqiUvj/Djh+34LpiwCF
ChcNndOsCxsMCBMJTxbyX6DEvDdn34zm0osfNzT4cc+p8l67CM28uvl0CaKbJS/B
gnPbCa5TF4pz75ygSc0NMvEAMU5LvvAIzNsT94JY2QcvHn+rArgVB1UZjhVMmWU5
PdZ2NWUm8GUCxs3Weq+PPFQp1Bz5m8zlQrTVfA/emXxPZOdLIUNslJbj9Jdh/wmS
4OqsD23q7qsdZG/ZMpV9rSiGoBI8v4EifVGwSqEwZNbVmiO+ZWq5HWYtcY+V5lEt
CGaQ+piYk+Q3I0/KK2LTLcxv726luM0XHH3iJuAXNJtKEMUDMCULMit9Qyl3jehK
XdxeUcBkUsqaAy2aFTbMZL0EXQWhiCTZoOVlzHnMS9T2grfYIKkyLBd7wG7SdNMC
val4To1gTZHOww/ToRlet+iq50V63w/YkMXX01ppkzqwFV5XI9yAEwBbqcJd9i9K
9tUAs3vXY2i+n9ofxvZAep+NQdGP7XJUPvp2snOu6sMeIRrVzFeHJ7UXzolxd0sn
UwwhJnxwOolVgh9k5BVHejt+f0NGent3/867/zUzsuBvWl+6hWq1bbDCmOoefKbn
C7Va3oYwx+HHgbSUficgXeIPR4BjgnHyFNS55kiVB+v5qQE2YPlhg+V8unQckpoN
gicN2Z2CDAF791JaJCW4pAtfKYKPd8rvtDH0PNqcyxRbv0NeAOAr4245AqCOR/NU
cMWfbCpdG492bJ1rLiO3URuMVpBwBb8yygu6AAJOsCx3grcjSga6kbFFWPYz2mGn
3+pV3DEVe8/vdoIbvmWGxjyqQ1hDh9PvzM3NpJdH2piR+Z+5S8fcnREDTvSZDO2w
+t9iyVQJ7CNpI7eUCoABHkQA1wV3g5VKP58B9XmW7Tle8kvA43o+zpBQN51WYWTQ
UHoafxdU5bCqrWljjaUMMaAeJFd56oIo2ihgSa5GwSAJ/WCd2z/uMfg7/CzChJJu
P04Rsg25qaiaQZMWeNrdGvtlmgdrckCucELRIa0vIJto5s7Ep/6x+iNhn5CGQCTG
AAG0I8xSeNX6XsGjObkPPs9ExnGKnM3nAFFTUbC2LWUSJsDTp1bonW0vE4VkUZj9
BG2/ElTrgIsg/zlj3AnnnLiCCxl8MiXLzT6vJJTyGpu97IKRqOn84yrerhlOzxH5
yPitB95jilsaibRYRzqYoEeewFyHI794260RIf+c2O9uBWvFGQyMuYvSbDLcqb8J
oAw075aGAhdUrxgSnh3U1sPw5HG1wHQu4FzMXdG2TKH2CM8LRwzlacT5iRDs8Sv8
AB2H9Ax4EN+9sghja12yu3AK3giKUVMiSOHgtQ6XX8kFDADKh+qV8J0rkhVkdljm
wgUNVQbWNHgrrE2u3LFD705Sxd8EaU4diB9nz2F+Xtc5d4OgtdIr1O1P6cCal4z4
wkhc2xVSAE6VVfk2ztuiRsxn5+UGSYI6s2puZzlBoFFvFnLhji+MuzdNCq/ISDRs
+TmRmKqfRzPySRJIXalwQZ+iU3ZFqMhD2uYCxcp4mcbkyGmC1bZeMFgJKq6plVB2
DI5c64+EKb84U6kY8blJOAHXc/2r8PeWP8qF1STf3iV+hz+zflB9VKWBpNTsVjLW
uWVoUcEVMVQ9Jc9DNjSdel9ET0v0oYC0KDf6oPTmihKrtK1XKJWyj/tVaMI2zpok
dKwRPBLPTenEQPyHNSiVKFD5P3sw4VTKpq83x+y3CPI41Q/rNGbUz6Up6GpoEZTl
r7ZGRLHs09f9GcQmhqTdxsVAXZWdBOiqcXrEWHF4rtCnn64YM115zZcDhoZfqgEj
B7wdEZ0HZbsmXagLvRTA03m+aA1nIrrC7a3JbO2XLMJ1SQRonkbW4DOx/W1HMkh2
h7TfZYn0S0HcYVOb9J3FpEIXw7wQrfYeRJrIMvQMoZwvpwTmLMZ5LQXUqigAwCy3
PTzeLIaAQlcmJXz+qKsSamj3903psKUqQC1SrOwp7K81X0ksUhIAInV8RwEe+ek9
ELJ29mMgtw03pJL0yfeU0NnaKNy0P4wa14+tnDhafOWgajOa5I/MAbGzChxKDE5l
fHcn93TdgcvE6paONzTMz7x3nSwbdthhh7ALuDp5DmMX3naxlNKedp2IReLtxQwF
o7S6Z4wZ+2W+fcVXxmbvpI1sABKuemnJXdTAbUZDVnxH7LSqSpc+4wdWE50BBlD9
GEawyfuBI2MnrK2wVBD9+9+TbiYNJEDXyuYjMEWjSrBBFifRWNklsPtFPuYZdjfJ
+sIICOOTozA/XwvXbzlTZOabbQ8iWCFsulvZ2Rpefs/Y0utYnTPsHEWm7LhFAeGT
5wd1ObAcWMibiJCfar+xAQvK2cpiJC6vfTQoVY0T7aCqzQ4257Dc7v8jszG1JvWQ
tI+O7OFT+ty4pUgIplZ95/B5J6wWvWPbfeT4P1IzV94FyNICmJ0BaHu0uzrsQUjj
3+eIFNMlOC/sbscaL7lLY7DjSg2Lmlwn8ntBbfv5LcPpCl5SWhrfNaPepZUWKOeo
ZMbDN7NlL5neQW+oyG+tMoKndAMNN8ITWltZiFJpoa7iN7oyscKbJLlW9CITrUI5
siJ/8y/vTKTgXNg/r902J6qEWfychSPKEwfpCWjHwpdEtwA6chFaCbc9WYkpZz0L
gNJGzHV4FLxuz/ioYLEtBepY6w+ip3bDvARU2emkcwxIJUfmc902rVEI8pQfaa+D
bBa/bcCugQI3RT7HyGxFDxtm1gv0XlicZ9lhyM4LYwKG1ikfUkgpX5dvwDVlr3x+
8psZ0cMcx4LKE6hMz/b0vXBGV451D1+xHOjchedeOn3t2/7zw29d7W6oT7GF6jCT
1EY30fkLryw4nPBS7J1Pb3jHvdtAmGKcX17Bn5w+iF0QA8mgUnNGn70W4PYCUkUJ
jVKmILLfsXgSKk7UE54kBHRYokj6mC3PGm/fZW3oPTfverMhjNCNLqr0KzGO/zMR
KdP1CQON22DN3CjnfOSOpZBWT9ojZnVi1Tkc+A0cpVhDnlAlJAcX8c2ERek0Stsv
aRSVvgtThutaH/oWJ3Mcz8Ov7RbCaPgCgvRbVenXy4/VBIPJlUa6qmmzFYeOE6GO
Ru9wfxCqlG0haiEA50PlRojsigaWMgYBQFTDhvAM2m92oHvomYevPPQPjCijPWel
n9weczjrE26HBkGDPcYw9ht+rWm1NxHboOG4B73PX2QN19adEj6svIQCkbXI9Ja4
Ta3ZBmNN2FeMmdINsoimVb1JQNWsPclbxRXEgWFZ5PuNkZ+fglkOO1sPyX9UUGCj
F9ZMc/3Bzv3a8SJvQ9+e1h1OOXbHKiK9hr0t0snPnHvNuNK3A//I+fUWeCxz1vXX
kp23miMzsUSahCrsXiDKp6chF1DmZ1VoaEDFedkTKQmBBNeaLoMjhwczNH0AoU8h
iPtt1hcsT+K8Y/oabF1aBVmmXDs0EA8D3N41PFff/jNViufe5knvhdt6yB/vy7Hg
DFqR0jT8CevLI9tIOhBP/FpuWRpC/lFhx6W5ABvDq7xjIjsDAlW77cIM5Yg1PeFf
0xTfwbnlzCZP+2YsOQXDVoA2+9cDJj/9GU7A+H7gPJE9dJrY5cKyIPl7ULFAcEHC
A//wDQCjIlOhqd0ITDMetLs8MRX7nE+xsKkAdBx363XLFxt8xXC1CIeVGEu5xTjH
SX6zbt2R3/j/Jp7NBv2Jqtq/Tot8h+Me5NvFUuOw7eLlIb4ODMDmDPXI+mHoka6Z
BwJPMDlvtloSLK4xMyoNegCENTN5vK7LNYaOC5ZGSwYKgNqdTH7TjzSn06P8v2ub
lk6lvCeHC3Jx/UGN2sMQ+sq9OrytE741KpJBTWdnQZhuQpZ/nOoB7AijF4v+/wEo
5WKzfbtVZ2F/FDeQWpEe1UomaYZa4DeLeMgFYPKnnmmKJI2faj5m2zwqlQ27bgYw
/wmg/n+NX8zaGd1eqORqFknAQyInWAzBc7iHa0ZhmtQfl2Cl/ux8kL/o1e9iMQWk
/ZJt3siODUZAsuvw9UVlF1h3t4oQinBqZbLDSy8LwuOkyexXX/hIZb5BMLgVEZOL
T3iVo7a9WvJVaNjiXY2s7TxR496ZEU7k8pLF+iOCcHn2B5Rdq64rc/epNavFRmZa
8ZsbqGhDKAQFmlclDQ42I0HQx83BJjFwIvjdYHO4W6UEEqIE+/3gSuQn3JU01aWH
h3znNGyCuFt7RPM9u8rv6VhsWHBHAE8f28vxm8qZ6rXnYXAzQtPUoQBj2+SGvkgE
F7kudVhHc0veLl/awIQEwj/8xBJ8/lc4ULvkFz/2wjjKtzFoGZ8iDiHu1gDKYRhg
byHhInBtw9dBYJ6C3jYj9lKy+Chn2lqAAIlbFcj53u5z59L2XeJdoIea+g6X3p0C
IXk6OGycp65EPXKIyKx5TdSmWvxBTRJNgiMUkZ+FUKraZnh8SdgCnceMLUqyR/Ys
CW3QO2J6VFbhO2Cd1pZG+NjAIx6grwMCNqkeRbajxdvos1dh7U1CLMJjTJI6SlKT
8dU8F3lKnTd8k/PKtnljW3FLnFi8dAwU8de1k4et4i9rw4322IwVSgmjBvjivhLv
AJdnXbPG2dJS7nfzxOt/hO6wGYrS70lfqmo0nn9mENuFdaByyYtTAYI4QzlwRVdZ
uis9E/Q/6vpLPtLOlkSynTY1GiKiYWILRwdlSiyGjN68obyT5V8aFQKsOSPsEOJo
IxGHwxb9vDma9mg9gZEMBNP5Y/TFAEOjQZ158Lt9GkaufCUN/OWSXqX/tR0Qxrzm
B10ERH8a7dbyCmVo4qNsA0GImUKe4dbEJqArTEtbXyRfzOBqsOuNN/ynjq0mWuiU
6KNx9rmL0qFsShUHVqYv+CsY+FwC27dpb4ab5AaKnR+r7K/kgHrN98a9Vs8JlS8a
pekXyjll8UzKzjwqivr5x53AFTNenj0V08yPQ1MsSZpvL+pjWhTOuFGgRObdEKcA
dkH/n49MfXTI8oTmglISKAGxmln8R13H5zNqcaf6bl9ch+BTkpF8JDYqO8ZzUdhJ
J0b5/YSuHX0K5cHAd/+g6i94dKD7yPN5zOK8JXcjCLLSggCLfJuTDefiojiUrX3/
NzI3nCDzZHf1nlPJgOC7R4mSim6uTldxsNhkFIbGjQ2Z5M/uiXHMWBJP2M16dSGU
m7YzPPfASh7Hl4PAePtFiuhct9OmdX8UYoNmLUnn/0KY47AE26LDQgXuEBJ0Kary
+TDGyGG9u193CE1UaksSzvZduairBY/yUIFC8ju7/U8zsYct2SgZd6uXV6hnyUcs
CXEPhWGg0oxJbmkeOGVZpUM+gUTjEx83mNti6uNlGEVdafpWh02gQNGJjp2Vfgky
9CCgmnW3U4uoD3uWjxB8W+xX+QsecLEzoV8lJM6bNWhMU9nw9/sWoTdLGkgKgx5B
Z3MDLxwki6fjUv7SKYWrC6PItrsnvNIXw6beByj1bDk0v2gsu/ubAQfzE/OfFwqN
SJmaHXnd8CwkErvKpQesW0WD+GrYnF8XWdor5XVGL8v+cwuavbvm+Rrnw9cN3skt
8eXDwp6G2lVWNmBeTUYqsCHOYi4axNE2FAyoCz7LPOPNFpQQxTGIpmqxtB7ejOX0
+vC5VlfkzyTHCPpTaJVf6YXUfieT6RG1jm6zYcJ7Y07giHJt7TrowrceGsJY0Qgr
INRq/BTzjJnYzUQVtpWUc9LoCAte2KdT1JeXUEZYyLuxcRJ0B937W/Unh+LvHs0N
1mlitcE1YrMMYTAlzSQwZBxW5aSyNkNJC52EdLfTpj4GR9+E6ei9Mp3H9tPCi+PL
sDY3NHElYkVnuM3TdepQiApunXKlSMjacIfaHj0D8NwSiHqqA4v7TPRwtcIQGXC3
po9kPP1gtF+2nEqQ8Uv+NQW6TDg6OZXINUfOWKyrJtd534uWnsu28GEWA02Aa+Da
DQ37SPW3Cx2DIEIGlQWGCWTVgIWSTaG+8tIfR8Jok7+78XZhMS4KNoiX2zK9Diru
wdzNWzHmF7ZIma8HkKnc5MX6pd9elxisVRpFKcb1nt5ZvbkEHTLweK1/6YZfcWDR
3sPPf3A8YwXp3BvkvaTZRK0mYVoKF9F9HF+L0WZAFHaKMqlBMpQekaV4M7KrE1C+
qkXQAX76qw4d5AEF+Oyw5zfI0cWMIrLrKRFPVF7RHoncH4yYTyersBKi25l101OM
0qels60wme84D+j+1NpT8hB2eMy8QbMuG/aDrBR9lUg1d9wIKca8GYufZGs0c4NZ
v89owNEfHUqZ182cx/+AOl+ADnH3KkBiJuFWz4IrdjggXpcz3o2hFOJvie7KUgjC
sQQa9g6cwNAHS/PdCdX15FNnfFDDTFUFd/inPCbA72K+ox4/CILYNmkgGweJbGVB
B7RwP3dVCnlYNjSmuw1wTVUW3293U/dOcHq+/gpKpC/ZeE1GQoSjt7rMfSx1F0ki
rrtwW2Oz1QfCD9BjVqpZU/kOY7M4Oy1mqM4aHQyx2FP2+eORuM+YKsubnnfkJ9c7
OGPZMnKc5gSblh0yXV2UUYDKBEsNGY5IOxTOHfkwcH9rSUPYS2TjtBLsQXY42aBW
hwGAH74Re5igPNzpdIbD5csWeGiKk2COjLBoW/qWKetdbb5cg+nRC5d8cPwTh7WD
xNyAB+UMqptFbwexPasbDOi1SnEzabm2P1AJSysmOKRC4akfNeOmVbPMqHks2X8/
I7yJZ3agIonE6X+hfLX/nY82FG2KPyeI3ybzz12Rv34YMr+MsTn8tNvKwJkH+VB+
ZnX/2PQSDx+BBow2G8Hnv4oviYcWwRRMUc7Bcz21yJZ6Z3ZE2b5GNv+3XsE2v3ZM
B1paPaBIihxD3Gzj7Uzu/nqNBN3OIx/ffBYP3wMxmhgK+CvY4msr8ta0ASU/hv2r
FU+LTjJqz/BHi0V3YY59Iz8idc4I4K0rvCALp0yDnYVxYMBFm0wxxIoj9HqjqeZZ
Q/c6dtyfGspKnq/74pXwyNeyvasYBonvJhb29WCaNVFXghyQv177iOeGL/M+UDLv
dHMjhe1pEr1+iTTLIlQ+4/zRplDYvQxI/PLVawiBHNY0Ooqx8Ec5AB5mGk34TqDv
tNCao9cn7mVrMwPghVZc75LwFRaRX3dKn5SISOqHSixCrBQlAvkxiRxXKLADmyfg
OugjsMvk+t4++ltqL4MpXUuHCghItTqYC3Pz6hYNqzZNNB+Xhj8RYetMjZBH18sL
00hOY07Mcwd4BFL5YG0FHa7e4qIPc8w6PWPK9DTMtg10VhUC8V+n0BaTpXKHuZYK
9x+yOcB/RMB+f/sBoSz1J62OlCYodWhVswwo6vCu3TvmIfc95d/gz+BXUqNPCdmY
jwmjfT0kC0wrxELi5vYw2Bkzd2BmTMxxjLgzTBcZwVvykW9aCIMu+pFdZo9qGAcG
NBRPNttknp8bS31KPw5s4UuLMQeOB+4DTqDTsjRuvZlm/QlwHmzLobPCF+rFda/o
RUHC2zOYPlM2K0JLMzrazKgzhsxKg/srTZ+5y17EMv4ZhMIm76L3hmXXkOTxvFc/
7lOyXdBVYTadMC3w47/mRpzwy4nHU9uX3vofiLpe3UgZj7x0nglus1rPAgPYATPt
j9cdzewoC+PzdYwW+6+k8Mdue0k/sMTJm4D8hyfQHxoTXIHxt4AfBUstS+fQedkk
96dMsZmmEfcLU9FUITwCHy6m1gx064qi1bZsWx86MChfN3LhExWcJFeof+/UTGym
UClYccyi4RLCuLRYVm2LF+pVcx/ZhlmOw/cqtd8b4EbTRX6SeWE86sTP+Oaqb/ue
K9iSDoNO1OuPQNEQQE6BdhWMVeU1rkVIBWWLGyGmMQqHbE0dxTv/TksXYb5F1RAL
t2y8I4CIa1SqQBw8T+Zk5TBkM2PZyypE2UG3amt7d4oTivsMNm+4jAW3Jadfsv/5
YSeVNFUKYzP9/nkzEB1tg+s42+rBc3rkQ0CemRTaCDIAHBHvd2DZ4GMbZv4J/lia
0sKxbEoDncko7whOfJjUTjSqUu2hNdAEmD6JqtwAw62LGgFwov1KdBOmgWsv8Dao
V2+bVgO0krESSoDLUzBaaJbakip5RKlCl2wY3YIs+vw2U+Ip2tK5/BburinTm99/
QYJRjtchc33xBZFiLag81yOKnWUphFx7wkAG8D8G3BV2VK/euSJQWD2jqdtdPed0
jotCDOQm560U8OpprUHf7aBrp1Ucn5PGHz4l6xt/8t9D4sx+Oc4mw4grF/wgY/HF
WQwlUY+elFw6y3ArJTzs/mJBfDpq6FJ6YD0/oNL3yox7GPu5LIfAXrcsPJhqy6/g
grgFltjbyDABr1plvV+0ITqiPBQe3UlDkJKREFU9Xkk9zNETyBV0f9nHFRkgOZ+P
Iu+c9f592bc3U7FpiVAH4nKN6vtYv1IgjztSeY7rNq6+ivPzG+fNarSs4vqriHhU
tdhpUjUZSrzf2ntnOGw5IhHkwmTTyOIzdxBw2uANi70ojdwrpQqZuWrV5+FJwpcs
ql2xwrokcw7SY67hPYsIw85MTD/lH80fAzszgIvS/+Z++fIL3tHwkClnE/4Q23Tl
8YnTYaBrHUQI76c4Ht1yYByWM2YPldjQjVIsSWrue0vhLEzll4p93voJrfIFpk5o
PCdXUjVZKGuhfNjylrKcUIGzNbqhcAgJToq1aZ/i42jvqns/Ef7PuedaRLGbnSQk
lDo3jlx8/ezyBGnZvY3Wo7z2JVT8tReemgCayQ7uyIMVAz5s1REJjpe91NrMah5U
XZePMENy98DIWmoOG2dZV64bvSFkNstCalhSswsCcGfIX9PqHfQbyM2BZe2IYplp
UmFHoLO5DO+SNoKpznfqkomz25jJCMagyvC63XESXco5mjb7CfOlRPHYEc8LsHlp
4HOfM9YIymzn/xfaqfr8MN4Mms0gKBJguMd/Z8Sr5rYBmG8uU4RVFym8HjVuz8KZ
MPSFds0C2ku79AmwtNUkILAlWvf3tZNV5xmsa7LFJQq8FhdFpy048oglZDWGmR8O
lUmvRFE6qlizqPn8ENigZjPkvqEDPEUOfZiSFGwvH/awU+SOKgZi4dx3x3FAq9Qd
l3Ld6w5icyPNbdgv+wOq3DifdPJrTqXy+6d8k8lEkiTA3lI1urOlNEi4T72Cwj8+
HTRSNavebhmrgOrJ98hUeMt0b0Xlchwd2FY45NcAcNXBHwwm27p6dO+7gOJ69WD0
xeZ/WVjBr41xlOjGvCBdbrtONdsSePCibutYYA+UzBe2fDEyIQExLE+OhDaP29zm
PefLVkf8igghWzSXIjSNpBiJvbdCBj1sfaf2kbn1Rgxd8GDSAI8FAP26xJfmWqT8
nhEEvqJJqr3W/hR5rzEWRfEysQBKOJYNoyy0AuC25QgpZ4wnf4eX9pXhTyroH0GF
SuxePh6QOrpVu6DB9g+dLFj+8S5fobAA2wD/pA4BmuywR3LTBXYZXiKBx30/llBK
MiXMRxjqe7bEs80Iu37+pfZciU2PSGCtAjKAuB1Fl5i+TTMQPEc7m6c20tahDTyn
eHfota3iX35sstZpo465m3URV1tbWGsB1Gn2wJzbr3Us57tfVxUSbLJe5qWPd2fS
JhHPOSI9jGnqqmCQwp4wpwZpT41H7HaEuK4dy2JVeG8XMD0cJfrsDivrD1UZLSNv
QMLgeQJKlSZ8zTldnYmYGe66APj0lKWxTGmu8GjQI+m/C34FIFyTtySodsRonRP+
tLvdZIf4XUozJ9OTf4IjrPQYxxPw74fBolTjEfRCKks57t0Y+r8AQuFMQ8fGYS3a
+wNsjhtZ5fNryvh76s4m2VvkDjLtIzOkGGhQhL51o/hp8Kj7yM83TXc3rV7y60iA
FiYTZl1WGOnFpNHjtRuBWESMSoXdl+jXjxreenopPJW1IyZvN4Eo4OPuoZ5NZXSy
gF2rI0AQQcgKjFBbSUlZzrf0b4Hx0aeMH6ePQPof67mGHK486637hKuc/wX7QRMJ
UP3Ciht+HTRmnq+QZ58j/gVH6aTcdVKPiwV2KWgSkM78F9CgXLHN8CskXDUtIC9l
laQ3nfVMTRi2RercrvA9eFEFJDBitIFZoE8XYEdWysNAt2p1lSZQ92j5Bu0LitHl
xg2/HGZ50M/V36outQgHevgm9BhE86kKqe0fcep6xRV8HOBaeBoPKiViDdycifvv
l+K35yzfuOg6BZN0tVCG6d+YBNAzny+KzmoFElfmiUF4pj2ohXtFEUiYhJxc4MBE
I46XxBo+KeQkAusPwNcNKpmWiqeBwvxuGmIfWeDhcTXWwGuMCcz51GlgRWPwG08G
5BhNGMm7yxc0b1b2weKOR5QJ95i0vlNLm/Vt2FN4+wvBxyQlXba5f1S6CEMHJvgE
5VvSV2/nUZNTjD92isV9YUugWtRuWWNomr1xTzkoLV0/6YSFNni3MtpWrzezdEH/
1DVII/vITL2YU9CdGQyAy4Gv0WOV7jzAu4C1QIv9AhAuMK4XgZ5hRAf+mQXQzWzW
kkJDYbXErO0WUISuBCw22YCOuRZWrB2twrXPqw6kRvXuvg8osi1IM+qXp+dRgMpX
htWJnQ+oXce1F6H1EypsIF+pOcwYTrRVJqwr7qm+48UHRCB6AYfuhcWTFFKmzp3F
/mvn0kDJV3rC/cezRwUgy8k6nOPwQaLo47AIqANUC/Y6oZpceZ/e11HTma+alJgl
3ukfpKjLp6FHV3lybL9SZu8BdvQ9Gk9HRKQZqjC/yrNojfsJrbzL94XY4lG7amu/
bNIUJxvNTkwshXtvA+xelFh2555lOcFNWsbPsecjw5QclqPgu+C8LYvb4eRZqs27
HMNbPixQeuEL7vy4J1DGjgmjwfDpAUasJmVr1vTQH1PWd5bZr+G1VNCR3aOOvih0
bXkkZc12/sQmrpP/jATEHlHDDMiNRow/iEKHaKVRomiVgZXoIqV9g404eUEqNcBp
XvHW5wtC5BPwawsdEDAMWtmgJfRS6mCrUhTy92YP3GoLCWgsPzRHp3Ve8UVc57wR
kqSCmL4QmhYVA/fWtmEhOKx4zpN2/zPFYtxxQrC/x+3h7XIyKf5F6n+lyKVCO+vG
DderXvs9dVXxEg9Qsuq9jlZEiwSy2C2935I/XIQy8LCZzQEr0Z3Jrjt9zJmi44BQ
ycYLxWEpg69jTM+BR1WIaBtmVxzGTxLQ6on62m3XTeyYfjF0BuOy7DHbmYI8TIU1
EeYKaN5kokRTLNZq+pE0CR87royBs1nIfrUcrfiBoJqm3iNVj+ZhrHEjD+P2aE0U
VgsU+PTmrhSLDlQ3JwsBcQ92teo0Gq3Ctt8/R9GQJoA4eMXliqPm2ZV5EnVfLIx4
OPA4gEkZbVKPRb6KLzvS2eekso1btTVQ0ZNFUrCY8lZL3Fu7Wd3x4qH44W+hw1kR
0g8Vl8wMBJU3+APP0moceScXCvtS53hkcCZDtU9wfy6aeu5hNDAvVuW2Bs44xbyw
14+lpgx/Me8xSkBCsZKtbJY/rPpisCsVwO3ZCUM1TioE7st2ufCRYjjxBY+TTkGP
ezH8phMcqHqWRTiWanGievDiDBEyMAlqcT0wJPtTa0MFVZeBNMYbsaH6XQK4k6nZ
Vpz+oZ5uKkDPGNzpsm7W2k+sqkgQ+hVzHN2IPsRMA9/IQjo25hCX2n5+35qZnQpX
qMqG3+OSMvflZYUE/0G8UnlPaj3B446C0J2ll/WbZiAbf4026ZmIWjSCcpByFYzq
0QItX5I8tNUR73uUeBgDeuCU13quTiM1TzT8ipT+oD79lVz5sZcjiEvU7misKL4v
xLPG7eoiNxsG/dlT1monZxk672h28aeVd4kM7HCvSCjkmT5oLvE7P4jo0M211z/q
YhS+LIyB3XlWpw6l3hKx+/VDxwH+Qi9fabyc2+CVZxbUY+ry479QWVZg3lZnJoVn
77MJwBVCuEPw6jf050x09K3/bvBVmh1VZDqvC97AfxkvgMkqpkmM/jCYc0CjpDQs
2BYsa1aDhtmOiiJ6w1HruNlQfyhA+SK3mW8wXfFDJjSlit/hdNNhrLtS3Hpoh50b
BkKpW09DgV8/GX+4DZ/nl5WHqMexHLtZ86kvmQAlWa8I5idRZPDjzS9+nnDIdMt5
LE7Z0+5+86LDG7w2BYOng824OJ5Ow71dpvfnLCWOZRv/J7uhcmbrQMB01Fq2/4MH
Nj0B7y687/gZLYoB/cCJ1noDl5U5yPJjwwf1FKm3MZ34gR65fVjOxd+91segCGGS
hPKYj0tCTu1hqYZPV/RP1TlbtIq7eCNg617lgyVD7l+e+PoV670JSUvuRonNheEz
Qlrtsb0cScPzEeSsjWibYCXRilgHZJp5pcDxohmhjGOQ6hiWg2YcqDN99zGSUKWZ
n3+Dg1xoHeF3MqC7ctHCOw8Rzm6MLIyo5ZZn9cppaz/HfAKj2MsMVZJDL9bJHb48
peIJ9N21m71S0uMdqzvX1j6my/L+Zic+9SFNOmZSn6Pixs6H51t4KddiDgf1aOXj
4dbnM9Hbl3EMvLFJBVcqMRLdMsJkrIbiYaaKlg9JiY+1Z6G/nqeqwJqvGPnzfvlS
sJv1gHg85KXzHiMeU4Km1DH1zLkkNlM2bm63UzFPspV5p7D3sUADprDTHOpMW3BF
R7mshiqAjzoAZ8oST1IsLpBiTc4tyE+UFmhXGUluuUW6UvtwHBdoAUTCSvdNlszC
0vxbp1HvJ9Kvwl16Nz22V+tDAP5VAYxhSvrhdJQpuqI6LNKUaygug35jlkLrDN9H
S1T01ZHlwAheWiVhlvD5YbrpGXAvI15c+9eA5jx9HO2o3djydB/6MDmVwiR6tLUa
gUZ5vD1z/ilwyppbi3Z0XrGTzR8DcQVUvYRVSX0I1sU8jMYNKFAlpEznYWDgCAgj
AyfHRu1qR4tpRa/PGfFt7Irhxdz1VR6ue3TdJfmqBFEhTql2ouQwUpnuE9Ue1xlH
GEowVdxufIVy3d67hEUTAFMvGSTQjF0PyYD+PpbuYWes2+xXRGMTNTdGWlP/UytT
/VjdSeW1G12E3g2apbCK/jtLhsFTBwZxNv3dZ0tPFWunEJRiPwx9KUgYy6TeoMsW
vOe1RLI5pFyiEisXerKqUpNzM7VPvvgQJd/GYpRHNqY9sMe1faID7hczMLMRhQ8j
Y9NXVEighFclyUZiXbg+iQBXkDVH6zaUj+Mamnte/il1Z4PK+GRTHjmKWPRevgr6
rf7W3NQfAfNzGPChwtF/Y4lxLIbv9U+ZhQCSvOhibUKTcdTBuItJ5WKhH+UeHCPX
/tt8zXG+LhgWsnnpOqDNqXstu1JLadF4yn7sVGGMBg0HOMqR0g5nq1cwjqasLniv
2/g0O2mBgXJOeprwa1ktqjQEOtZrqJjQNzpAB7WyZzRvwHK1jqLH5u0ht1dkZdCH
VVrAdCANMK+KyIB6n3/vP93BCZRFT6/o/OGUdS/oFPCQY3edxzfrnCI6VvYGlc0y
CdE6L2UFpDDtixTKQ6NmfcjQaJ43qWMKTZ6zYTA+SFebBvQWSOp1ZzMWkAqn/yce
nivAIHwlOAp2LyTE2uKV1OrYSTmp8SeGgFtpY4AFMD/gM3t36rLO5JY/ILhy/c3R
lAW9pv7DfFqEZ1np55Umb7YL0h06S6dM3/vT0xSpqTqo4K2Qju5TInLCi5yz5RPe
8QPFaUKuT6oDyImIOfES7QToubrthzzYpwP3A+FCLeLvIcP2Y9z5Amf2F1E1RiqI
KRpf1aBXQpiWbQFwMJ9uMgZfVqxghg3sVj/BbSNkvP4O7Yd/wl7IuOO+EVfMkBKM
uDskZk3gj3+Onu0HZytPr2YNAJahRZIXIkzfm5yEvbYgSoq704kdGVvC/8HeNxK+
p1NPFT12M23LDnEF79jFoC47oG3jZzf2sGiDssAnzjdraVZdnIkP6qKS1D7evnGh
crxmG62k6ISWh722dIp0RRAKNvONtLCUkJQ5MsvrWrYX1eURMU3tbmsuTrq0OeJJ
LUdQ3AucTUtJRUD2xOsKRo+/zYbKGEeFiiiBRC6wHz54NNOrsbRsL1y5EXmGp01p
fQ4GQdHQBS4tlKCKCPQ1EfxxG7TIXkQf+RHSpwFYK57paB5YvnRq4bjH4u5oYkbf
E+UfBGWvTuOutzS0PSKPkc02mkZ/07RdT3EXLBLD0Y0y85mXSh/BExtaapQbtDC4
f4dszCeoubxqN0XDsH1TF0Wv2uLuD8uvYUor0sk+3WhVJHSB4KKwQidv6DVDFNrp
1xrJ5V0Fh/0sF2ou40dhwQcsL+hv6ziiHIoLsO6wntYonle0eSMrNEKNuDkZ0owf
eBGhzc4rMi23zexM6+Tek0VyY5HIfoxydKc+9+bHvj0naWLsG4mmL4zJ3pasPGQZ
LkV5yAstqe9L0CzIXrz6n/nl/S/4WXph+vcFJSnO40opaR4GiYUYUxieHRQ8gixZ
MmSEHdXPvraQU5/NY0jO4hviF7kszxPwW61vuUdA5ct8u2TpGNPXpPtHYm3hwRwl
6lvZ5twxfSdpI1AgwH/sAo1pW2XaiBAH6PKsTLnzcPtSnD/3B4FZzeeRamXzV4Fd
wdRhE3qFDQ3XDvhfumJjhMtbIriElb9aEqealIG7CuH16uVnuoNOkueDAUXcZ2p8
0Brg1EaqWJJ1gQEiyxJnWbvJzcGBWzxO7H+PIZSUsmbmdpWKfmf3vjbtyppVAzeT
fqDwxaa99Gmqs4efklNTa2MDo0v6o8YL+jKHgnoLBJdjaSjEMzXTrnM/afsvTSKo
4Mg29JhpMAQbhjf1SVFrO0QgImRc9ixmpb21hcDzNvZmdmk2x9gB7Huhfmj/Z/MQ
HrGuDPgTCSRoM2HCFUGvvgcXbBUJFqGYFeFj8S0LHLqrARW9CHRC9znBfYzysZYL
e8rVgqPJPDVDh6/SMYUJ0PJHaxqUIMJ4B4wM98hk6RXMhdiGAZ16QHDhqAgN7bYy
ccc/9dbDqEjJHaYiKFYznxAxfZ7tNt0+ZSVAZ2QNYBUeRYsJPJpOU2wVssw42koC
nnpMNOq8bN3YymXqWILLKEgbjTRqSAtBfCK0aw4f2CnxOXyRxV17FJg7QNHJYAtm
aRU+AeCdZP8cAi9cMtjX3qQTaPALKB26M7PcBk7TICtliAGeRth9IwdJPWDEX9jC
NBY2E71tQpNk6paWqMDFEg0opJh1IfjRI3LJvWJGrvwdfjd238vRciKN5abawfP7
gS6i/Uljd+lpDM9F28zn4MNU4EnX0o0y3xEnEwNC13xpNFVqE95KjyQu4Y7JzY8i
lJ8vtuTTJCTRZd1oOOkaS46K9q5SPijt3XGILi7BXd93vQk+OHPoWmyZTK7qdOxw
Xl9qe//RrI/EPWD3YuOC6Ub0CuE8ips3NFdFMWW15Z9pmGNuxnd8J6m3+D3ROXhC
GetEHMlU7/9EW5cHdfjeTWDABtpWhL+YhP6+Z0jwk6rmmoP7Al1D6+l4IZZ88yuI
p4BMtb0umcHsPoT8kfwBB2EJe0hUJ79tZc8OcO43Pkpe/MrO7s22MPWLFvhRB937
MdGAIJPTHx7SoWfBqGvae12s2GS1ldl9DhJ8jICszeVtc+6YtiNHYR9V7V3ATPy6
oFJzyQDA6l37iI2zhJe4V6/TXQWG3qieH7yGCSNmDTHL+t136D9OoYPsG1G5P0mq
CqkVokBc19QRr3OdPcxkigKAcCkPzAR+NZnwToP2VffcyLKNd1xYbNEIA88MaK5J
LYua/ObJYl1I87ZtL8po8CeOX+8bZt3uISQsAk6E26VzYtSEpvf++1XobSy+oaPG
0r+Mu59fauNCsYXNVBIMzLkzIl32yIyoH7GkSdsDn5fkeQuiIlzjZpLr0JUQjCDu
SX45OlKDKWZazetCuWpuEnTuucN0PhQwIKqMbAnBvO1OOs+TSWSDWi+keTIbFON0
rYG1DRc1uYkzSfG9LfgFR9I5OW09plhazvr+SiK/Bq/PqHjEN013C5FqLUh1//ym
4XU46f0RkEr0BhO2fi94ApvSh49xzVUZJU8+AEZhBt7s9MncP3hjfPXoCNukzxsz
conOVEndQTRTPv0FrVJI8efYhAlhhHY9M0SuZoEHWIMfuQ+Nlz/IZ3V7jSe8t5kG
GOUx9Gn4AQvyufe4Sp01JAqqi6QmSmLho5y2ACX4Cw1RxlguWv/E6texjPX5SujL
KNXsuWe8o4XoWwhVrswuRD/ya1rLufkxOxCb89DxYWTD4GQxI8kaDc7Wz7IfwB6Y
hpy8++3ty2dDmzgVDMYjMnyNhhZ++8rMgdpTPs/R63As5u3Ag+tTKFVTnMG9Hr24
xWdCEOP6YjNH9hgR3guEg3vvW2ZxFAH9Z77V9kQ61uxK9Ys61LcEYfSLhKKKT51+
9Xig+M48cCfZK1EFzkrH7G9kkkIO+6J+GoOYmsXR4BMBhJaiDQpFCB8Mj85Wc2kz
CONFif5lQDA+P2MoKSthNjUhZZj3gTYGLSTC/hokwjjCeIBGdrGspjBjiqy9rrFf
zQVNF+RNNqX+CryoGzDeKliUD7uUiwUK9yjBy2wj61ho1nwpsK/B/c5GuvEFzI9f
1zgFMn7o/ffDoHY2RM/7H0knASqz1N+MuaUMQgaqBLke+RsK/5P62HfZpbVVJpYP
aUTehV37+7c+csrcm+wjYod2Q92fDRlitPNFacbohot2lW1XshROFnU/wZdKuVUj
/VwTHjM0BlynlYW9g+C4LLzYMH2Pf9kaaDhhV+rxGtOjaI3admqaGpfE9N3dl+wl
DVlWYZ4Jl4IshaS5RWiPzcFvUwSiLuPQZfKDlvBX7j3rDtoyFJWDBZPe5OtmLVq6
o/JV9qhhFOlb+bF0eRJF78AvQfnywIjyf85cMyM4r0VuRQKXoiQPPZpTr2qJUqGv
soWWwIlpMQ/rfT8UqJPKfIrwCPXw/fRRNOTZxiGnJbpWjmyiV1bXpJE1vT3BrfY9
xZHV662FRr0UfELB7UB+vrA8QTNn7gdMrWU6ux1Fvnffql+VBE+/tVO9NH0VV8re
o3JPMIOBBgQgzucrPAaALk5Lb4h/g0nJ5xdB0nMcTp5bpdylVGisDqSCLue37zfL
jW0M4JNCbZ1SyEqey3ZlTAx/Pyv5Otsu2uKZcvr7xzxDXOvvwrVqaIffOW96tsiK
b6CdCApIVUXBs2+YLnQG8hofUuvaQNhK/o1WtU6ViqXh/p+paCHAipJV4OtZe3Ar
B1ZqT8a9ExUfQFbwXCMQ4ueK33UV+2I+frwmtm9KtJ6IDUDsbHaTOop+IVMpDROy
D7hHdwlhAwJ+r1HoNAPKl1ZxFKlQQxOqANjTQEhMrdwvSx05xqQI0NUOiruQ36oV
81P7dREWxWu32UesqA/dDIOj7mVsqmFxN3KIeHSXW8zHpKNVLx0T3aYyAANCxgbZ
xtKg03jmsEJqMS6b0M+zvhlreFr1+WpcD0c1W8HXs9hj8XDltDr+ejiEMNCCO5DV
pH4Mo/bMG450XmMhr+fA2h5+YY4d/Shhy9K9KnQX6fcwNMYQe3OAcgwnYz+dS6Ky
1T3e8fLSOW89IUjyYSxlrTlX03eHLAt5wLS7wzzyWSPDdxfaEHajdS5tMKMo1nDe
uOV3YtgFAnKCN4dB+F5Gbo4sqIJavqsWZn/Zj6OU3Nu/coYwUSyKNU/EgtUI7w0k
8pXcEgadciNy1bouPyPH3OLqzClWB0bK4htDqtLUGVsbah1JIbb9g7el13v18KwL
SahDUsf9LahdDwlWuYi/z5Utgb6pAeOKDgJK6MskSU1E++tv6y0COGswRlUb8bPK
fjMWtVkO7dgyyGALywB5f/NMyFDb5L3mNI5/2416q6Xt8sEODfyFS9wfke6KWkdn
KOL3u3ApS65s7wRak+wWOxWWQp9XrqOWXnBWgNwotn4Ji3b5hgSIcsr/3o+x3rU9
xUgen8J2PzjA6jcNZPAfiRESFOxolgTdKf6UVWM92YJePw+s/T1PClWpWu2wZcod
Ur4PFP60FmeDdNEqgd8ED1LgKQpxNIreqD8gVEH34jzt7BGHdFpMe7XUPKn2VafP
26rrpYJknkp/WHTcD7Zs7Pn21DBOe/C42dV1vfwdShYR3tjZDBAu2+cD9C1J5LJd
EMiAnEBUEwWjjtDRxyql77kAnuq76WZkP2tmkaELc/GvSdTQ97bIl9S0qb+PT2Iu
/RiaCisnM5oOX8a7ihhgw6sjF4gFvSr+0ePBPaH2J5VKBjFPcGXM78ffbrhp6hWj
pJWGA7L/0CaATZMaa+ApkXwHU44I70/KhXU+Kb4TEz66WmzKJS3opWY2D/GRq5Z5
5SMU1IKABZlf1jU5ssyldRApDl+ynNqL+1E771l/1J5dE7FN0rpYcb2ywYvw6Mfh
dp0zj57NTLVev8tsxaiBhfNKPFKBQUQO3nh15N+4FnjAg3NmYJQXKpZbbRiivd7U
UQdAjvF5aZNQI3Bz9lHkuompQc38rQzjyTnyl7L6kxj4qfuGGR2XDpfeivQfahPC
U8IIJbx7bM9T5E5gH0PwrHsigcnMt03TWqeQgqD//ZTKU3gu/Iz7y5s39KrK0/T4
s/Pz3TVqnBp3hux0u8POPxMtV5Mz/QMcGbrxe7z0XlLO7roTlugrKFOOUXmJ3Ehv
ayd1ar9Hlsjk4YFiWe3IBVHG3y1oBaBEfT7kUd0UhQ76xCF/ENObVLKiR+Z7AHH4
Z3Sa0wVlL+fd4/PpJuJh71331FrYpCFW4I785kg8GfTvoLAY123E0HikuZF2u1UP
k08CBlGjgs3t/iBWYM2AzImN9XmJrmrTM7z2PuzOrCvaOl4VKOPof0fVI+ua4iqo
mog58JMIpCFX5tKtO+ehEXXOFR2Rw5ByTr1rblCVKhsEY1EJLkuRChU6+Mi4b5JQ
qYt6KDBZquujcIzATXtFOOKgi5L+4Tw6H2026OY1fVSVauiS35sLZprSnkS72NcS
LlIBnpDxdUdjwStdgMa8ZBBpJg+8lC9MbVXW9n+B1byiR9vgzj2QDvNNnYBIPKWy
hg+SFOn5dUWhNXELzcLtO29mBIHRzr9rWGRudZ9hpow5wiQrU+yoimGl5kUS6FkJ
VhmZD0kqQZLGWmxOR5NJl01FsP68ibbpsYxKBhFQjLpfodZODAXUf2RUszxOigru
/gFLERG6M6tVMmOeOaUUhEXg3XQ3MYnf7QJOURyhvpiFYBqIh2WO2Tti7Qw1uvdG
841u1ppU0rb/3q0pWsEf0mi9KokjDgeO4LWmXBiX4jQ6HgAFRUVD5SU5J6Bn5jg+
yDJgtoBah3XoL7PzUGpwK3gbPGgHhEf7y2KsnSo6fMgGQ7mhiyCOdfUTnCPeE+7z
nNYkfxCU9D8JKLL1f3qgrlf9it0poxJZF6FIAYa3J/g4kFr5cSgeGqPcT9+uENOU
tIu6j3YusdNpO7lx0y7x1Zs+H1guUhgsdxKZHuiB8NyM6ia26Exl1Jq8xrwO+joE
HKlhc30wJ9TF86ARaxfvFu1ZHTP/IC7YuSlVbpxNrIXRTQTX5UVYf2cGCM9JRV0N
5MfS8JNcO5sT02LoPtSUClDts+029jXNjUq2cFeZ+vpNmh84SImRkGplfp2qLyra
6xZIISWlBJk9uVTS/0befAfhPlcL43OOVhOmFuiIgvSYR8w0UEypgk18CB/17iLy
v0+pOlE6kZpfPVV0W1X/6c83YAsjih4WLPmDufbb0mm8RPxsl2gJ8b+Wjwx51rh2
lIBH96sUadSCXzD6C1BQ/3kD1E8YvIyrvyCWMB0NBwlTuo2IL1mDxF8ZDVjMS4dB
KjdJllLWFu2elwRZvKKpVBGSnYjNKW+fI56FVkdGKlIZ9a5hZggTL35PChTKMgvw
eCfwY4eHGebgY2pwvKhdFyaC3iU0x4ELBux6amtzBPe3HL+PdJDSDLYhD2ZU5GkZ
EFjiKBNxZsJd31u8Wbk08tNM1WS/EP7ShMjxNs+EtnRbOS2pNWBqffJw98VFaOm2
VmxpxnrUm9H03lVmEm4EAHcwmfWcOcRReaOPakoffh4JxVw3eXyRXYwec0P4+j2s
2z2KiTp8IJjJ+fXO4/p0Gs72sPqie1I7J58dvN5GVjvKHd7dSnts7dd3mIkPWCQt
xBIuUn80Kxfc+S7krwUC21lvtHo6hl+qiqC8Ref6Iefeu3/MPZQcwCIrfneY3nKs
v1l0FFkJCwpO6XI6kY2pq6ZbTXDa55XfUsTDiLg4KspyFweE0svQmbpbLvSZSE0x
enVo58VJlHkDZuS3nSQ5Cs49ovBxKjfrrOX/4+jPlJAUP/I1FcC2i8Hong0nMgdH
gRSJ5x5CxMVXSoY13nGP720pYzDudE7L17d02mTczbdCwukXTxBKuZsM6kj+Yx7Z
h2aONHLBvh447fpzAxh5GVUn6wMINZpn0INzpl6ZnL2jbyoqpiy28D7ccA6nBdvZ
+wvoz6t2WSjCYwaOhkEq5sJOI+TKr+2yiv4A9JB0EulnMGnkq9mUffJUR93uczL4
tpZ/2snrIH7go8Q/O7nWRr+GDxx0V6LyOqKKYl9Ur531/6B7qteSHKtufL5vHGIq
IwABkQSvr6Un29Hp9vcbWpezxa3fyiA9bRIQEU7vcfeTuOn0wbX+hAstaIBN+F3O
lQ0rGdwn4pXf+KRru8ToSOkNm1cAwd2TGgVvSnyJTwS47NsVykvNuRGv7g/AhkGo
3/3i9pH704zpsnQ76l8FLXe21SgfXjXp6OxwCXy6kioKdRlAIxt71Q9WAsE9x9HH
ZOfO7lSKFr73oAVZMpwRDzaPzRPC0F0eI6Ioi9tnhZ7hQwVmV/3dkhbCmIl364+1
HW18AGL9s2QxFgBUoax5TrYgNtnhOMaCCwaxer8o12eCyWpjfpm1ttvATlTOmHf2
s38PxbqMxLRiRx8o3ubgOJZcZIWPnzq2wlKSn9yuQHcUk5naOd7Is1iI4117rOVZ
fIeGkdKs4wZ5tM+4JZV5r+vF7MXkZTBoZRr9K9qzhRppJIU1zdmDQ4XBb/tu3bOU
Ph549HG9du3dEpjH1UJgV0i3mQ6dDRGIqdZ/xJxaMCa+2xs61TV1OhLvS2w8YvUk
d3cOraaxpS2tsvVpzFmtw6T85ko9i7yv+fsEwl2+wv5zqWZeoXnT5WQ7/5EjP7Lk
8Gum2D8t8qQgRcwWrXXoKpzYUwORyrIihBwIuoG8w7PBKoyFCwPBnIPI7wey0H5B
AO4xttc/reuCIOGln5W/USap4Lgovr+WXI8TcBjoTVpfDBH42nw3Ysw/PifUo1gU
iWradAzCNpzOFlfDqMJ4AfT6fsdNzz7B+t/TpkF8yfEjdwcTJ9Ga8yKMlff8Jok1
bhqTA6bH4suXEMU9WWGYFWYUbmP6fjIsnOFTOrZaaSASmPwhsA2/yrk4fBXvhxub
ARVreSDxzEHEQRL15yT0P2UcvynLfpQDqdRznQMkKBI7QZZml+K1R+IuaolnEKLb
wt9mwPAo/pfjVXsnXNkINWRyBr1P8Bv/BS4I3Nvpudy4WcfV79NV33iQh1izR1vR
SUFaIk4VeUd4EzQvLzCZFS+YJWKW3NjSlFNO1upOrgRJjvcfoPs3Ebj32AqENAvv
UPhu8C+gIHXiMWyosLl/ryXntVR7V/g38jsPnIotRI6+CYHOv4tmT9DxETqOnowV
4cNYYik1T8UIkkEF41BFSdY0lX9+w3/ccrYJk/QF3vm7BDA2kviFpG43kZIVJR6n
pKyiedtsasJx9mk1UlDHAZgj19jSNVbBSMFkloFcMUNWtfHPxYLYWcdV8sGPMpya
omBJKnAES2yYt1XCf+i8AbM89vi6xLvn73kL5pVIZB5v4YRqfKl4mIi+9rQy0aNN
uxi1VNTSP+EnXfz+q+jgP6FcgBYwrMsrDgBZcuAcOQmrETKVDiiRLBQ70Yq8jjIT
GCwxF8hBvBVID3NQectVYJ2ToUFSInWx3UhkVfeIsS6wKliC2LVl7hE0NDs2MJAI
moazOt0hTXtuG5eP8AdrAQNUsN24r0FpRBhaaLu9myY9h2Ee5ZmZXPw0QwEp/Bfz
1CoT5PHgGYNt63koKhx5OE9fvsfuZurx/0/QS0XV3MPyv+YcNGjz5RAbVptr8WFo
R5XS1asV1kQ1xauSpbIhxXu0J+UQ7W/Ln7q0ORWEfZmj1269qHJkfUkbE4oFmifc
e8aGVXQvfjq7Q0zGda8I1kX3OffD6Ri+/wtniU1w26HvFI9jdm07qQqo2h60wMeo
mlQM80BgUgPqiQWG8jveBnuDBKbbSMB0JjsrozD11jVr//N67HqXQN6KEnZzapGN
2LpfnVc+yF7CJzbFyRTfFQi+g7XQI6z8hyX9FrT0qWTKMdY2fkQhDqozymyNLaMQ
vQCJi9uvSqzsUeE4PutFKZ/g8OXoZ51pEO3hFHSj/8/skwlkONr81t0tmo5dEP5F
ZulHFReENtIbF2LGeeu2SvZBUQVNnHMOZkbqq3RqJktr1O1x35lJMYtgVyi4QJiW
+Sn3pDQ5aLiltC424aZtNXzggncNu6O7hrU2rMBGNR0t2bRMaFBC9bKwCL1hhr/u
h47LqHP4Hx2KDzFGU9DXj4HTU48IMqr/L0p7hpnO0kMUjjwMe5fFKVp3y2aLDmc/
cUPIdQAtuQLtP4WdNV9dSBOhzk5FRYF6IlVxVSZSHcTuW3hI6sbrxePzP/IErdVC
29b31a87RLeCvDM9X4cYiQsZvszhm9qY3ANSnUH91a/a6X5F3zakzrtG4ciWS/V9
kN7GCqSktTQ6v8itEABLeUa/NmtbUOHostXut2JUUcub4AUz/E6FxXUlVyu5zgj+
6GEwvb72dZbakryqLZUf06BulO7XKY3b9pSIoByZ8Mt4zrc6lUIT7EsduOFLuEM8
dwSONaGroi4glXTEPz8e1xx0usAr2N5FfwzhBc6qd3WXwyHwjzPbvAaazbAN6hL+
enijZAdr7u6jxq0cnz3yZcbsZbSk0q/fu6fst5TVOZepTmFiEAkHHq2cKeNFg1FQ
qKWbHysQIuyeRAPSemH0XqLGcEtcj1uDZuQwSnO2CNTbX3DLeWrkWJBzBy8WM1l/
tXPCBcprBPP5w44NRHvJhm1qqrhlsW98yToUGgbwUS5p6CPaO76bFF29lmb3SwqX
F4m3t3Gvkf+z4BidFs4osc1ghjR+qWh0C6pu7zkvdRbWWGZbT7FEBle8352XTe6N
aafg5mPumRxdFzS7Uv6xsolhpDxAmmxUGKwSgE/OlrSnw20sWo9iRCqtLGxzaCwe
cpmQ+UcJxvSddx8CZm3z5HdgSZcr3FGgmA/1/61xeLuhS0CS7PdiBYfQpslTuCUc
dHT5vjgI9O8CYuhCfLstJXchKTbgAwJSwoMoUnCMSw2vhOlbFL4Z3g/cuGHIhDtv
DA2B4ilLPgHc2reGg8MLPPn09JK8UgV4ViOi9xAZXZ2fqYKiQ7aSVHIKmH1/r4Qy
qFOHZCiBZvlEd7+SfF4y0gJVnbKYtRPHmvCDyTeO10EAmdYBlrt7950qxj0Cr2di
uHEaXpeawPH+LI/neNX+88of5E2mrWPne78BCaD131GJtrBB4futG6Y02FKqqZTS
exbOL6REIYNIwO8v7sH14eycKu0xKRAnNpqMqCjvE33mJnLXJ/KOXvqA4iD3pgS2
OROPj0HEZ2HIpI2ILxMTc/nmokdic88fUI338fitJrSilRMQKBItHk/F9DZPsDEF
DbH6eRvuUXggw9FnKm6o1ONT5e4YH4TDxahcozpI53TxyfNnf77CXAGtPib8k6AF
OJx+1c7GL0g07He/3CKxUzdEYspJUuDJ1H12LYnBDCvXXHpZZ/5USdpfkk0phFet
+bH6KjWiA1ZBg/gN35rUK92jIwedc7VxePHzBmhYwCIAI5GdwZVjiyu2PeooMlcK
DTIGmpMubysL5I5P7WxxCwN8i5cKZLrVH5qYF5YJc08QkLOPDIvWGHYehhl74DJX
Lox2BUGtFQO/gSMnNA2QUs6k+olJxlH98xDu2tDTF86RmRfBMtzfOK35YUw9uhbC
1Oxnqtjg1rmK8zGOl3rEaICa3V7xHxP+9dlw9glKmiLqKUazNHJh/piTdZbWbyZz
LBSJsKWXQNXgur8+HoRmTPB1gm9VdLIVcG/4UmikOClgJ4gbYIjLnRmaD9f1cUHa
+vwH7fNSU5fYOQbfkknKP9zxxtojDAgEpiQg5Tx2B2bcu3saTtcnuQ8FOkv0NRB8
aN++8qAjUsve1XQ8ML+hNl4TRNGHevy9bXdw0rJW3YZZxfIZIa7fB1fZIPyypgTG
zWtX92xHuiyafOpRfpfsAO30f1FdpOqbJpZa8SrvRGMgmdIIi5Qe5ZzLJHTZvDpy
LABOKUgaTDJX/l8+xX0PMBbPxuZqQVzqDkPxvpK8GDkg2YoH81lWXYY75vnFnqcc
XibCK5q0wApUkyLKCSEcuxkxzzKuUzPai84pGpTM42c5hiZsT/uK/IhvbLpJ6G4X
yKGOZNfEK26Shz+H0LX3Q/a6fqZzoX4Zc7lEDQP48D+q2NjoRVIYSTZLtO8l0vaG
LnDoIt7yWe2GJ8iWp3ilISgc7hqgMgX1w342R8ZNXG1XeOzjtV06QL588+jEfkRz
9VdtQVmF9sVjtCnoSCC+MmRUUrxU3DfQqDKwgTiTsiTVJVls7aV7BwkxlOeArM4X
Ya/w69pTZF+bvUZZzkRTlCB90FEHzbWJz+s5OaTWMLO+rYNFD+1xR9DUBL/doXYF
/LjteTvzP3J0yUNRB2UV6823KKmHBB3rsnOUIsEYc5mr7hsq2WZ1UE8JuiITV9N6
Vmsj/gNJAJNL14Z2MDsSki3jq768BrzY4HNKisA8mWn+nY7wef6eANpw9YmDakiE
NovHLVeTfUTXGSTeIijh04yxeoRCZGvJdPn2g3qO2CRuQKSPvHuzWBwWXhJxK9Km
89mZrrPXMTU5pLyfApldljjUGGgvYDRCIOb/4WFQeDZOeEwtSxkKjMdMrgxQB4PL
Q/2OfBiErmNFMcx+u10iWuuTkU6jEaivzYAaIi4QcXjPKkxxQDx2/gCz8mrZ1ygb
VQkGKJ2rDpoGIAal7jtBgH/IDwQAS87kNh826HAzsyDF25ZW6/VeHWdj+oqeYrNk
SvTrQkxbbLIBWkfGMJrOpT7VHZNXhxfigM7SiXSlnL8OSdWKi8GCtupkOvBUCp7V
5GrWDvRPOCYuJM2vC/o3eU1hOXyoUKuYboU21KmG40oahDnha/k+e/3KqQdluLBf
nvn38GBTBlYi7mo58Rk3iYqo2R3kwmRYoLcidHfHCOo4Uio29Y9VoIKQZBWEKh35
nhGG/Z4OzHopr7IafbIv4q5WspoZCwgIKlDmvZ4cGiQhWDPwMj66pJMDmIrDiF0m
K7YilS6c9bW3wAulVc2g3wgt+ag//UnwhmUHPZEbGj5NJznD48sEi2Zmd3ENQgEq
OcWRwd0EdwhocJ8bpRJyigghfQgbaa9UrSnnfXyuKH0J3tL6XBAW3UlQAgNGcSOd
u+gl+HTMEekkpVlMuIvR/ntKOnQSUP1LYyV5Sqp6qkIKMJfFe39Yk41BuiEEsPJ1
TpiVnReauEmMFhLWSsFFW37M+LTLXCDfKRola/ygYHNazEiZ/vLc5n5D+qcar1tw
eszsEojRJbc3+Zj6/1qQTvL852IpGtASVJNqjvp7cCjxJ/bpKR6D1fRtkvVZeccg
rgHoKmsU0CgBKPmklZ0Cf54xjHiYah/qt3X/3P7GdLeqZAuNTrh2UfCRjjQxDrOL
pzyyMTPCWbZnuXEbPVLjmzsqD/E7H15yANFG+ODg1k6yratKyr3x79Ieh97I886l
lqSth7NZDsQUURE0XEj20rLamtLKwI/W+XIFeHv341AgczzrLMa4ZrnaF5XQ/vKP
M8yOB8A09BHHtWT5jQrnJOqNifG3L//uOGkXbrNhT2G9BBlGfw3GNM/RQ/PcgFUU
aCq0U7ae/8rULFuS0TAa0+3yamhoKEDC+32hufxs1qw0XaqjqjeZzEvWCGCq4EQW
a4L+fqcF2637HDyndnZuW8rquIfa9qtQ/9mZotb2waEGHw/TAWbMWvIPXhLlVAbC
C5fTwvk8DPcubAw4G9NG5GvmJQIaqrzl2kVE1pRBUtEwLE1tSpQAGiSZXC0SIvZn
1NkdZt2Y/2fKASZQNO67W3Z6RNgon/49j/r34wkbxB2ohbfwZ4BrDat2imBcc3Am
/1fdZW3fKCFxWnme6vyJ1K7z6k29LeKsSibt+nvxLdzkB5L/mjedR6a/KPRjMzYB
EeWARV23nYqmLOtwoeofLQo3FROpWyCoyTVaGj9GZg1e794dS4FP4BlQlnvqvmFr
VRnamGgASpEvkZkI+XE5zklWUBTNuuoz3ZwT/ilKikht2I8L8bUJR1jThCF5lIQq
FeYB4ma+3X+ujTTDzuFVo5RisTAeqTIqR7Z1LwEHtWX0FzWkpDdKXfKu41AWIiik
AZ5DVQrHilrEzFjFp1aERZMhMxv4TBAHpJiJN//WcBC8IBx315+Ct7HP6c1g99DQ
jClCP4CRLzshAeDnx84iwmHDnbEerWN9mtbWD+c7NGQP/c5ANrwj2kzL1HPXdHxK
4+RS1XrTgL2/tVuDi9URiBWDnullxgILeSeWHQ1GdNPDsRszVk+35m6BOg83qTKh
+w+pkoJbwwZC0nvv2zXQV8CL/qbxmTbDufxUM32YU/151Kr0TowpBJjPtYBNbnQ6
dWc51mG8fuxxSVpLa+gqiwUqACVGwi+M0raauVI1O+Opvghi8Cy9eos5fbAhO9oB
D0Uwg/rj1xhsxkuHcHUJ9VyqBuQsHvI/sU622ZXVEpiriHjSSLlz2q1Igj0Mt3UN
2ELlFqbpWiaOQ7/0+Arz8RiatCvyDpKv63QruMUAjG+C/lYVl4xd7b87YgYEhlly
jB4MEN67cHfE+1pZkpUmDZHBGGIfSLas+CLaHUOP2x2lmD90zQcRihfxobxf4kZB
yCvyYGNOi6w7VYcJGrYIJvNLm4+XKpbnZo3cRcL0QYX44Pg+hoqnviVOQM3KTvLh
bUAQKX/GlR8Wa9PDoAiIn1D30lsBJqodNw4Hlus/xHfIkFK4Cq+lg3HP8AEKpgqr
YJsr0ejrQjKVrm1hGuMtHf5NlmwEirpYKXOrt9CDRpZufxglrqQkPFTido7OwE1h
5IP6KJXarHirByRAhVgJlqpTWHEqqsH3ue8sJeduhICjGGQZG6vWbcLmn3yP1UJg
Xz44UQuw0L9YyRPEXJwVAx26Psqfd7JnMWpCclQD9UiiBpYsJUGMqj8GkCnH1P6d
m2wbi7L8gvZNedP5uznwO3ENVaVfb0A/+ApIcZyuVWwlb1m2cGACuIecs9xhMa2r
aWN6HNs0U0Q86KmjSeyEcRAjse/WzhxPV2IfxJo4a7lqmNKX2L3sZoNBRvtQYhTB
2EO6N7PqEyoJpUJE7tlFqFO9rdQrp8TjiodbNvXkk+44DLKSFGnDKXLZNTX4fv7T
qo+AXsI10p0y6RMajnXK6TkM9STqu72qghZ9DsCpMUEt5k2EYwFaM4HIM2cN1hag
1GLlYpjKIh3wDboRxh7ol9zqjNXftsG9nLizyiV/6zMV1aykvMCumSzJE5j7tB//
QYqYjXGa/LpQqr6fkTJHmPO3a4NTkvtNZvHikI924EQVo6RX+Id+L32pDvQhvUG7
UcScTQ4SChzwZwX9m/aASNRbN2zWnFTSokfFgmaaBg07MtTJ/X20bqgNPZ0uUT5C
gkl6X2EA/f5kNUlZ+CqZKUFiVbhyLgiEZHONNSPoh3XMnk/x61m8TCGKPZ5lteJe
tY1n+lK3UM17VF9QSY0KAhp7UgczzoExquOkOuZPgZ8cftYjsBPVFSxfm3+pPm7e
VwDUHSLA12/cQZaWKoNtJUupWnJcvS3+FcIJZeE+4+C5WX/nDTXgFX2ydUxfJyAI
J2L9GBeLONcCbMbPz2Q0G7HWGGWS/dIu9BGnRMW7RzUZUOuahXLQr1FZCTGGK/0S
I/uHER+7VE8C4TkxY2kGL4uCarlhOtfaDPOmOu6Er8a85D5d91tIY/CL1IpfL5W3
1I4YfH1Z15y8TrqX6CFMKEJje6WfUO6AUrzchCeT88c9tBdA0mGvjjXqzT9jFYDg
fcWZI3mbNAdzYtGbDFjp5UeLG+7V2uJkuVI4yiE/z1VlJA/0s3kVKrQSjq5OUKlj
DH5JsGPLDT6xCbacY7l4xoEBCQv1ZQTn9kzjStMFe+c2atwv0fBWz9wYqhJoRDPe
ZhYPUnjG+U9ncIP0G3fJV8hBRZKwM32/xoGZWe5Tz9I5vOAeY5FGZZTJfJcAcXg+
+yDSCLo6OerWcOMaEJvMrS3ZrJkn+CO5Ge+HSiHDPa5cW1DdkZwtZ8xByGjpEAoe
XwF1nfcVCPzmJ5q60zJis1uzWXvQ0Wqt3I/M67j1CpuhK7+UXUS3Iv/AySa3RILG
ll3EBRL1GLY7TS4QNdosjcrX1CUS/jm7W+rQmiMy9qpEG/z6L24FJ1lXDYPZk5GX
FiXftAAQhLDDWE5+2Ilv898aYHzcV4umuZlWbJWaQPwECKuFjlJ3CRerSlY0L1He
aXVrhmjcbX1IrYSWW0kHw48Y/nVIvbQROQm1yMqvilD4z7wbkNpRIHztgTb31W1W
aiPPhw3LBNyEaQIPEyQoVbQ1dwa/ciGu4UeBuJDmzGlhWMzjEXSicC0XPpF5duFQ
IP7kV9oqnZZnp3VjZIHCJmEDC8mh7gRiOudJYdqwyehsj1VUeWz4x3+nLrHjtw3/
9pL6T1BePwW5hZl/FnGpMu2BGlbYvhq9y3b5cMw/2UGjkXoNA0ZH84kNli34EqPI
qp9fdu2+pToWmkADTVb6i7pBzMmEC8mryQ8sKBHbGnXmcT7D8mBKXcUUV+BFe9Fg
UeVW2hb3ljzc8EBEAvWiOnSLXiVFx7fIIdJmcMjR9znitWKCcIqmre+GYDM4GSRN
9CIMqBstdQJ+GpcJ1+H5q8Dy+e8kJTYkJSeGHNi/S8W31aYYoXfc9r9WydS7uU0J
uOZJMUVrRfnCFUykYVNgfysnN+bABJZ5EAfAlQLCtTYBVfJ5bR/khnZfoCjTOms7
B9sNcg5g5pfsYv9UW+8JtxYle3eMmnrlgveGn2twuhdsFZKuTC/JBLoZJvHVdlA/
1lKfRTEFOhEnmq/srNNsImL9K+FAR6kTBG2epYa1TgVV968muoYGsTe0ZTR82o6I
U6hbuiqSwjlP2wxfG0TFg5SESF9BMY7bEvzEdFN4dHMbfMk/dCVigE9woz1EhikJ
gYRRhrszcF3CkVGWsvnTEpq7zPXncwmDbQGGvxsAYkPPKqcitKjGivfkfk67xD02
DzLwRq0zJtwVjTdVg48mQrIEFQ/8y41B2hfk4gp81EgyHdP6uwKLJZFIwY9nlztm
x0hjPChofRxlvmonjqx/cyh5eEHxxXKUOTNQVwIGIE8usLsTXCeOJew+O4G02LBS
sn4A/g1LCwkF47+4AvSnVTXf6NKfiklewoe9LG6W9+/TZEuWQ53LcKEdo7NL58ZK
sJue8YFMQCPpjD7yP/hGxvcHeUOwMWI2b5sUDEyP5trr7RurZmYHbXghxwFVEGms
YvwS+S53/DI6sNgSrwUwVFuWuL2Vl0QeLvRQhOZKojgPzZ4vtn9cicOTa7DD7P3s
nMhU0cXG82VFVDtVRLyuVlQMH24qcGSH0N3F0IPj8qPHVLSCDaN1Ff+VZHtm+ULb
yq02ETBqK4Ul8b2gpVuL8OcE3CAvROaLg+K4cZctluqkO0Q3Y993GQki91PJGP42
INl/CqjiOfSe3cvN8+dztnG4uKz3JCu1RB3OS8Ii8uQgmcg5XKNJATq4BKHksped
uKZiqMQbhzeyw3BJBbLRBL5QZ6OmDMzRH3Qjn0CHdZTdsa0kfnohkB4cJuBe2smD
teecFOdjhytYPoD3NlYwLRWaHCTdzE4LbJ8pSiAeZy7BR9GLZLrIN9fEYawkniyI
Jn9/6Bfx6tGKh5w2ARCt29qeKNPsUOJlZS0o541yHDOAZxd+z3MY6atkb49fw1kg
u0mx12HrPBthjatP/Q2cqm/pG1/q5R68rMcj14TjujiXpNasHojam0Aic9Q+ldaY
FwxAtLGLbL6gLYL6NxijHHCcIVT830glQGqEN4wLTz3DYHpvbRavcar6m+9j/rkX
XjRFBldci3M51J/e//dro3YjehqNIWwvyf7eLHSF+ZSy8W6P111eMS1wtVfDxz1S
dG7dcDMXQsdexd2W8FhZQelfgpNqKvnBtn+Bzm6qzMLlfnuS1O70tgT5EzJbiEA4
pfEECQBgQ7/Bqo2+c3dmwYCnCsjRPR70eEhbkUf99X/vkMewvy+dWarRm9uEkAE9
R/pzi1xpm+9nxe3ADIyfjFO9HInPydAj+1AhsIP6DriTMn6qJ9CrBKKRp0sj1WUJ
fykGUoTvJAUkuLK9FpRmwlDTdFnApLMmAQ7zcmult/XMHZ0JdsmmTBeufQhSoV3x
9R1VY70TJbh/DP/db/biJVCvtGg5+BxroM/zBKVr1sQXcg0+gWbpyyS2jsrD8tDS
Va0OdnrdYp6DPO3+5qkjomGDMzGv89M0QCwvcpYf1efIJcmRnulNS39+hol5rL4O
L4OevMmLcBaJbR9l7bpo6is+cZI03ONl+XM7JpPJSm/n9le+oy6xcgZCLhTEl5nd
1ze5cJkdN8vFOLAGSKh9hp85s26paF+slQdzeA+DqKiaUoYjP3xZjJNWb+iDMbtx
sJDm110mU/NnCXPca9x/g4VbNnr1YVmeWAqdIIWFo77DZjjEMc8kGs44RtL8WbO8
u3BLTzSyXn4vsEtWFDcJ2TYFkgRWFj5T3Uqq6pkEyveGJurnNPBrDgyjoyyq4Scc
vSRDp7+ZU/OdTVHDSPrU3+Q0yX5aXSlbDdfY5h6z9GZLUz7pgMqv3zUJXN2eGO6e
7+L2PV2/AUgRaVGI98/kRjCQXKh4X7Dtxtspa+dB3Pq4sFOzno+UBQS84XQRtu+9
tUnCXMArZo/H+XKxQlIFWpuWhGFpWwFQ4GiYzFnCJCCy/cCRgn6Wi2nltinx4FuN
nI2X4r9DdN0oZk3FnT4qBaitnbpEg+ilr8DxEzxd0XyQWvyt9Tu9UIG+UWtSDffB
6gl1IJ9uNn+TVR1HW9oKtpMeXdrWMc1r/EK9WLTrJ+KBwYhxPlzCvBSw/mNaYIzu
xtdZt/VvZYIftuvGUp6CWmk+6zzoYcXB40aKwjDu/ZFHZXQZaCz+wp0cYkyvjJdR
m7S5vIc3UDgohUqFysRTNM5Y6+58N4DiCL5NvbtWcuSIEf6CgQFc1DAfEsuJ3H2W
dRZvLVFi5oN9R7OGXUy2U+J1r4CHgMnXfV3kFp4H3g93irCT6qZK4jknD3lElvDq
eWtSacNAS6mY1EwHwi06mZKaSvkP3/RbltEvL0xeg/V5cdIkXCieWSr9xDn+b/WN
mmKZC2HpBc0wnZvjLV9uR/81gQFWUR9U/q/4aRiZT+yPS/V/iDDhiC3sgUUGVjKf
ddqTzU2WdH0SwVS4o+nWYKPIFKYIvtkXedGQvnX85GXPWRzYi7r6Ic5YRVc8FbND
c6XEts5JtHuZ5ijrXsrUMwL+Q2FZ1vCjIh3eOcbOV/5n6yg+/x6idWYBTJd8ByHR
OW2W5AN3FyI+wAmOw+lAUxlY/zbMJPHBzGuXnK6AuyCpmVQypcAy316mRzqiqc3r
CKPGjdBQVsIOZzkVNNFJPCUlHKjh5NoGIpQSl2dDc/oC4F6xIsWMQ6CEexyUDLNR
Fpa74I/O1RfbBuG3p4RvWj0nfw1V0aKyX9QSRUkcZH+YuYNaduUxLNFXQxCxJLnu
yj2pB9K4uXx6r4mrP+WBrD44zPlAVgpm2p3gwo3eFYIAB7gUYAuKD091pj3aloW2
5yVkWd4oRVqxDcNOjFR/0y8Edemr3hUHKLQOEgF/aQQDsLIBnVHMdbbczDDkXSD2
f0ZaaYtWJMxFtblqg52XI8f4IW0GK4PD1SVNezYM2mBXNAqGssKpUnxbvyHujMPF
KbyRJapXEhpUMnGAYT5+feXaPSr5U9fnI5YCGtGSdN11iXCnzn2XKyWx/VirN5xA
9QMdJj3VAriJ9fO1PpkpE5RP8mA/Iy+V4Syt7yYgvBRhdvi3lgFmtkWG6GMae4/e
ufW54mKCWrXfbMTeyy0Qy6mSdNiOj8r22+NZ9lBxsm3Oarf6EvKMYYuLQpxn7p3q
FdG99oi9fFbf4DSdyVHigR1r85ROEHafDxGZsJ9xkmdvzW8+chd46fgfFFbSwk8q
aDTzDqEpH39LadiWCr4FsEk6/+IbqzdpQ4HWWhSQIJGQvuMSwYv8w0Il9TypcFs5
kGAuJOECsX42nzuqSQEsVfQzV/vFk8qzvGQYTcaWYKuFZsclre9QgcBh+EWZYCrK
fsyY1+xd+Bu6s+B4Ic/9lyEI13l83y0EvP7h4t0rJhcNN0SQEAQZHlKatGhFHWFe
Mty/FCUA7NjuOveIL2UDjvvsCvhibCcpXql3TNbzWvqOgqceRR5BANW39uYsM367
SmIYy5N2y7JkJM0IOgYB9HtGjpmcNGKQdNWex5CGicEvU3yeELdKG5Rxze3FRrd/
n1S22yT8LHiHJbK7JKGIo3p//lgBpaKJvwU/36gx8SmGyYb0NjDoqKSgRO/WiHo5
3vnBam4m0t5iqboA3aGETswJETY51YtDmBrthbj9I7cUEkqaVyrlfz9CjOWSs0L0
qoJR9ENWoFZl/P84AQxdUgteiaxx7xORGaTJwM5LLFSh7jhDeOrpWDv8vwIfRXV4
iKUFrXEJlJ8kI1zGuavTLaqt0jvX6Sx5Tp/5BwSllGHAK+SCWl2fBQ3zzOoPlFdx
EY4ijYW2M7kAZfIRj41EK6tEUSsPwbwHX++KniLxE6tg1SuYdQ9daP1/yxwzf6hW
FbPAMvmSnu+5y4CyK1XRutjbunVTuvSt/1jrhHo4YQoZ7BPP6KHJQwu9H1GzwE+a
d1K0rFhqmB1MDj/NkIBsKx+UkT/2nb0Y1Ypm8Z4zjfht2s/mBviK/KflyGvM7aOu
Ey8NBJG2yLSQQWNkJlepAOsT/kS07NxA86hOztP5oEIN1a800/w1C5YyRSgoo8Zr
/xNKT91OLXKA0E1tx52eQbkBHUnfes/f8GL1cIhRwEBBYxOeQ9o4BZX1AF5/1dSt
2Rch0sV3kO1c6fBlkHXznVkFDb5PSGAQ4+vRc09tRSEBTvFVBlXlDfk+q6VuxKJN
n4AOaT0Ki15ydObCJl2iF5VPsPGhoNncy7oJd9H7gaZinH9BGIyA8sYIuHZNalhI
5ZpfLNol3vNJz7Yu2zsk+DTHUbBOUlZl++tOh5zZJp0xD+RZ4fEZzLfoFca2QLb/
ua1ZQoJ63ErfqFr+rJrN6mDR1ctcjm+mdia/aWrJ2vwTdWOzeslP0Y0riyd863xo
VEUcz2dUyftfuLHCpMIHQNw4ELLXXg5K3M+I9Nkzd3cBsfpizpMMHdZ53g5PFqLm
AaoNQKJVWOE8zi5/jstXdsw4QlPetONztf/UmlKL8y99GurcxN6rAz3A3IebIvPL
zQMlaiUMLsV/wzI+dF4fQWCZdkhQuHUmqPJLg1N+S0nKoiAw9sPLFbx2hpCNSSrb
GuVi72q29fufgBJuqQTDK/RheDU19i7nRy4Cgtvs+1GtWNG3pDXYY4FoL/8USV9E
6cMTrhf+SzoME0ObyL5s01L/TYuh6J5dMYp4v6zy82YU7mFnBS1YwjON56BeUzFp
m3R7HBJSZJyzWvMYqavsTi1Ee1Tb6rS4kuyBBWkyzS1uAeZNLBQ1gbzC3tJi8SHY
y1yYfDzl01krK1RbwmYdp1wNI0PVqR/ssoBKVC1jJd4DgMAKJtGwqBRU3Z7DcqOK
fINDkGXTIFOGuR1cQuuhPxSXWURyQMvV+p3rxcY41l5Qj/ihzrE2MFj0TsYM5xKh
6vwLx5xSToP/u8jYpkYKDbCaqTuNezLc6NQcnCu9VHFqICzVQfw6d/aD3E05Yvau
ORsjl3Or/DGpEcPGBnsRT8mk0GgNgxFXYEyH+VVOMd5lOD28ZXvWHTu8LS2IJZkz
tMmdDc3hc1sIiCDgHz9BcK2hNjhVZARI9ybuYaknJ+6AaDZEglg+uAETQJsIkFj/
tZW0OAah4Q6nJUbAo429sEyFEj9Cj5wSR5bSJoqloLKj+zN02oEZqSCCv8yypKsM
KGYoHQth3K8wp5oFm2BdH4+0b5IREdGNcEZgdLsN/9VLSZ4u7GEz+NAy4403lGPd
mu5Zs3tcIZulM05mjG/CiYy+4G/LA4so6WDaz2ChpEDMozE1HC13AXKvDsrBVAtb
eRM9KXxAq8bGxzrsyIT30i7pxp/4gBoGPw1rV7Zfu9gT03z7UaaNBRCjgjUgakrN
b2zMZ+5lIEc2hGXh9Bn3Zz7h8gqjD02qQvLGuTfc32+9ZK69fOKJ2K7o1kYKViKh
N3zIh8Pc+GrlKH8gWsL4vZE5pL6Zp7nUqUUY+RrLp028JK68Ke4IbMrnAypxyTGC
EkTAf2OltDOQ6Nspu3+PX9UXu4hRbdaW9pveFskQavOlmIer31ngaLI57SkpNq1+
eHUnM0atiBu+ybc/X8r5P46RXG1B+245ysE5b6IdRAlLkyUjAxPS3N0DCuBy2LgL
iJxeFpN1ajERYc70DO5xKdciRws4xSnqrR+V7lF0+iNEAnNCqaG5CE/rYQU8ZC2x
9aduRt4jnIF1h9V/TH9TQ+cSSrRMJ7A5r/hAz5Em2vzt+v2MwGZkoY35sBDF37/J
XsWo76Ktd/ZCM/3OOHLxRk0qoKd9jz9xt/3uKr7znPiDuCAckXm+qMskpKX/ybO+
AmXZsg2G7rw6Quu5+Q9dwwcLvxtEel/66/KQdtwlWRHuLwm0zRfyGvMpd87yAluH
r5rEZy2dY2XB61SCtuXtpiZUn2N9n2WlKTAlPEB2tCkWj6vXtrWmN4fvQb9tVHmD
IWwWCIQGqWjMC7SUsrGLm0tc2avtm+dv3d3iT+4kLi0xe2w4oUS9BH4stTSxKVt2
7dwZQzkrmYTj0l+N7fYpqC5HbxpOC6EdDXcsyxbfHNAg0vee1bKhHyZXfIYOxmyT
oTg24oH8DZQJUBB1ZXYQ3xYJCM69pOQR7OtZAQ9qZR6huS+FGHQB+DVPcfq/NKQ6
UAmrnNZi4fAaJV4IuTCIpcCZ6Z2L9QNY58EgvO9rnv8nFxWpKiNsCeg2PrtJCwqD
5n1g/nmSgj5d/CCQRnNv2vofJnPkcV1KGghHWHzQXdNBTUuJ/8b5pqMWMdyNlxb7
P1MT4seqN9cgRA+gii0FQLMkEcGgXBqVF7Q3YtIL1EcYAYPDiIpPdY5XUbhY/5GJ
lmIp1fvHvAByKPM6ILKy9Q5L3DdCIFARea5o00qmuPcYWgfe/Yead8r0lfIh0k5x
Bes+btSD/mp5Ay/7pB2iyxjZwXLveIv3Fdg7NRlZgNgbA5GnVSh62ppsR6WZ/eUW
4hWvmn+/fp0w5USKGBnvHSCXOT6qm8aPT9ebYPlpwlZiP7EG5Er21j3V8VdixK+6
vuzSCkRZeMRLqpQD/terW4OVe0aR0HxG0uYYMy/5AnP2ErQgapUx8U+jHl/lXGJ9
qvYZg9uz0db+r2K+EbaGX7UYcajQ3uKsRtdfEqlju08t7oQ6h1apUc65ZC0AVmNG
rH5x1rqmst2tUOp1R1j8CBuj2Z7JUePZ83kKb+h8Ioft+HmaBvow8dXWgn2njuja
7KrzGZXpu+c0hYWYNO5cOHZ/rlS2yz39lz98LgWIvWCnOp/fTV0qtT/eOSa1dTWu
PmB5WFvd8j8buxeBInDcOcZp7SgGqCoWlIoC/TGi77go9w7sm781Ku/RnOwLDovd
WHJ/W37AMcHDbNB9rHr5ONG+Ae2q0PQd9pJ8YnsUCBy/K7jOoUzQ4eB7RS7eUI5e
HYg94LDTfcKo5QtS2DKy7bwZcwdIXiToxQSUjDz20/E9Vb73qKij0tZDgDKvGKE0
//RMqjS1N956w4DNa8LUP3Hi3Re1Bh9PHIIu+A1gjJ8TmNNQiOkOnBWCt5j+w1JU
JwnA8rbGz7Alpt2xiCkX4abBRSUvhP5qpjEjzQqbsWzzbOVTYDPTmeyhXbm2DlQb
4qYEOoaf4tUU7QKxO1UavRTGyqFNaIbxLjkmcijHIZ76iQRlf7ShJugLOpwlZi6S
r3HPnLkf0aps/46CnJZpLkOEgTFmeu+wA8uF66ZvV4XCzAp0BcmOeKc+4L8Gir5N
ZY8tWvhDdFnBroMQRZQQV4I7AS2b469TVVi9ItQJzsMYl7lZGB73jQQKmwM1ciOo
E35uOKqg9AmaTdbgskDcj9ok/PbNRRFbh48IULLpgfBFddm3CSn6/YkznaYoITLH
XeQD3E6bERt9CFcvgoEOWFalLTgHNLQNnw88yxpwRtWIP0s5Rg1pcQcoO0vhGkyg
i+4HS0cMdJEYmMsI/9tAQLef7zsH06iEz4X2E6UUtz1fSbUgDBfhnFoOXMX3MjU1
BfVFIRD/VmNO0wvpvZGEQLo4witQPv6491nDT4FpGZJEHohwvwUIRxGghorPxcIA
fPo42CfyDDL8iNVnuKP0SiwLAR2HiKeBzoY3Ul5AcjK8/RZeaFRj0D+mt2s+8Aqe
Scx7VgiEOiBbrpiBwip2l9GZfmZTVYNGn5lruOAkt8WCT8Nh2+4NyqIixiBACGY9
R66jq5KVFFUPB2uzQ/gDvZQ4JipbllpIv+hVEDR1pl7ROYc8c4u9b2HqKFAwHC9j
ZOtQ2FdfjCVVE/gkYgrx8GCQ+IFJnLeVCaeb+jH2MAWQp/tv4KrbqLqN0HMSXns8
rxl0LERf4RE0J/FoGYaFHh6zaGbZZWqZDWA5mYHlxZH9qdJTNS6t1aiywPC3uI5E
+O4CuHkkoFexZ1CtkdvNaVzcEbEEWcWtDuquI32Ldzn++KTuh9kmYwZILtlALgby
WGz5LLkxoQf30UEBy8v+nJtxhV3Z5yj+kuPvu/Ij/ORqoU+LUUZPtSOLBOHBkCsx
R+Uw1JdgOXIQLBUNt8ulTj2Wwcs1+R6U5nxe2yniJxA939hyp34LF/k9wzXuLmLr
FECs7S5bYtbJEodaTeLhSHmbyWVEexPYrSY8xAFajOE7UC64BInqxGiuxF75anU/
piMlsVKx4gt90845zrzI5ksIIUndryJsA0nQIgDWt95eRAGMoa3u0FIMMnvlX4KJ
kmMRH+aiad36PDVjxEjn9tPQDsdle82y96Q2qFuHnbgzqMpQeEm1TiKlafCxhsrM
itd0N1ZdsoCFUfE1HaBTO6z9q1thr+INsfYSyIP52U1rHj4NIUNh5kqANZY5ZGln
lEZAWZJXCA11NXLar5D5VkBnLjCkxNFIrhFzLqfKvv1HGVMFSGFaxjPKihAgZ5RQ
EHOO2u2IX64lp6frqN+yESxq65xm2cV1VeSLGuN0QSVB+jhWDkhO7yin/74nTQjB
9CvXsFlx9zQBE0IKvoKFdKODYHzpbE52914YwlPIA457CDO0DmgBCRLNZLWTGF64
FNlLiFUWeEN8ytW9LrAxZhI8F1jg0ryZCJDXaP77tQ0dSE3lQnb0JuLACuEUAtac
pSt/p48CH9YjoqR+zy78FsZS/UzeCbQtQuGkaGixLvRywvvfyEpKMOmzfBCCkCLC
0yM/7bwVFY0ae+d6CiqaWoD5LzUq3v2AUY4ycCtuN7SI6vpWEscEO/NFzic/dQZT
zbJ23EHd3hJ+rFC1J37qkCyfQg3Ho8S0HXKURHt0uWWyPKGhCqIbcs6mYgc3Nvi8
YNe8JHR7P+G5V7CXvOVqeyxyzgZZGclpWyj4bsopzqNcOsGRfE6RQJ6jEaufkaVM
9bKCLfBdYie1FY6ziNUPb+TeQ/q8Ot6dJj0iI+KtCJvzrPL9X6BJAIqu7KqNmaoG
f7cVhl3Zv6Dip2HIYI523t5bVCQfGOo+QgryryrOZEoqyOsEshXvBjtXyUjCFtYP
8GVpV8uEa2gVWRf2Z5b1me7d9u471h6TFY18UAUL6SL1xvqzx3ii/5HXaxq6Fn56
UNhrmEVQihOJU5/69IO6nmNxd+fKK5jk4RETP0jh2COAlnmxat4zT8hKviplG6JF
8OwKsk4fCoayQ1hJ+GyDeFcQMs6NNmYEVlO82xcXLUDVAB0dEv02SDnHvoLgoZ7K
fxTB2mLxbHpD2g02Dx6DTBnrmvSU855KU1RqSo6Obi/nEJWAYOuJ9jcmJvuuDYck
T6wQWMDBH7rUg+jDMFsYFThtiUEVDhaZUQN1ZuJbmO1HhfihV+wcozNndUC/OdwP
pKxjP7191FwHSTMM5Ozu/Bp2GQthCxid2mSIEllMWVE1D4NL/MTejCHGfYUJk67t
x+pxNZrz4mF7HLnbd/CgQppyWMlW+DboWO4YG8mkG5gSUZdzpTgpQyvi1MmUobeJ
6XwtgtoejQd2Xs+b2UVTuumELKlEyvrokUV1ZoEsnpyeZUXze1yIEAJm3/byz8P5
Yc2O8jQdxZzVgWmIlmsr6jxRTaP7X8EJVfxmLmSN3yTSdgrDcn0LC4n2VYS3Dmd2
KAVjfbDHjmTOO5F2oJ0h/s/M21GRVuMSjACe6/y523TIJS81xnqXrcxgVnLGU6T7
22hz6FADaoracJZPWAb4ND2SXcamAB8u9fYkrUoVsYsz3ibngYscoPhpcI9Zt9Oq
fyB6UAkTnTktJRcg9o8IMwtvFinsPvTzk/bGC6gvLTqKcpaa8LA7tiHaoYRCVtDN
2vhTj8+zixth/Zcc/9tmcYLbTPuwgzuP+7x2RsC2N76FerbMWFsqFdOCW+XOYzTk
Tsz7n5W7EP817O2zkAXM4XJ7Az37EoGD3GZ3ZLcVWzoXKAlK5HrmtWlcT7GLecce
QPo66cPKCwhBOzKXZRzn68T/keXfLxXq/hqSLwMhpUTUdzYPmt1Tv0Sr3eBnxeot
2jysYoab23USvB+A6kHh8sMr7RSdKIciq9rWE7mt5VOCHIjO//JXbMotVQfVs/eu
TsLQ+YXSTrz0LpN+aljNlXXJfRgAjBl/DFsf1pMwjuAiIYclOyNuZxwcCga4VHrG
TKWPmxhYaFkdv+X2qJCR5ItqL9uSo35Mz7sC5SlQ38J4M0FxpvBBTLVUH/+jMrIH
+ch/yfvwQpDoFqTO97ouNQXfij25oUr1HxziN0xsLqUWy1XZMmx6kiQ5fPtwDKM0
9iolxiytBBqXmIX1CevTwnUU2+4IeSAjEaqACsbGKKoqGiaOtvXrVS/P8aE/CPya
pqLxqbsAiibMBk+nnR7/MjuE+XJbf9FnQLp9usCHPwC05bt5dKv9vQT6aK2BNLtK
15zNTNNkR7+2xaambOPqpKs7pdeq6QnSTEJmad0PQwf8WFG4SP5z2Fko+h1Inpvx
KPex8s+dEUKDiRHjT19m8Sez34undqsf9pg4H2SzcbAjtlHIWdzs7XGh0vAF5BX8
gWc5TcgEprjNnRtyO5iCUvFq0iHinE/Zz6AT6e3rTQ+2sAjIPOjY6WgXlrJqf5Dw
p+yv2A6ruvA3r0kI+8ZClfPFDJYP78V9UKekkvvBPHBCJDdxKYnKM8APAUmvyAVM
mgug1K58uqm6aGAI9ibJ+wFe+BKvfofReOcMh0s5PxhQTYZ9T+tw00BDCUqkR1zP
qgLIwGWdf2YOtvrmiGZ+oxNImI8b9wQcxcQu+sO8DCwuDmntLL5efQ9pXpfV2PqY
eSCmcqnq4PJjYE2jrYN3T1CSwJ4/YO1abK3ZST5mFPUAgrHE9dzYuhYPxf1dtg/w
uU69MJUylCDwypuCcsDHthkWekpgctr6YRZiMBP/HCj657andQ8ZVJy0RUibA3Tr
ev2hSffvVlbn0wuZ5dWMXL2izhfiB6SUTgBY53AWwtpLhhkTu8fj5+IJ060l6l5+
9VcX0tlBQyabGYQn0tBRdnr3X9l4SzaDhRnET1zakVxJyCIb9HTAFqq0QdwFGYI0
OxOKStdlXu4cxfLE58SsVx2cW6ahKuu/UDnqA7r+si39fU3B4SOwYLz7GgrJvMG8
Y4Ov1Xi+qOeNAUQH/GZRMiN+t4ZkT8IOuSn9qZ/yZhn3mf/3mVVRCKFjhLpfKkhj
bncMXNds9NBD/rYFmiqk89aDbRi2DPoEI3K6bQTlB0XAKZcI48Db8w87gjElHjUl
XrNNx9uI4eDeXWZ2Ft6e6FRbrGWQtb7SkSfEjeFgEGdEKMhmqK7gkmfJVxzokAOO
QJart+xkCm3ZlGBdKwkDDpck5mXJVcuUfC4vw5I2tyjW5d/cDFtol/hAVjDlMj3/
ps0zXrbmKrx3sn48SBtBCdNT0kK2BIFi3/24EgiqJIJo3mHK6Jz6cEDJQhaqMlki
D4dyC9843gGQ1XqCMC0nQAA7nRM1DWLsjQOjgT3WzjR9rLF/XrnVCdAZj66dnhwm
KUDvM+RZYuNUTQ3nelST9i0x8DCC9cOtT0GgaWXesIhz/tHr0q9O55hiGrARwzY7
VvQP2YB2mCl7sK1dUdOKeUR26iVG0CsUEmBfbGBldZhK2Ov5KFcBCoVfg/mex4Mb
C+j7spGnxARU8gRV7bKVLFXWzDhlniuVG3slpMkUatvXEbcG7lJ6SmydAxfC5BuK
6lro7GGCTH+hEdtYpECOOHIHsFSCS5AaTosl4XItT4qfzUQuXBquTJlzb97tuviT
KfZiJCbOzxCgWQ55kI73Qjra5Op3ePRLH0yo3lQ79ZJY5JNUorsEPodqD5Ne1lm+
Ih3X35AzlaCh6F1f1VBrBiqrq4XHiAMQqjGz5xrqIAf0VCW5LFJpgctjLO1FqGeP
wOGZWkej5EwQno+8wXVaE0Hbds77IILAdcjsc67Guv3tdrl5/cEWywu/t5GPONqN
93ZeuDiJ3z8XHOkbrwIu1PjFMoUEpgd86xbf8slz12Nr5Jsc/uE/NHPNf5/Knoio
KI+X/ZGftVKEO42JuRDQl3icPFjLc7F4xMgYwhUmLymGzr7nj/6aNrh06XMBNt/e
VPT60A6hyWZOzZ3n0k9kPakzOfKNbc8XdcKTF4SZSItqdC1xM5is3Wo3mHIf6jts
xC0inXUQpCJjPJXvO9pkuCQzeJg9/p7PT47Zjf0Nm7joHcPsMNw9yfb9ymZi1s2d
BpgY20DVAlBQWsqczeX93vybDMeTdaVgHnPsBqJfbEGe+0XoohpOnnfOfkJ0XCH1
RCfoq7EY2RmvIyN4Wntlpptup2TrIsX7OJO1jdCRmafKPrP7Gvp4GY5+g3Ot0oUX
HCuDh5j72u8S8l0fRkROEJT5CzbJuSeyiMkSZpaJSMVzfGQWHNfipxWwm+ro8OZz
1uNLIukwkmbQu/xm+p971EzjV49WiT0Svac0unuyx/4etWLYo3fiUpp3+t6qwLm3
3H2GsoAZzXHyWq6vqajbkR1X1tTSCz1NlfRrfHFTxgioPDB1GZEDEV7qm5njYppY
exEuj6NB9ykOqn9jaMlYiDrcfEz8igNS9oTr0IY9gXTwWtCkbOff1+K+idjZ8TJ4
ITckVFawc4EFVq88gRmdsrggKigP8/14hepQ7mxHfRrc2WfFFongdXGI66UcRBDi
JymEk5QI+QE+HL6LAmyUmE5k+vqwGziBHk1gUxXHBTy7w0eC5Frx5PoLT62swpZX
p3ENOg+db5F0ZP2NBIowdNhSfivKncKeprf2UPIoamQH8gytdChzBMY1aGIynY4M
Sy0HTq4LMz8W9iKRMPo49djoCieNwFUKMPeQvNzORvfrDfuq4PQoUgFbAZzKiRfB
k1Gn5PhktpfNXExXqP+yeSlK3a9e/Dt5Fj3wUP7fIwpo5ZNMgMbRtc0FiSwlKyDw
5psXCcFo7gu+88qp+JAOXDPcmItqOXtxZEhujLZCGrV5kXZj9QQFZWJQA71CFVxh
DJQeweGxLplnejWP6C4Fg3Y/Br8Gz6msflBmTUarNalFx8Y5fMvo49ktJewpABar
0jVefvsRTOFd0tCHRtKhKAN+X1cvu3IK9/TDaLujN5P8nvZBCd+Rg7ECG3D/l2yg
OdvwxhB+b4XKDrb3rL8UBqa3/LnnAXVv98Yv0aNfK4pKAVJq6rAsh9XOq+0jvFui
oAijzeCT+2+BiT3rB+1edpkos4kVHjUH2Bhslz6A+3Vw4AlT0DuaZQFfxwDf8tnZ
+rUQtrW836KpGk7OXjB2fkk0nWmf25a8xcGxqB4jJOfu+g4jkpCJVkL4EyjQst9x
SAOnHFrVwutymATt5B//y/k4Tka0s2HlcUYb2SAugEQKfH6uLx0g6SePziIoS26/
dl8SqyFLd4uPc/M0Sdot10I4rzpiC3Dq/gqkZwE7I/mdfRJdXXNA8H0MV+Bt6LTs
eZBFBfYG6viaGqApWAteWqFbDEgitehFAnY7fsbxpH0x3mRM5JN89E75BBOM+9tQ
rcf+hM6yIrvYHz86bia6CdqR2Hh27HiEjJcpy6FDjv5CoB8FOuNjkZlOrksvAiPl
owTpzjJ+dk6krcnH5c8sKE/lQ3OdwAQ2uTHEtAYnVBw/vWLRwx2nm8KhfcayqWdW
zrXB6Mms/jRoQXScK1k8dhWpl1D5+U+xGLLDbtvcTMsqdvuV8fLSii6LYS0cN0ZA
AlOZ9vOoZLufGBh+Ufhn3cJYXMRM4cceLzKqEFFP98N/lkSkFARPCyXJ4f+v9Qxy
cVQWREpQLcXLRqLo6vBZrYMcOG/QTrzX+4kJmtPzBRcbyOkCH3YDVtZPcbik81Hm
OyzCi0sBq57MYCM+gen0F69qDlXceS/pTeCcnzcuuTBxFaQUPRpkYKiJxlPX0JZ0
krHQZVPsOpUqUISZbsBhHy9cv/g/MXqqwo5MPH3wAvpISn/gyhQT3MF6/kRF+IT7
qKd7XVnFORW6hS8qKIDY/uaxtUeX3Fu4F70sP2I9ZRjgSPDVy2psBaob1HIyFQFX
XSgYmnoW5DrNnIMrpqFCysXdLLAwU+H1DqZfG8JQF41p7Fg5G3en8OAb01FgOJUo
845qBHvAuwsSH7Gq1XGwtBayYfS45n2rOyOWrdkl2v+0hRdq67rKJPteucF27BqS
f8bF0PKBTttktmbjYI3jVCaDUAH2kruw/5x+TEPlbt35kDTrdbzCOZwUAXfqClsq
GouPJtxHiTFnRA0xxEJ+V0SQSZUqwIys7tAdjRa0JSSzN2fjOsaSbLS62yUoLq5A
qiB/gu11Ws/RzPRd7kx6ELoiHzfbJRL/q26Qh3pIJnTpDQ8vFiLdu/Nc/kWfq5PT
yxjGgkoWBVg1n9EvIyuJAokBymU+bmSFxI69GOqNMzY//kCGtimpvb7YGb2IW5zC
Klg9Wh5KlLgE5jCqKtb0G1Wx0/6Rnr0XYOEifDaf+z30TBE3v6Uvg1wOLmPX/0/t
IIcPBniueW8eMp28dgH661LZpeLB7SpvaEnZl/5WJlAhhEP9GprvRtKIUf/V8dJS
Y65x8pDsjQbvaC0s+j3MeNFlV7hzM44wjnxt7r/jG8Kj1ePgQO9JEM68ELXQvf1u
OqkogvXJjxknwK7bh+adsDQrgW4xXkto+BuCMln0qo3SzCRext0pSnZm2xSSkRMM
osQGyARealnZi+6YwzeXf8RtnoKDtdVILwmQjY99sfmDGIe7LXYlENJhZl8rSsyX
4qRKBx3dOE4r3NoxEbJG7UI7niqatMyeDCsPUl3hRHOn5DDpHiHQnuc2N9m7w3r3
beQzrkRY5Vk2qTLUuFMNj95Mr0fTa415FPVEH3LQ59k6e5MSfhrCyM6pmlpGEOy/
/O5h71k7UCOHvHeMBTlHtD65QAkvRXTQB8tInY5+zSBShiLKCR4pr0F4q13psVUF
O2y4HDw4jXTM/2JnhDIpONWxh3utXsDGCZ0gOP1XGqWXpyf4OfCME4nm4x+4EUoz
NLxqpoLYHCWfx72Pd2FNIY/I3FHlDJAaNmAotQ3Uk+FhSimfSf5SVJr1/qGvMlGw
em6zLLxxJUiMunvubCAr+dd3pDeRSv/DutHuRWZBxGW4VZA54QJvofbeisDs8mp6
PztA3lzC4uOHaSXqK5pEIREDxQ6BHukJgmJ7eCC6ncsBDU1o/HU3/HKS5zHD1L8t
4u5doDlbeqfZFPhmPr8J9zQwkGZKuoA6h0D03aGSv7tB5914J5v8/VILtuVm7Mpn
waA5LlIUIHo+ROO7ewmtMUpk0CMhHN4ZXr0jD4gNwTqGeBU7l4/WgUu2YYha9u0t
JxhPgLiGtmwoOhsn4JJLX2HNG9ZqInffglwJ5OupeCrVGMOxG5KGtpDta32Pq5Mg
uRybm6XCf0aRVuYXqsIOnqhLqqPy0GKk4IsXs34XG1g/Qr9Sl+nOKWdaXJbcnsd7
W0Dw8MZaeT0001eKyk74PUKVgwIc8PFZBY7y29F7sZ54JE6Hs1d6TziESc69/cz9
Q2NP5fs6c36JJjA3qCr8yIludJ6qQa9Dfl1pkM8DEoiZqMy618V3s9gaLBAhXWPl
N4hJ0TGoRyGXFDOCYUjJBafYhgZDMrYPYNqRiFpcuULawoxFPK0kLttFRzTSXOko
BBgIUIgO6a7TdWfE83xH3BPkLV6eKMVQB1FE2mqNgDW1MTprdDuB3hwyipIWKvEm
VX4WiCgZgqe/gaF6iJUgVRbib5JQw9pZ/IcmRlz3NZySG6KoH2foN58sWGVPzC8/
oHTZZ1/dT/HCWq/F5E/jHE81jCgVZu/qvv1/RjiqJwSU0AYMUNl2xcJtLgwrsgvi
lq6qFaY0GhNuyK+VvnyDdLDgI7YHJfLuAEWT1RrkmCZ42k0fefxk31CC2U9ecvxV
HrNQjFUWZGoBLB2QfaxrTRV9go+6L4/pr5+nQUSiK+u3/9HdwxdhazS/OVIpSUuF
y8SiHT2rDlHuXcOycIoB2cut31nr2fW5exk7tUjxjVnazR8tKPy+nBoPQ96IpXpA
PLpY1XHvmm+59nblG6xmPyqnoKN0WGBp7mVZfcXPKFrVt0tSOUmdJY1f/SQiB0Lc
JJ73DkP35hXHJoMvdi7FaEbFwnB2eyiXH7DR4+AcCAwb3l9KzTGNiD53nR21Jtfo
UxiAYMInyVBwAd/bW2ocCqJ0kbbngpkiqYNI2r5R3zc82dEW9ThYEWYuzUZ9/Ixd
+pQI4cVBputUeS3LWRtLp2KdCMfhnkqFO3VQ4LFs6GO1qOMZzpnKw8xqoKYTzUxF
elqAwKxcgvl2uVtMAdNjFim/9iBJXl8U3T2hbetFnnKPFzd78sq2TO6E5vffyuSm
VtZK2CiJy6hox+nbCtWrkf320rUWe9k20D13FQU7BPSwWtrFZj8RcC31xFtnuOlb
Lv83CqJ0KAmg3GIXQkLdpx7ZK7Qn2cAHBZAN0BzMQYeJpz4IAC5+d4/9RsUxlP53
3XhBsVPMW2ft3PMG8ES+uMXhI95pp5dOuSfQfirjl3Mbkq8o6tIlRJKk7GsbOgjD
hrSLEKVF8gnVbCWVKUg9cj3pZPkhD+GenLMtP8RQ6SgepXYlwN4porPRWYacTx83
FafRcLi3QgrbV5vHNdtHWiiohCaHMWxc3lHHuKEdR53EIExQsC/pcotWCwVZTftS
6AHRdY2xioQOf2000TBgkEwYMcthSWlQy9R44NOo67tMvKuMg5skxvkW3EWItJ8N
UdPhp/zUDxV9B1HNJ3UKYLMbfMtumFd+bynInJxBenEbBLPTzKdxFRpF69+Ns64D
DRoD1YWKoKX1ORoXoZ4yhBbBPdA66ZqnFu62teK88FHQTsvsQXO36soNHbkT2o3I
RF7lWYJNXMf25YgFkXHiVmr/f82ABRs4lw9GD57JMHg+Y0W2xN+/Wc4U3gKjXe8+
ffM5Iemj7ZMmzD8kLYcEYm271otHX+oggow1R+ec2UNQ1S/ZBQjhu58r47qbFyv5
K/csUxEBbh9A/2M4RZ87+T6XGJUcCNSpu3W8lC6P+zZCpcj03k4PZdMF5cDJExid
AhNONMJykaQTETRzeiKfQ03ZoYpIq3K6FvTzK2lpDZOZzQge1ddOiD3YgM70W+Tw
M88HznWLQMAqoUdpXu83Cu0f2waVrY4ygtJpWhM7OekPOAHWFQ5lal3XbUXNsEZl
7nD1jAAj2hk6fnAvWToZFy0J9fu8+g0tqtJQ9K57hhvro6abQOT6Pg/HalMzOZzc
32PK8pJWyDys3R5i5C0oYtrE1J5J4BayM4+CRjXL7N0qUzDA5q95Kne8W+VUCsZ0
0Ue4xeoSWv+lemxPxTxdDe4GKUngFYgnMxJ+g+irwpf+1ZkPdSRFjmMyR80MbxKy
wMF2/fEi/MVv4RXE8XG5VTtJKlqxCnWeINCgY/4NxXuoxpMb5Rd+Ik8oVBOzvVTU
PsEuUr8s/Lex2Uo7O8kSLhUu/uvTt2Zk46BdemjX9m7eRe4UTrBC1iIMg6VfqrEp
HLlV7DYGiFMK+7Or8h6fG32QKA/WQEneUT2m83/HbCOuBvalOLzslve6YFPPf9/V
4t1hqTkdyvq7UsVNEcoAAvVb1rjtT4RXvI1Vba7QBQ/TaSioldEYyUvr9b1WRuf4
z5I3Z3laOt9NKZBaeD30Nh+J+LZ+13U1xGlWNsvDgNOETB5QlVVShd7PtQII8mXb
GCv89dWX9p8GALE7gz+4nNMzYAXSuNKTIDn59XEwlSLy9wV/KJ8WYrxIF3sikm3u
ZpBQnHdaPhmrmBPkcodMvpmS+QZGNVALXlZnuqGqDeBVf7E4fI04pCOn3/a5i41n
E7/vh/oOuMMryzEwfaA21FXu3Jf0Y6n61+qgvuN3T4GdKdH7+sRvTtNIjwaGATql
y7T3oVHyvjQgIWEC0P9F16tuihAfT4UXO6eVcK5OlHLDv+dHvE31xxDRN3Cbb5C3
JbHFd2AmhGr5fYHpk/xBF1KlpL0RBA6fLxfwaDd18mcqUI5h5e7Q5yubtue/91T0
zqckV47TfD4lbwem4XpkAXJGLo/UKfI6NXQUJf/LQXELUeagKgdk0zIHYIqdGA99
cT/AYOXShupVR0/+NBI7yVXpg+BMVfHVzfWcD2c8IEoaF4I8oZq3h1t5RTE5s22j
7zi3AgFG/O4zMRzc9hj4Djws/kOa+osnUbR4OiSkxygRqBW39AqXK2TUja9A/9Y+
r/j7qwJNR9+FxdHO+JQx5OtZylrOKcfdVelQj6zJktdw/pxWaK3ceG+LYYQl+E+a
DWgT3rrHAhIyHRqk6aKivqJts/kQ6GY2qlwrmdAFcBENR87OE5wrAmzPZUxCXVGq
qF8lgIwyWSvtdzOfFrRwu7QKpsCU+BlkYL7A0GHsUv19TQcw9gsx+UTCzYCw/JlP
QceP3JOr0TJi7silZNExNKVue7rtBGpeybPQLh0+vsb8ViPFmviN9VXZhzY1yEKI
s8hoeGrjPYr3ay9XTuyEV38v131H2WanhPvkYGhl/9jve6zPGBKhOO3yOs2EDuw4
bKqlBmaz0729Evb9tuANMsKw3QtuI+8sbNkXbTfzD8YcziMtcmMGdBeBPSlLHduu
OP5KKRvcCta6cWxKWVfPa4D33dJxTsZPUbuDa8uuy9fWOZ4sKBw2+q800Y4cyOc0
o6vMRAbe5u0CsXrK80iCp4Vtw9LPf4Dy6ETxPPnNN/NJK1NO3nz5jVfQ3nyHnOvH
39qcA07olTEcitTbhGYQYpOHEXMzEA/YyxZTqpL7/AnUi9TxzPbN+F8d3PscvdDT
O26IhEjaOdDi2pXbIHSiOD7vaWW5hVHHOGb5BX9hU6WT4Q3DcdHkbqV9dQAs8FGW
BcBYowicmpei92/Y2TqSQkc1nr0bHu2+LjI7FrClD+8gfSo6iWzueKZ+iOnCyylj
DZra7NRkoAtMqVFIVlM8s41/7xIoZou0Su7BNF/WlcjcRrzrGM0N5NsmYjyL2Abs
lk5D5k/FQUkAL4IL3kzUGfMj0xc29Tz9cIqL7pSTtcKUV4jYt0mLefDXGcJK0Bk7
EavXquFAGVRxZpww2toqJmDwaBidsxOVwylDY3QnewmNhEUmf9EaVymCKe2MZfZl
kxiTs9KFZAPKTeINkZa6kElFOSw3hVRqxudakSkFzkOlk3gUWKJftyv2PF8OEYkB
nyQmfmOiKOPQE5tLCmw+cfumA3r2l7RYOkl3NAXjPD+/1fZPM/mboN5Oe5+aHrxg
9ZeM7n8Hbr9LB9d/5snKAPpYMwmdLjqXxX8dTbuOU6AiSvpxByvNWZs3b6dYLE6d
PQqIoeIlXh16uyZCbn9a7jo98ar8LUYKN0liZ1l9h9pW/wy6zMZSvGNFYPC17Pnr
dOb8y7IO/0/2nXHIVor0CXbTXo5cmD5/wuxZ1GDJvStdR/IOlVseKk1vq4dGLEQ9
i/vdw7lELNay8yfDANdNdHhEH1PjHMppt48oeyGYSX5G9AZ7G/8lmmyeq4rwGg7c
cPVL9tXIDrIl9j8UdvCAXdAswND2gBiW4useXcEbGDY5lBt/sBKq/ExZTlgKxvOo
k3yxd5tbSwmEkUfaL+tQhGmxA6EsF5n8t1GARkcqaHY8jIunvOE3TOgxN2WV9eRk
1jgkcHmrsxWwUKNs53bWLgKqD+wjd7GCgbX7fl+sGGW1Dinj5o5FOTejSAa09Elp
2/3drzwVdRFS5EVjTnBFWrilVhTL6Tb6zUikx6KoR5CYFX70bDDedwZ94IJjniGF
HbZSec70W3pP2U1eEPB4q8Q085haJN/4Vd4D6c3yPOLqad2C3cC9VpuMa4Vdy0jV
d8eeTvYUZ6yQ/OjnDd4FxwKjCDM9y6qJevAFAdnFxQGiNW1fyOHwdzmzgsCN+n2E
Qwgm9JEvHCxDJUOB9eGLZvRgK7morVYH/jbTMpeAlmqq/wmtTvJTmDTf6Zw1EvX4
aDbBhNZdlntIBnOs1I9JB575BsdzzJJ6hYyS17SXD3HfrZnJNs98heUW7ltFje0g
V1Qh698wtLhNEgbW2lqD8s/JOGseVOsXXBvwJMu/U4s91Q0/SI/IK4HtCGTm9hPD
REYkFEW7vBvgyVP+ctNmbfbs/QWv6NErhfo2ob1v/c4TI9KaMbJLczbkn1wdaElY
FrfCNGZsXMolFULVrqmSe1mxj/rmmKMvmAb9EasA5deXugqR4Lb+jKCWUkn1Pr+P
Xf80dwKj6ntVTKOpCf4BFJ7DQEC6cpw3YVSZqP89fri3jXijegkLoiSptvlUnsSY
5p5GecNYYg23gJA/BBE/lsY0+xQ6B29v9aL/iYN6L7lwr4XzaEywoS7QoN7xQelA
IbPdV4kbv20Vm6F6phaX8vMc5gSiXn3N6qlnmGVEMzz5c5a+A+SwEnLLwV3COJdE
xJJJG90bMF6hG55K+FPAd+BmiFRTuu1vTJC9o4oPjzs6pKsPceV16jzmlpCCpZeN
J6shilWM2JmNHLvuCo99L5e1Xx8fiKi1FpDJugOhSiN+27tVuH1ZsTU6mQkp3K3T
HuhNk0GBW27vPzFcy0bnidAbdA8WJmPxCqFc6ET5xNtKV0CXWtZTEA4Noe604JxJ
RKqLbhAsxFoKaR7vR4JD0yeUKLsDRlKY21gNqozJsHGVl/sxrGS2+EVGfvz/VWu3
/HluGD1oxL2d66RRHhepcqkoGbEOYifNwN2aoCzYv9VkfWWjr0Bc5yedzCQG1PVO
iWeDRfksF0JiqWC6S0txtSh3eWs/QGLayn3hqs/tD8a82Xla8eOTIpgcsGjLD9r+
my/LilMYDwkntMT8XpuVws2iPGh5JT+1YC1CHbuPjQ7bSqEP4HyvaOREz4Ys7q/5
o2M2woEEPWlrTZr5y/3ka+hgfRryTyt1BwTKhvdFL+nyI0y0CEScngMuteJDKELy
v1AEfNqb15F/6IF9jhJ3ijBG0QBa+VpieZxbmGRfBhnB/nRvJs9mxp0wZirCRwJ6
Ef3TUVsJtr2RqIvDOFM2fpfXx+dxsKsaAAY6uz2hhOrcmWtrXICHTbSNlPJSUyaB
oUuwf4/tjgvIluRgn5bO/SOqtqp4LKPirIKZpnQqOaWKuUdmPfWA5IEmy5FRr9jO
1Txwryz1yL1IUDkUNtd82zfygV8ahVP/lvg16hjEmEYUuslmbvWMCcEJxVL1unO3
98QcIwOUt+rRDLbk3kyhvvovAWLVgEQo6EKtPSMrQxQYPnGzX3dXfAzcTteyR9j5
IfmP/3fifKYbPNuzycxHictjhLUyF0h7eowIt5/ZscbpDrDOTjcb7MpyNW7CFMeN
yqGoaOQ41BmP9rEFCgbwjffWLAW7JWRAjb/w9gkNOuLaPE00cHSolugmXMI287SP
nBD8GagOG++1/p4wT07POHIGCyk1+ypXCBRoVCb33AwJDjkacyYMSnACEG1DAQ3c
wgwjhFB2/uxe8nEt9O1CV18H015folN0TOWeI6++9l1xXh6iBR3xg2+u8pR4hEmq
NR+y2KsrzBVqNbxBCQyq/AlC+/s1SbgPG3Uvwt6hjCXf68D04BpnEpi+Q2dikfKy
dYlmfu7UoDLl+UEM4LypG9OF+vUTlk6Ph24QRQuI5sP6wa2YOZDJMvmgprgOSw2G
FE+G34a616Ga8C9NUs9Ps/flh1F9EgAOXYSEoTa0tEZ5xATi4l3jMHVxF5Sb8e95
PF3fvuxiCb/RzaZG4yaBuvUZuUAHOtu9tsTtUMDD40lv7vgidJit2JKsLWc1fbDu
ra6rkQ6WTFtUBpZEY6QsYi9rct7MATGSwud7wxFrYYIrcX/izAMpkApBbu3bQ+dz
dvoet5yZZ02dbCXHZNXOxLC/I9En0K95Ie8UWvBSsxJbvuFbbZ/3B8W228aC/1id
iWQTZLZtrdwL8+OuPjkW10rVJBqiyqh8BxHONfcEh5SWVLITqqx73q+9n1JiCumJ
WLbNGVPadx3VPA9KR5Zo1qNhu+xYeCkWWu0JHwoacPjk1DPJL1a++iSr43niW0gF
UQxa4xb7gk8/Tm0vV96jsp3dM0YKs0bx+15I7jtH+qX0j26fPCwK11CncHpfIcsU
Zfo5gIdlQ1IIBOceLj8CnLmR+NOJ+sKC0hSJYLkiFsvi5GWHJDqROz2uHVYgZXnJ
V2gOMrWn6Ry20nwXf4ZF1i5IPI0Jas+rOmi8oQKT9t8MGO/BaSpRsxYf9+xQar2Q
A97aYHFhR2OnI5kkLC/+vLRETanKiggAR+YHe6NK7rMVDE3qxQQyky8pLFdLsfrx
N27hJKiI8buAwPaLBbWZs0AoZrpmXj2Mzilo4+2BlCMy4HhuEcJhb62GU7iwD/Z0
Q22dC0Npg4HYhDTRMpiPqXhN9WWzIMqqF/7ZxCO+2zte3vI53T4eEQ+UIKiOumqh
wIka43dADVROiworQzINtIAXUM4sprFyCDc90DOhPT7sTBSaapJ9tuMhM0eqFw/P
9Ml3rJs4DPs4cJOSiEwyI71qVX6CMx7CEhAdzEvfkLj7TPJJq3HcUmlMj95FwhYc
lglOKqPM9CgBC4dFckDPIkZW/J/wVZpW0jpDVSFaYVwqxFfzzMWHNYguIyU4bsiZ
HhB4A6TbUCKWifsYSFlvkgIuHo/66LSyRe23TxAA0K/RVDRIJhnkwf4oLREm2hN8
v1oz3pcmWJA9Xl98cwsYXiV0ikKwBsTN6XRUIocozQkwUVxKRBAuwZwARAG59Tf1
tSHMDfPRfJaVkBa3BCXyKCXnoccYCHk73BQJ638UesNxPADIarU4xTl5tEIqnmDS
QYUBvfweLeoeKrEbgRUicDutZCEAMEFqFEI29a/rJMhIxdJVQpe/s43bAJ3H6Qhy
GvI1jefLHWxStqu/Hk4rjMlU8oyfISP/r7PYdwV5nwoShDNuUiZi1nULto6cc96L
yG2ap8e0Mtdx0yJobgHQW2i80Sfkp8qZ3RZwcGvfeAF2QIf6zGniiwnPGkxPfoXZ
Go3d8eAVdaf5NkypKWYJX2rGzxhn1tBH396NPKFHYC/jVNGPMB0z4bE7EyXUAFQZ
zRLh+xGl9qLcqyU15UBCMDbrsEDFSgy6S+pzVYC+WqhKnXCbgKJUDPjvvwlfLn2t
3j+PYA4zOu6HnTtnwaMdsaGREWHL7hqq9ogVjb4Lw0RZN1FmFYH0FQH+1CTyIDZX
KDz+0T345yM3Srj76a1D+9UZ/sqq6NQv3J+UD9bDsY5kILZL+uxvzLZq827iaOR/
mQxc7SWk/mqbf6O0qvaw507vHXCuN9W3UmxhUu4rrbLfgxEs1GgSmc3Oxqcmlxh1
GOwZQMpsYVzpbBvLCVqIw7CVjAu9ihJVMdX8TFHjk5p0T5l+C4IVh0VqFNUp4qPu
5/MSFhHEfdt6Idav2LgRHuTCf+yRYGZxlfwGm6/2VW/CoXesPZkrDQKSyhWo6sKO
N/OT76irm+SruKKEycuLntrnysU1HJ4FB/hVscrWXUvdUtX3kCJnP5zCu3Xu+qQB
J64hqDUq+kkySp6VR8+GwxE6ip0XYzi+HYnnXD2iyUK9AoG8TitTkr9qwd/cdLAJ
oD4RW6wuk+pvcXMRQhJSrpapibsT9cgaQSWNAwTwRwZQ41uk00vcGDf8mUz75p9B
DfwzU994CB5vPw71Nzwa6rOe7q+ExrMswDdUj/tzINcrispbQx/YrtPwolujYFmM
R+SbiIA4MsE/HMZP0TKJSFIkGz9J5C03NOXZCG874A3MhrW37mKLj1Y2c+rou0Up
Ld4Fakoqk1bnk2SVRKL+QFawY03Xt7dR8n+EEi/eoSIApFnykMHNfTPqIsc1k9gh
mOPjAxMYRHtXoTT43TAFVuSwxc5SOW5yzYKVCbgU+RW+VCqXGXAGmu67Idx/besz
rPGexUwZ5dXxg4/Z9my4/kvNE6tee4ondYvSOsW0o7/YeuRXVQx9UH6/COB9JrWL
udUuhLr5uRVmyPcEXTEfH+gn3EYKbUtg0ln6ic/fbMO01uMnmzmWQpZSz0xBWS5t
27RyUl1MXdfJuhoRXS/ZeuzHCf5z3OCcCYSs1DJthR+s4934voLrOWUoIhLxuurC
jFXm7WsFuhwKUiliUxDfvsmHjklgQ9QpnRCkrQ0LjUOKDmP3elQl3dglWmTEh47e
2J4LkmLEC3xQqlXvPRshv5H9gN3k7xl16kuD88HkbEunfFTjABWjWQf4OAwiWYrC
yz0buboMMFuDybAe8ocAmdmT3CiveWbHE8k4/sfI0l0X2zyAFX1BIboeJFb1jp9F
pn7q2VyS2gH6YCJM5LWsPn+yjgSTmbAzsTUiM1eiBbvVjZUgntF4L340YgMmcebT
tTOMu+QWC9dmNHWg+rchxacmU/BP2ZetcWq82DZZUFFAr+jwKeJISTnomQ6YGsjF
HVpDZdu4wUkImJUWat+sJOIy2rOwz5SvXBuHfc9FTlEf2Sr7CPP+HCUsAG/fnjoE
kT3trM6t0kaP0snux5dH0pajovmls4/5jlIL/RJCX6QanbKpDLRYjdcVzXKkX92O
1/dJGaCQD0xKA9zGjYC1DJM0taP0lUxrmLBeitkXKYYHcAGfRHNuZ2Lgeab3RbRD
F/1ZWiw8/cRkDpsj/XJaOByEehbq+ls7+QlkYl9ob6Z00jr+afyNHzB5482fXXF6
Cf8OVOytP34S+OlAx2p/ASHbqITw5KgoPQpcLexqzdQ177BiBsUELz2eaRJZnuzf
sJ9rc3BdkKLmwQLuxewYk60lf8m7JQ8oqhsJ+KhZ5eQagUQ1HdaS2rTBxE9BUXdN
oFos6UCGothsR03c6+ldNeNqOitIVzTiRSZIEQscCD2UGpLuQP37YRZ/2EztS3Z9
PdHRzeHAY6dDgTuXn9Wld+6cHk3skxxuAqlwJw1XfIOLfGXYDbQjG1p1nGK8AC0x
qpuEVXPLLdn4t8YTmjxz+JiS1siJQaJQTwgdTOJ5A5NjaPa3pnvCJ9+7bFOmbK2V
eJjwCZQetI5P4ocvGLNjAHkqU9kDgpZRXe9gG2DLgXV+dQDtxb9s5/VHQvbERy3d
v+18yxSEhVi6pWja51hN7/hUBBxHDNrgACMLpdk+esgNLjVUdhpgN4t9VAfGK7FO
YrNRZT+JImbhZ8euPdhLjoGfD6WtvhG1zhdmnHJqfQNA1QkPclyQYzC0NMzjKdCH
bH47WvnopUby68WzH3A+wep2EpIGDbK2EhOYcpLy9qtAKuzFgFfzWTkAq7lIPRyY
XctOIJrAwWW83/aukYKafADWjEBmVt5nuWcDqADNva2Jvxw5XL1BsWLI171D1VF/
o3n5HHnO6xFTp1wero2gkbJGm4OJscm4dc51wdyJExPzYsG7hFxEeQmcZaSFHUVJ
FuOIuHASEjk0pvequ/DtBFmtqZ77ah6BZwhgPivJfLrCbT01tCowm0iJoeitmIr2
r6+gKy0gdVskmrQqqjZAvg9eU81pkmGIY0RWVyZyMYWHpHr7SaXoDC1BG4Vx7lQE
QlTDvl1tfN1J/G6TJtnrG+SzA/HG7MfnTLnCOOmSJtoYRdFeYkkm467sDptsjPw9
UkB9UqEMnFWYfgzelUaNV9Y5a9l4uXtvWrkJk7gJciq/g+tJB+OllSLYMmi4MT9K
toOX4ij4EHldyq/yUcW0v0XUt49HZQ3R4aBQqMOzQh/JZowLq0f+960scV4Qg+HC
O5iko6YRBEi0yyMOl9QITv3V+tkIIGzReePVnFeM1atqI8nUIhQc7cvveFyxsC09
rZ730WDVXLAfOCUbo5884UIUXTZhYgTMIPSY3ipipRz+w4kGCO0Btv39WolQPf2B
8CcIzVKkCe9YG2uipoVUF4l5nbn4G2O+XXOVBIpxiPoxicCnGVEGs39pZQFamA1L
hmGsikWjVPNTIVDWF8mOSJBSDiNri+D1dMZqZ9qYrO9kS4VmvNWqUHRvh6rqLkdN
1qXPKWFHxvSZC+Sq+Z1e0UqhmRT87Myejhq0oJRazc1Hez6JXfuDjzjG51v/lYzI
SajTSdFHo/kGgVrRhh3G3Wv/iMabQbcUmNtU5+/71+0LYqp4DPuV3wZLsQdHorMa
C4vTnwHKZJB5Wm9gn9LtgDrjbcqj/5Snh7MbuDJC7Z1qa2e93S4V8rth1XPljcNJ
5HeiXXMdbi7xfpN7ho1DR8hyKSHhEbTTBr6ek32iQY1IW7sIMYxvHUSkleI6oX04
OvdZDwg5+NUzwL5Rfa+Ho3Pi672nPn8zAY1EZSxDmnPVra7sov1dMAnNJzjzV4IV
zIYMzT11GZtmh9zgaBkNtagjQUQTvvpiuuTMCidMrKVVVloqBu8K4VhYqVXPLFHJ
tDyQzs3zCNn/ym3bLaGmD4r1vPGt6LtWMxRIUKgkY8UsMwDcAEetEWbgb4l6OEq/
apIUueVHPZdvBCTe2Ai2wVaEF46KSIEMSUCQm4JVR/PEsPqV6Fmr4Wa3E69PxRNz
29H+vTTr9wOLEDaTjMRpY4hDqFGcaxq+LCJqU5m1xFBM0kj46isbmb37Rx9ThQHH
qDJr4vHZR28y9tMR7IVJpCdpOq8L86rPwBXVyewwAiJNxduNQeIZwCHKDYVPpwrt
zHXSC29CO5sw0qoazHR6oXD1qhxWV3RWhX9AY2f4dkptcjb4O1xL55AfQFWbAuTw
uxq4lOqfxLZyG/UR/oL4cGS1c9woFLacbcZnDgbOhAxLCCeBsfS0mcgaQwhwxich
VakpIElDq3EwteDor7OiLAc+547VXrTUmcTozQG9vpppkL+gGCf3zI4OWiPuDCH3
M945+AX+VqXs//XdUcXgPE35M2b7tYRiFt9tkWGbf+wxK2o3TAji1/lMMVlRHjfj
qYSF5o2Jzh7eF7FERRHgXgdMPVe964EUIk1ZBabnKiFL8MrBxoTj1Sr9Trip/6T6
GG/GypR9a0nxUprwDr1maMT5EIr+SC2VE5dTdmR/dLvWLGsLBmSdDq+yNsqCNDz+
vfRAWosLppiRskOgHAOk3WCYBcQNGuEbVjXiAqZaB10RFIuFpaWon6zabVwa+dWc
jskdKiyrnljLqic4Qmo+F2K2wyNCopO1EH6M/lTywjhEZ5EZm/ONjEZFl1sUql7m
mMwm2ElcQDFMpUY8yty3RN43Q3ifw8xO65SRe+DL6vT98OWTzox4fSCRqZgd2I+0
GVHl3aotdgpV74iq1j23ncDdrY4FSSVzpBOOAK4XQkvTnpMiAXDpES3U4VtXJgIs
LWTxkLzBRmObd3XeV6j0MJrC4SFEHvvgDdJyydH/mU5pEBjDmv5gyp47lGVfnzbF
Fj8T0nYKUelh1gwqpuj1Yi6I3iKJddGua9tn5OTgjp2CFkSIl0pWYZmjuLuYvfqz
K8J4QJZcstAiG+HN9o5OYEUaaDO7ifogB7jHSkbSkyXkwJELVbg/4fXIKeNQNbzf
rFiz4Ylbc0cyR+KTR84CvV0PQaj06OwP9mK9wbSU/GokrcNWJV/bQzBOMsbWbERr
SkRrYnCEwN/atJRX//YwmpFWZfY549XRXsFe+VCpssKaMDEuNPI5bZr1t6Pzntoy
RWDV4qR0C7zAUV+JFIOyTJo1i150yelih++H6IZfg6A2VcOgzM9CtvYKxxAvQhNt
aUM5DaS5HgTiKoNnLRfWxlQGQsoEM73FdtKXFQatiskHPlt8B0EbxXKSagLGDX2C
qVcL/3tCLyRXJcSPglOfQknL1rhOL1DIL/IYr1wHw1E3tWXwS73oT99fr3cBvqyM
a+rUXooTuAwfXFZPnM8id4W0+Gsc+ijb3dk1rdiatNyvFd9JrZEJ6DoaQGG65l7u
Zecq+r1GfrqIkl3tBT0/HpJsQlaQW6OyYUk5k+gxRydOdAE4udtTt6nvd1GCEmvC
7omISlJ3XxFd5WCvcXGDjWEveuxyEYbbVXzICoRLDVE9pj1RI5VWPkeS4T9+X0+F
H2EgOWVf1k7Ba9l6+sIlavOq5VRt/Ee7f/duDRSLt0sW+iV70g3nVtEocSM4d7cl
dFQNTQ6erqZ1wuEaI6GYs72KuM4rbHiDkae0z/zHuCIuIg4dL6u+IXaBPrHsKFvU
i/8A4ZoPYWaxnnTTwEW/7XVEv1U9+UAfFV4kmLF/BnhaCWlzSnXYjBiBNT1nf0or
BhVXkuwgBPczJZ4tzbdO2gFYV/6RbMtcV3IapFhlaDbmyoFF1krxTODJL8fUbiRi
Lr9+IrYtuuFSnmZ7Ja2xoLFiGGbYRJtmg8jF2rLBaDOTQQzr2ysTypbkM4Ai/XAM
ny0f0S/rzgiEJUeLzBaKgllRUuV+r5BScMP0NK4h2niDy45V3F+aDrFa0StlnZwN
+vyIAwwc9AF8HIXSXlZ2M2TEHKDY0HGh3ifmGANtjF/GbdAdTMdVkyNOQow8fYMM
+yFXyNKELKB2rXR1w/RNRi22wKFA9X2zMVTp47ZWENb4lIqpuxrfzZ9BSQVxp3u/
KLI8NhYw9HTtP0TX5KaeKUAxI1dKBWr2miF7UNtzMq7W8oQm8AIfYBv0YQ/L+zXW
Tu9W2aKgCe2Fq5CX9gBraD9Ncm13b9ty3yyJNgwV1UP1q7v0KmWCIolS/hJ0xW8P
fWvX3GpSbPPTIulfogoXhz1ZG+3UNJYiPMi1wREfbzaufRn5ggs8gvB/2G20O5fa
achVy/WdytGTmuQ2DwVJzHiKkuhcBHNk35s8sVn2muFjVn59Sk0/uixUBVEbYerB
l56NDzK0KJuSciXdomQ8OpFyR68HQpIqW8XNKCPan5+U4l/JkHgeIzJJtQiK5y4r
awjsmrho+zo0yb2dcSm6LZHevhamLzzPaRQDBTfhuGLqzOzNkTQOnOWTBO2W2gO+
K02lWSKaslDt0bpPSx+wP14mOpCioMyHmsngi/J93ahgzB7lgeLrA8fNqYINgkAO
VZYA0jFqMhzf0BM/O3Nz5Xb5C6UZraajHyL7QzrE/BYudUemJTaRKpNwzjPnDThv
6NCfe8GO9IdDHwPDTVZI4tlgJA1U1J7eGRIxvyAilU9QFmczVnXSMjiG0M1lVRal
zlqATc6NB7o22WKpUCaKXKLsFBI7a6wZD50PsNWa4I7nLv6wehqIJ+dnqFySlWUs
U6HWiaPalOPqd6a6zB9qGWzCVeLApcPbRSRY29T2y+TEQMOsWzIyJHYSiAX3G6Pa
+qjf19w169/diHziaJ2wMtm0iqK3XLLLj70XXeQGsmD+x4HE92NAdY+KlI6tXmZT
7vK3y//Ni9X9AhD6H9oMgnwu1R9+DA/eq+Fhq2kAcx0x6tZ2efu4vMu6aNnEiOGN
s5r6AwXHQiiR7EjMJLJ0LA+nw8sIz83yfJYT1Tmu4rIFg5qOg7p2JWB5DGFu1+8U
IJhT1e3ir+qFvkeuDXTufonKavrWmccit/lz+dFtOy58eIFChbH8ecepMhB0HsY4
UVrTS5nXzt6aqJgr/YKMA8vB6YZ/K1OU/Xee/QQuKxl2bNbYyDN4T8xKX2wmifId
TP9TIFkOgL7Wqt9u7mnXwC4Id4l1gcJ0FLfjkdTzd3Mu2S+ouM1mqeJhg2EGXwpb
oOTwRj7F/afbSgjy/BcNBaXQ5LvzeeZnOGbcIb7GTBY/PVZ58qpqnGmEUDy4Cphc
r5uv7lxTPreVKyFewewpJE1+tCTmuPHxYYgnVdv9pDeWihM6CWsaZZETdF1S9WRd
g7pnvpAkMUehpBBYVaN/5asrehJozyyhK1c+I+D7WJrFraS9NHabgrDjrEkpFeJm
9pys13YAUW5qG4kTQxrAdPVLXIO5K4rirUvk4rSnmpo4x0AwkQcsp6QiHR1ICUgT
lR1Kr7d2go4mvHTTkTqTbMRHnbesNt0KgIxR2yeMBi00rXl8g71+Sz1f3IaEXD/E
sqePsUXjx1NPfDLdXSoXmrgl5Gtsgz1keWi+30SeLNHcYT73JS2/80CdITzjCLQ/
rGMvhjrdRj97VP49MxFyfk33omxHqupPsvIPs2h7U+AudybPgcHD80B5CYGJfQ07
0TKM40bRQWkSIuZ+g30lcVyzeLjWYRUZCykhdvtMqBfT5rhs4LZTy1cXVaK9PHLD
vnjtFGk9aO2vfptRczOtLv4LSxHJCf4Z4rJILR8P1RXSNccOC3Oye8mWZwhOjZQV
L5aXMTPs6vhpfTS81kVr7hz5ZvJ2o0hycbyZb8rvzqKdbA/HRlJ5T7hGHvVkU702
jMOddpxXh25uuZE75tqGgmeaOfjoKiXuegu4UA2a6D+/Ysm5Hf5+5ivGTFIIsHQy
wzNttOlaJY/5mKit3BuL+z0Mvz8Fy73B/zB7nuvyflRzCvEpuV3R3bT4vSNxA3Lr
8o88Y34tUWACk1yOOq9FoRBr1iFN+J90dmUbi5efa01KodJcrdBJLFzlcRaIlEab
Us4AqrpBL/k0ws7l3e1iL5VHIUDOVwHEelWUTAJLhTEy56h9KsRVk4ZKYqxxaEC5
0CMagTvx0+p99ygX5xOAXFz0aYVESS0m+RaXc6UCFKjqWXMjyPaHNj50Fgm9IhR2
Yke3E4DlOSAeT/fFC3mGN1grssZgQm7sYYXIhImLjC836/7s5OVr7CofXb6hYj/k
Blo+FPGCd90lsMMk60e1u01mN/RYozZTb5v6ht4ohQ7yIAI2o9XM/bWHAFyDTMdZ
7Bxa2eeJNTDYi+Duiezks0+Dh8/iHYginima/Nyb/mBoK9gFfo82EK/QC5kYuMZ4
D2I8Zy3SzRnwL7/t7rNZKDhY7N11uOAYTTwpUinJLnnpdhqTz6WNAcM+THVHan3w
PQlFuPAzhQ3foIDXQdnc2BLfZuKWb6t4womAu9GhhVLRJg9ypWD9BOihfb5PR168
9m4vVq7U/o3kEi20IZkvCVq4avWF76GmN3k9RTiALA9soTxZnO6HZig6TPyZvNsZ
MmA9SeziiBklGEdZHFj1OJ9G+Ib8Y/hoUj1jjQKdvpUv4t4rY6IBy2joG2TP2slu
lEHJDwwBPJ117u9RfCMJCnbRfE1onNVm5nvZdemVy6OgfnWVm84knQkjHMdp7vfm
+f9M/c6K3Ehy7OtJa7jfKaqI10YFG3hf0yYMrn9/GuAGjTzRpumBH3eKCO7oIoul
yjJpUEaz8T4J4IsrGlY0VfWPO0M6RIC9B2APJ3pjYMmP045M5hhiU711fO2g8hlV
pWgXktuKaLmlrbqic5w9+ApsScpSjmBJXHdqDDTdAfhPN13WFDf5qxwBoPpZ/hhb
RMtaCojbuDNlVbSRBUp0STLM0JAvOLeU3GfwcP0pYOg6b6bptVzrvrYjQOI6ANRO
gq9EB02wFbQbzycbS8UGefye+MIIVDV947ac8HD+GUxKl1WuEibk+NhemcqBKnXq
APSq51Eaw+qcaIDwUkHub7EjAIxe90bIiC9wpBRkb6F0KcUwzF8y8/WYKNUfWgBw
ZsFfYg0bn0cQxYymtVjfyWl/0eeWj4opr9xKcvijosU86HSvRHBG/CJyB5Hzwb69
Lx1mqd3kgHuHHr/MFE1bDXP5fIJgw+qKZHNf41aMsZzxXJjuNtWLiDCvfiQKulIg
bYHiB2rSwpzq6oi99BNNFIufB5uNWxa67n9Cj6QUt1ReNTkkqtyOaKwSXa0O22TD
eQsP7QykJj8D21kPejxM/Gv+T8OY2Qve04AokgXMCmyme5dk3820kl6iGBtEodYf
aGj0Sa6xs7nhmdleuHPlTsqEMTnICnHWnlYcZ4v3bUNcaBQEnld+9NBIWRqZq9Pq
ZAsAygS5HCTFr1HjJ/MBCdmgvCgJzdarQHxz9HFJbijYJMXetI9ZqolYg5957pFA
BFlaGUTFkR6aBSn+OFTPWp9UwYL/OG5HcaTHsQLps6wzgT95xgWFTYR8H83xKB9Z
8Nc/mjZ1ZVHuPrAq9jLynHWMfk0wj/sQ8Fpw17vjkMFtdt9kYgLe3Jd9X3BU2SCf
+tbIOq01Qy5Jrjk5nky3tkhdUtXHdih4Qoh4YndCWBQX3thyLamanDXU/idbH9ns
eN+74DX4syLgrAQaiZMSc42RgBSm6RCr8zexKypvayI4mRQcASxI/4JF1C4MEylc
wPldTVtjP3LOM/F0fBoBYkuyYzCYMyECcOsbklWFsFJNBqW4yWyx4p0qsue6URC4
tV4Ljujq8nRBqPM8QB24DRRXAoGuSygZ6PnI1uaB5w47k0dXTGgITlJ9oHwzPRBk
Dif322uqS6aQ+CaHQp64/NylJFZZ5wmpnnG9KNYL5LNTfWUdcwWjwHgAjesvNMGT
Icm9SmAaHTRtTJj+cNX51tyTlx26Si+m1e69vbgcBsRXu2Nh5aYvHs/CbP1xL08l
BXpohozlxehEgaBC/zU3S1fqRAhtiHTkXoEklxUdoKaU1Ykn1shSeuAY+GQ6ZLbA
1X22lUAqbRedIh5HAXWXyp+pOgX8jz4J6orfFddEeZ6RdVJ5dVPVU6nXucCAloMP
4l237jeljKbeRcLrSXCinohwErqFgXEBebqeC/+MG8P7KbTmUm01Up7veErgON40
/0TEI7Lssn6c49RnCKOxVWr8tRtPewJM8b0lVpDVIWeCx+Z95k09rHv7WJJT0HoJ
rTmOPshYRKdOlQGxi80OrIFdNFZJ3b0I5LFBbGBI/ysb5oktlYbm4CL0vJ/QPDjV
FihddVzyo0f9BBgxT1QP4677hnNZjWUiug3jBvywpxaDvZMNLjmJQVESuFcy5mPr
dD5kCOw//3+/X0xuAKOuisHuRl/pcxSNJtmTxouvDhzsN3sHasyTmq8v8EFHRsI5
0wbNnW9TSiE4oaLmPBH+Eb1fpx8P6+7Jd3bWYazCUlGMp7V/fMBBFxBRiZQf8Izq
dqP8Z6T3Jx0Pmnj8O5JnJcbMWz/V6sWD2kvYfLrhahMUuIp8kjrYktanbGQofE8R
nD/+/INfXD64MaKf0bWFaJR09JGx0MvdExTsJF2fIQRnJH1q9qc9BzL5s+1xWSM/
1papFQO6FsrF5sXlUdqlwlRbHb4CDu/e7SBVRlT6H2Ezexdw58/a3WlTrPVn69lx
SWV91lNdjGRMYBWFyxkb6hfIVyR5+B+SpZDXZFsKenRSxNnqKsXeNNh/g4trtssV
+Ye0KxvO2W4H0C/CkY8tPhPs0xRPB8AWaHCaCK7iz6zu8jHNEX05LDQ+YBJbOcHV
O7546K4YqK3wTAyO05VRSKHzneDLgMzWeCvNHmOrOIPPICh9hVSEivAY+9AIwqn1
O1t/1eRiaOdfj0y59l6yCo2RCc1CvUyX2/1urKW5uVx6vldIufEj2CUvM5tuc4Xi
mOTRjYUU1zIBCFhKP10b2+xrfWFwEvklJR2CtVZZFiOnU8Y9HPb58aywDe+c67HV
qaZnDETX9Lcvpb5t1eA9HOehmlnqxoNj2mB5zvSgHTc2OL3AWOwaTg7umYQri1IY
hHpGS4Db/0/DUnUG/+wCG6OqVOJfDBveItVMnLU8b50UKsFwSSD0S/nNJpJ4Xjqa
XoK5K6JD250bpzou1+I5NyJW2WasTmots4K1QwrAVQqvOkw05XzBOvUbXkJJOdgY
65yVwZha8M1e3U1KOEbWBIjAfW5EttS7p0+s9Fh3pIvIciR808dsVbBu2NYjGdXF
3NB6r/VC29EMjoTyGm8WUPL0DFR4SP0uQIYPHtuoSS7Ysgqr6k2DHh5ui6ATMeVW
Nb+zZWRSCVSoOe4TARyC5HD8qHDp42heDWJiU9UJhpp6wrMI1vXDkKZAZwIxbjPd
DbGvNqaXT5gE4rEypvbVyAjfys3iScgJwSG13vxRur7K3lFLMFzFokJ2merBYfvQ
ndQslp/Cb3KG7b2UqJbLQNgWhL/a3qi3tSqo8vewYyaE0gbwJIDbvpsk8tj+SjeG
GK5oDuubABehKXgCfhxaW00ZSUJNkiyDoOnxz1qD3cnPG2vlqAOohoScXAXDnkcI
Wa+AfvbxaCNgDxhHle7ADUFw7R/HSd+WjTCNLqccrZcl7a/rJtz6lMN/h9tNpuzV
/3uAKS357ATXFJKhr2e/gmlugulL7/7TvCT+SLOYUZmtx2j9ga8LqpisgM55Ayuh
hoD8Rq250/F/sGzByr6Fh8R7Ih46g59/XOeg3zRCEnxFWy6KZN+C2gOICt0oSBGp
MHe5keJ2gx6imC4O5c5tGwalbHeoe/hYT2OtqbUI14QLo5gr1hbbCtdu0/oZoPem
PMd6UrBIYkSs96t/rTDaiuS0W86qMhvq3Bi7qRgU+9WGbaVK8NMpmLmVWbLlL3wG
eFDVo3RqX+PHKImQ8Z1aA475bokIguYxPzKioKu1/VFKwcCOK1qbvhfgKaGHWrls
LOlnGHQS4eUOX7n+Pj0dO06LaJdFnvnqlR+x+pIlato9mXh31CG3J/sp1iLIvsap
SpSTlnPLB6P3SsyIlY0H0xDMSGAqeBc09mpKVp/2d4zi3LgNqu7dvr3YPSnUF7U9
1GqQQ7reRZcuYFkzeniVMz3JD0CHhLsXLlD04TOe6VuFQOnf9cW8JKete7EAOtv0
nMfM0yf8lUph+uyzl6ibhsrOZF3DpgCqKHq3MiQtOKE5FnYNqx6j1UAGxUN2b1ce
iHsIbXTwuUOc+m58SUqjEXXTlwv71JldRVYXwlvoRjycNFgLtvEorBvnWUpzeumz
37hjIqmHzFk8W1c0to3BHfI7R/KDR3oK6/wtyylmCGpBGleSB+CSMXlWD3NYrPnu
wUkrfwqAVuDHVytpouAAryHhXdf7nyejuKfvGe8UUmrmSAEmsGIYIVTVKaGzU8F1
zaXsl/P+6mYBEjWu4FCMlJ1EbzgLHKM7h545H+ZG/wX8jpCQvc76YHbk8+ou+rls
Kt1tL3ePWksTDMSGxDdLnQae/v4MtdKGXxKq8JUkwQLR3OHKYDl1emQTopVcXu3d
zl3Qy9R+p+/eAGOim2B2M09G0/aFbKYdY1Uuf47fZXMA2t5XuVneTf1XH7eMmwMX
LG0+4G5DEQ4XK9+KSwaoyZ8ITVURVcMBXyPFk9c9MELiHg9YDfPvIZLQFd6keBGb
0s+y1oZsgyLNeUokY966zA92XVIgzvGR7WaU2vq6ojhORaS5mmMbvK7xdP3HNot6
iGjoK/VH7sbvJDG90u35jfkXma/V3+Bkf1K2U/xDNglIFRIXGSRhiebJQMnEs3tK
ziGHhg3I6jMbfr1Z6mSxdtZvif8t48S2GddiLGKVyIn3Pr9w7ktOTBoeqIY2VXO6
aQOlACjORXXIIMpqsd8+XcYSOfpwRNnoMymIpK4J5I6Q8f/t6PlydDLR6ecnqDVL
rN7AmJJvRxdGyts7xOckzJUJwumy83+uzHvEtzt2RPea0nR/uj5U04qP/wpRCB8L
Si6SpR7DU0tns17zFTjyphenPd3eIn9HavGiaJFSC6H/fjeORt1R3d3gF8GbA7UW
iBqVWRGMwrojJeupmNjHugIq0rKsOgWXJDBa/kHu/7vfraCLZGqX9uHskoVhG/SZ
rWU5+0fUnvVy2NzgKugoP1TWe+BjNLTMyNQPf5m1A0ncTI5FMg9z42CvO/fJanWj
JK3CbPHIlxAqUWUSEpT7kjkZOtpeYiFoYAHViO2tv9egP9Was9wYfX8BkeQ18ImJ
8RvIplPybbTzjGajA5wopiWgqWjgCEuIrCS6djde/w9Iobvr5pl25+SuBe4m5t3p
fgHEjidKImhAl0Wj5DA4NGFnGsrd1AHmOCKfaDcJT9/UsBIaBxZ+RaQTWfNgqcEB
6FiMBKW2nIZ1/wkk/3H5izIVxTTD3feLgskgmV6poSq21/yJ1agNRBJ5gbFDJvcI
HKWjDlKRK76zixotL19B6SZWLhGIl+ttBUPpNdLOAIigPXDvFyNT3MBqNKi2AqUb
B9q81igXlHqwvO+ziplOlsPtjkoCFy+GQbDiLZyht7W6etIZy9qK+e49fjxhcIN8
e3tB27oP/WgJrGiGjrJnjOVbe1NQVkX82AAj7kTYoPMowo7eb4AhKNE3aAz+z6/s
SSwZgRd9TigtPby9/ChF1HWyQhjOXrzmKv3I6NTDrY6JfXHmRv7TeIw8DGU3MGE2
+bS5KSaEdYWmyLLM52xcHHNLwfaAsPNJfJ145bhD0ScSp0y4DcuW/x0ocKAo6NP0
7IVp62U9hkNR+oFi4NBUOEqT1dXNXRp4H/n8cvTL210SSEQhWlltlCguMbR+5bbB
gXZ7pR5hDv4xYK93LUB44z29hmYV06bVcTO4D93f2rfhNDYupYrroLdZSP95xRB/
hi3huq3Y9QxTWSgjiJzZTLs31k10Nbkg1KSXiSpCwPg61SbdNaDTV3QvAfiIwdv2
qkh/lU21fTS7kvp8CXLqFu7/YMFIoqKin9xSNuFO0Eat5RdqfZdouziCC6qycHs8
q8hEEdpV951ivJ6bkQxKSWQdr2wcxtSfXUKPbYBIciOOG2Hq9/T/IhGn3LVsQ7KK
KxXiIcyyUjzsoECSZPg+exUJ043MJlh4gABAoObJWlBq7yaeBasovS9ySePDrZBG
xB9C4J4iLBqJjwyq3WFebCClLgQmQR6oD4S4Covso+BX8dNbUygtoOkmBQHlZFbh
O8j8MPWxfQde7c2SD5196ghe3DRi+HryfPaf167eFODWHiqcl2rz07I7nQhR8vzr
51MI90dym34sBEeJyoeT28nZCXjhu+2s/QKzjmuxg2F7iWg0HiYPFqa5/d1cTkhm
xp+7xrwaJ8UwEoNBDZowNGDlrArum5B9Uy8QCudFoEhMyH2K9hvAvD4PV/0+ax4m
/ce85LwMf4xkzhxntl/z8iv8h0PH3De+DWY+whwwdeNJeZ+5Ut9eBupU2Xbhumwa
xifKPyqgCE0DdkeluqO2EJOG2pZGbrtzFSOpQ/6x79yZKJ56kBlM3XEmJjfS25mU
bdgKK7qzvqWteJ0Nlztu7c3jAVzKp+f1Kqsv+VzFyMYOTjE3/XhBVyIzEE1KuySx
c1Td7ctgjMJTclgJFwPWqbs6PMUZ0YU/qJ8KwplERUtVC1/9qH9C+MlBGielGKWP
9ohrTo4aWTCEeuri8CT2eL1GQAHVK2TCafZrfpX1HXTwGJ4U3ml5JtzDHLDRlbZG
b5h5U57pjNO+j11fmcZEK+hoDlqOJ8t6ut14oqgCesyRjzQthb4hZ7c1OG9N3rvy
pc6KJui8wvgvzf7KcYK0+1j7jk950fjV5PVuE1Pqlj2R775lgJQoxNM6l3O8Tk1Z
oVOFLc53VUL1YlJob4hSLmC/B8QsEeb94ZlKXUMV1LNzy33R/YOuZ35E76Z5yesQ
CyC6a2D+aTrsKeaFJcb/vVNTdPuoW1ohf03/uRCIDZrJbLVYSYi92ClaRIxzl85B
8hrN+DdvmYCjOCZX9sGoZgYTg4+Dn8KM0ndILgLq33K+7dE+MS8po3YNnKdf7uF7
IgQ0BOFoPsUEXV53bQkU7MdEP5EGAIZDKp81z6iQirciUSEnhF+Wa5lBq5YRKYv3
uxe8WGIihekTiZv4sTy/6ixaj8+g2dzZ6UkvJw2st1/PpE2e05vARTbwzNCvaWC0
FJiI6WZ/9dZh5eNKTAJaRXDeaw6cSPOijP8nwKGnsHNuOzJsbKVAjTnADR1k5XLb
qv0MTbem9bF9mBCgaQ6IZhlpaoNzw13haIbxx8a2dYqZcZAtziofuE4Sdv5DaRNM
oQ1fK7W1pcPdG+2P6UE4Kek/LzSg2Jc0609rXjFVtyzvsB7lw+AQ/ne7HfviE/zU
rdZnicfBaXZ979BIGi5P+0hNoS61E17r3mhMpIkCGnaiUiaAjO3n4QelhR8USSfm
/sZYi4iiQ9zH5wWa/3/Y/njduN2aQIhl1GIa2vn3nXKaxjGQzXtdCA4lxEgjAI8L
0iTLgjza8KgQGxzCOmFmOt4+6e2WfQlig2rdqulRe5MhSjJGqLGo0CHf4MhgYc1D
fWmGKdiW0zIlyRHQP0VDJmU/ozZ4VXG+tbFsaxeuhejjaJ+qhOUPH8i/9rJaudgm
HJ1VHc193GT7VMCfecffo3jfgiW3s2ElqzHQIiONxgM+CY5STTukvm860bQgS5p9
7FHBfI8HYcpiSixUkHe+0iOrWSPQvK1cRKmoSXS5gDzB92e8jM819pswWKhKGJPc
eiFH7qlmJyuo1b9dr9uR4GcAKideQY2c+N+9lByWQU9HqFQHMR1wg3zbw1ldGk0r
4t0aBafZRaCw1IHmJbkoGEtqsHhenCPm751P+rrBzFBNM2EYqYRohrsBRGwjuaX/
FmRWdYWfvszQiMOR0nLKUproaSFF6/lINZvcKrOND05GSl0A3uGIzRvOorimoAhv
bozyK6upwbTz7LbSVIHubIzau+l15vQPGHFcC5VDwIGwy1IIVPpwFt25ruOh4hA6
HOgTjDj03CbqPp3zzTjfMh8rNzd3sEDu12lE16W7MOxl6nX25f1OqsQbHAgvSr5u
01XYwFyHByBL3x6RUkalPi5IFUG6L5VA7b/6aB4YD+rPlAkPp0fFvRF6AUtAmCdp
vd3vmR3mvVU+oBrhW02DjZ4ZOhs5vSvGCZkfwCVZDrWkoeVshOlSEz3Ne4ultUJB
fQed4QuEY58s4cpw8OhK/PlBFe5AEe5aWyRfkKDfIqyIjPanBqmjQCZS1fUfGmCO
PoHaGI7mPmx37RWf33hD6nkY6Dfj8zeyudzdpKi0LEV81rJR2GuNF+kLt+i1jfG6
R3ElLsx0lA2jMqE81xkJLshz8lDp1ENKytVzRnfFyLRdyAjXvNxASLV/cjld9cDT
SbbZ94K9p5B5+JfIbelBDOYrN6RXldkxwE1sw5nm3TJNfcpmj0Nb9VIyK2lwgjA2
fUD11O6aqbmid/8BnzQjFbNIBXKt1i8xJPd0O6BKfXKjXjBqtXPw1aLWScjYPIeP
9r9mWEeNPVNYOxgNKhDadyZXPOjfIh+7GFSxAF70Jw0xR+PwPqzZMtn/VrpWD6LI
oCo64JlWZ4UrBRR60JkJWS1KEu83wNEXT5rYQsge5YE7DBRXVhQnegVGuyfsGgaj
hRe9ZqIo8MG4Uat2DkkxUcDU3PZr+1GqUpwL5a8IaO5YDoDK2V1XDRlkiN1n9ha4
38M0ZsfOLeP2uBY0RhpYdclwL723eFIfOtS0xgSst4gzK/P320oZB/3XIiMkV+mF
dPIdVhtyvFVNikrUn0j6Zv26dDm5lX6srvaysMhUwdlyvD33Lekjr+HqSmeHaieU
N1X/uRwoSwKTbE1eGgRTklk7g7T2+1FRL/w/eI+zHgkoqO4eW8//7ILtnNi5ES6D
sDdKGsCY6I9Y2YfEUucHsV0N4XOVKERjTZf9jCrPCUbuaEWjTOA5UILFoIliIpC9
aISBTbzST6cdpvvTxPAa6d4xV+O67UTL4GwzqTXLHCJ5EPER2STvuMZ51Waag9UQ
ROHB8AtLt8aJ2N37Ny6uLR4MaBfNT9TUKprUuJyicAm7fGa8Ldz8M+QAj0GtbAJ+
0sIzqCJdFLwiel3YBbeOevQsBwdlTTsReTYRZbLEuH7Fgr2NwugrPdXcbI9z7626
EKHaDmEvyTr1PLKKfk+plJBmwST76j/w5fbcWrPAZFQOURHtnLZOkQKD2sDRw/zs
eko3YV7xDzktxGNmmYeDwo6MP1Nhu7AHo44Shy09WHfIWQ9QnmWdC7UqlZMJ6oj9
6eGGzI2KNAsnPFlyjbof0Lxh16L/Wu5UMPfOsEYRpc6hgW24+SyHWGzd/86NE8gj
aUodyi1GigN57Np9Dj58AbT1DRPEMGbESYNbfeaiOj5G7HNRs6D82BfSUdJcZfCV
dFPb6Htmgrhb+xK4iAyIjSBIABL14GJEYZI7CR8eTW75Aio/3EjxVaUSIDXh/Yzf
DwSiShQOhROArUkQR67HKie7A/n38SNWN2aBgSS7ZpkPjYc5N+c9VeyBq4m6dPRa
UE0co9G0YML6dQ7N4RaOcvAmk9pZgFQ9CxglSDR77KUYKVRn+SEXlAXroByULcfF
BztCHao9GDNCntD0Y8RFEveCkalP3L4mxMsnz+I7gM1H0JZzeKwXQwcLZLEWRhI3
7hjyqHWWj45j45+KFBOLAI/DwGxIyRb8LVLDl+Vs7k5oFPmQQNHDkDe2kARnt33S
kjtBKEl5eGfiu7TwjSDWT//EkAFj7V6kh7hLTytjyYU6n8J3fDaljcEV9DJW7qoV
LRDXmo8iVt6qdvRC23taZNX/HYaW3mqk0Ndvgr8g/E2WzDbHG3O/rn+S5oWbQ49a
L18DzB6FHNXFVDlW/didJlhrf4IQ+rRgF6dJzoHa0gWCy+777pie4xxwuw1Q+2Mm
WDUMGb0QPGxGg+xEhOnGNzEJvWDvrrTGH0OUvribStfoYoELzZn68c2TmZDe22ro
jhOG6CJ/ZIlyvmUO41xaW8zB5Uf03P061anljyK2aHLIJ+SI2U4LfdoyMMv6+6FF
DEYFxl3QshSM/ZJjfpOH33q7ofeXaC56P1xsizPtdz86pxsqghU5sDCOP73ZBWvI
rRuNZ0HLRQXOlz7whIGVxymWLaHLcA6sQo6X0vY7phJs/QBkxSDx5stJUJEhUxsR
2aje8q0LAad0FUPfmx9n482L3z0lpey03pO2LloxL7to2UhXTFJyNJQ/ytmrGYfn
CWts1iw/+nCdAManCRSVoQhWSXFRkzSDTxGtFhjaVAvGsRLQlkqSPB+n9wGO1AqW
BwvuxJzvT2EAl9lNkImFgOg7l3uWGmVv2p3Do0QJsyT28KmEcgMaEP+YK7YHyKQ2
EyLaivbAJMkK0kdG0pblqnamdXBmUexrTELRCWQ1o1zcYMJLMSlMgXq8O4wGWPHo
Yj+tlKjIGi3Edjy4+EkAyuM1RTUV3miJqP4U58GosSJntvLMQnUDKfetKm2zJ7nE
Y3zRgJunZeWGYMv7XMJU+uTsLi7MfZf4qlKU3miRZYXnRfF3VzGRx8npv8hgFYXb
xjKFJdl4czi61OaZwao7aJL7/6hPkoHQ+bkkj4qZi+j9CGZDaV6ah9CJ1xBtSu/k
7zCE0Gzukv5fuyMWEIkIOsQqzHvQXKFZcJNpUdBkRpGu0QT2oeEoRXe7SMCvozmW
rKhBKvYL+1w/QZg6YyGSynSDlUaurqixWfH8CJpRzuzhamhopb1vTb7T0X1CNUyy
2o8xLTnBm40eE5Rx4Mu4Gx/LOCzNcB44h1NuXpQ+wDV/kfc8tF2Yx643MZ3RLmBy
5Cl3tTR9o4xWDZbJ+fXQ77e3qvPWMWvMERtitFczO5ntvgeWYAjmGDTVr7XSalda
IVIf8VzFYw6VJotXUhQmqNCUaxKWGznB96xImTiOgdA+brLxOi/NKgh8AXoS0XT2
vNMf9UA07rhlXwiLEc0LgBWveZmP9ZLgpnZfhPM+dbapbmaYM1CctcC5ouwPQOmz
HTxppFa4dqtF8MvD8+gLP1uD5acD1hTG9aSnYiWFhwGhxcNa5doEhPhn++eU6ve9
RAERhcMHBze9jmokbxieWinnyMxpcEYpSAzuaA0rqRHUbyuVxipNmT5eWes/1fnw
Xhy3aUeQjb7JrygJxM5oC7/TvtT3bLV3gprAeFypxaw3WZs/tiFL09U6mH0MQK4p
/+e68XL8f5g0MPqc8KO/3K1HyZRPZpRlpJ+QPHNN0zynP9q6cja23W8Fr2F+CsKL
/pIb5FHgDm9H0XMNLchCIp9lF95UGeYI6YSgZjFOtwl7+kOV6JNC0gV868PZkUTY
rwQLG8683mnBS7Ar9LqUi083qUPfe4TRcdetaK6OtfkZxgOQTvSIvgB+QOP5Kwiv
7HPdWQ4WZweUP2/dgxtgK34jEBEhemYSvaS5mb/SEhqsxUqtjSL45AN9Nr6t8yaW
vHYAzkoPblFwWFimXivwXJxqrP9mEEf3i97getxq4d0OvVCPtFm7uQj6zEsynqK1
id5KHvCv+rku6QzqtxwyS9rkM87z+5vev+0RsGO4AKi13KUeXdb8SUYZFMzzvjCA
Kd3MWHB/VK0y2VFdvCiR8wg8Rsu4LFcEnHbaz1R5eQJGG+8J3wk682A2OtMA3uuy
ttmWKUa8a7cOD+6poG9gsMY2XS2s42mBZQ8PuapNIGJMkXEeRkc7qtvsklId+2IG
/4daQf8m18mSWYZtRmi2QKHLhGMB2rKc5eNiRX934yCAQqGfzFYqvJubTphdTEVL
WYnYHZpFcHPUxutBU67ZDWkRLHKgazUlcIDoS1zbp+2X/6dtuZhD9hEbT528o4uT
VN3EHqY+16uZ3RCjSltb5hBURmM1I+U1eWHrSx3UGxtFXiBm7lHL9fGqJpKnCumH
jNqt72bx1wEzqYBv2+LKfAW+VHbESTUa5kTjG/qizNvO2pU60RF6Aj5Im4glg1zO
hKXjFprMI+JM2K0ilo7LZJ9wjXxVYW2VhiLinMINWVDEmBL841dZI/bhxa6jMzx2
4JrSpJSjCrH+62yYPtbk5gQTW6/Xmt7V+xVsGA8H3issSkQpPPs3hHEIN6WOLPMX
PdpPHU3ao0xS+kyjoLvD2pu8r2mFSAhM4Ygm7Fg2hD1cQMtvcXlTUAy9q2zZsAVJ
KKRfJH9shkDxN4bis0ugdd68JTKpJ6MTziTLJ2fOz6ObWb/VUw8odomsizCol8W+
WbMlQei9VVw4YxsaAb1XhlU+iM3qCKCAX4IMJC+6Sv6EL8rermtqvm+lfpssqgFX
Rn8HnCYYgFGY2HiCwbrc46juzCHBapAr1wVhgBD06jwEYbmxA1iDid8zs4MYDY/5
FDYfGmwpoRCGL2sNhAj1LAwHiJJY0G6vTmjkyQvDNye/lFX/TsB3EToEdYj97TX7
arPgnuwLMCP0ax/MVh/U28YdfwJpxJRZszirvTvIOuFwV2f8O+vdjUtSXVDMsr0C
NXqwyvrHSfDzlUKAXf6dXyhdFm0bQfMgT+qGoN4BE2hwyZCeZzR5iPor1O0c7E6g
TeafhbYPWJYRKB/rOTJzwz8JWfxWz4TVTGNHgsNCW9PgA9fLlS4o+8I0FpcvTVCM
PGefawj9jG8OqtYlRvObbPBQ0+gN6cQW/zwM5gE2AZBv9oJdrTcYa82WBqOh0HTl
epsXEYNZeWCHHfwxVZrazL3K+q0QF9f6e53EUeRPdYyVVPLCmpzes8AKt5rInWbk
AIaxvlrpx8UHkWWW38BM4bJIN8I+9eDpnPcfOc8F2d1r3B14BF97Zf1c6IPOpcto
By05ZKhnWD22c/2bitabPcTGOSmLbv1Nn+RACv3TTxpOtlRQ+nxrNHhzhbIitbvt
KWSYPYYcV9FAKybRHP6qw1dEcA9CtXEGVfBlM7svtwPeUFhxe5irwKsHLCPxFD6Z
4L+9cJ0z4WrRutXAv3zNNb1E+EHSJZITqeBe40SRamjwOmJMKuiFaEzljLlK52Tc
lwCTE5x1wafI+wVp8urBikWu/a9Ave/UxjnH5C586OWJ0x5RRTanXOp40MozKeiZ
BoizJ3UnrH2dcLCtFk5/bwjIKMSMMTFxo0exldKuxMfZyzofSVYbGw0zYsVUI9MR
8B9NCbY8hwlimMDnkQfOt46Y8wkEzie6U6qjKp7TshjjW1G6sgIMgeF9vNuyHfej
7/bsubkN4ChRbxDN1FneyD0QpNtdXL0vVU95cQMfAjKVfkYvf9Vtfw+afYE27Lby
Z6kj4QYnWOBldOjTmLqRL88lyNE3K6UrQoc+qz2uQbqJEvI1YPkvU55Y0naXacl8
pcUyIwOPKfPr+bLaDPOxOlK40EO8pBo/M/v+kOFQQc1h+gfArbQaTcmnnXeevUMj
QVTxOrTSYxeUvSsUhM4XGUc1uwO8/PYo4vQirfbgPWwLHAwS7DmIUV+lY+pBkiA0
7wxEv8eVD32oI+ERA/oDD1AB0HqQuAq6DKzeAAqFn3wYvfvOeTrjDr6BoE3Zwy8e
o9PIfaAkejJ3sRC4ZUIZBJokedePuSOYrv8budx03Hzs4cGKuMYedVgwr/yID0Wp
+NIkXsRBF26n1m6q6NPDxplUSU6/FEvAV93qzdaVs3Z+c8eeSOleh1fRnkSL9D7j
IQeQs4m8HuotLv7dAJcL2/h+e7G/+dfZv1r5q390gWxnuPOh0Ho70gdylEA6dkR0
+BDsStz3eItJJ8JTVo10heGLuY4BB4kQ0PtJvWAEY0tQBxYzxYhuYPZ8EghEq9bz
pMc2V0G18+jiUFaq+G4BWwX7Y6pk4ImdueMUT0w4OG83O+nlp6jz8H2G9X3kUSJj
GQ0hMOcEpiL3VdmzBSx23CnocAFE+ieS7+WNQQ6ToD8/yaDDu22VSBoteIOVRrBF
4tGTK8BQSNy6eiKamAHz4rjPgcd7/Yu7Vd4lbCIfQC7kPeJk0ozPE3Af0xBzS1yP
24rQK3RpafZWyG8k4g5IzjhM5MYjffffqRxKtt5NVfXyVI9NbXhNW4X0ZFcW2c2O
V9c3U+iVSro+tJgIm2wLelpHj/k4+N+UZucflaJ/B/VB+0/FKEfThilyK4IPzGcE
iy4W2rMnJWDoF3ErljW8iXlN4WjUEhCS039erpZEzmhTRQk6d6UPrBl6pzKlZ4Xa
XWZbqAVqrnisgYKvKrjWF99b9rcr/xpWb+WiPL45GkKDTpy814QTInx8bdy2zuU4
+rtZq1ki0YZ97LpO3WPmVFSp3KlW17WwXsiZkUA59dBIzJBCxwrGJEl1n/wtsszD
Gh9UCQ/PshNePCid+TeedqaJb3/8UObnoLamSWyZQRZdABTmh8vIq3zUzTCpkmw0
3XoK2sG9bPDJciSQhsluk8UtzD8YzLCxgaxt5clCTel8ps4HBBa3lrBYe+AKINrF
a1zlLTOdir8A3kH03YCgf8GQgxQRE+DnUtP8mopbi0Koooi4gZn7cx3Y5+ewZB2s
hYgN0UqDli5T8Rek/K1oEy3FGNsA6dkj9hOwLvOSsCvnH5gsDOQXh8cMQ67futN/
PLkZVlA6cYQJeWie/8RDvVQGieBk2RvgQaWStE7ardwZpafz8Wef1ai4zqE5cWPq
7o6bTv/7ts6WAdnbpMAbIv2jVyZzmfEtC3jc2/saMbuF6Ny8uxUYibXFT8EVOCwT
dW6OQ9DFm/Po0Fl1u3gEL5MVf6myl6jTA5q8C6T8BAkaDqYXGV3ciQoJomUZcCB/
QocJtOoD7oAglBWT2xFGxiA3Rkqe/0Xhg1Yj2sG2CLkAyXvim3nkdgiTjjExG/2f
8M4mvSXltHX2Han/cCWtgA7lkJoaw4+QBpGLhTnnr0014KcZI0HRdqrBJmefLqSE
s9nPJgKCLMh053AiCAKjz3HIqB0d+1Xbjv7X45/TVEYYY0ZgNpPYFaB8jLHtYgd1
jd7vdlyRXw0/g2szqnWypYo4qG1LUIx2m495T0TwGiO+F4GdimvM0JWjcB8wDgpN
D22DNBjy1FgfBDNXAJHxaHkwTrMGdauH/yx1e+p/oUEbVwLNfk2XQTCeGw97V9SB
JynSTF0M/eSbzLdXXEFoZMBb3Yun6nzsiEgXr4kvVvjZwnHBARGzIyzt1bTfFyfy
vbIlzt5yA6ogaYV16LtfoacHm8eH2s8CvmLnM8Paa0qF94E31XQXzC7KdMyichdP
fRhz6PNQVBDfknJOg6ecyI2al8xlVhW6PKyFVg+bbaxVG66DuAAp/a2ribxFMJpG
hHAsnudNzIX8UdaHt0rD1QxslKK6cCv4V12yv752M10xsWwDvhNqSh/hN3bpWs1q
648/K9lah196bwJp4hCSWylHKbhfOB82wkm2bj9XMOG/90PsEc+YZ3i6FQv4lx8u
HItbjXA9gU0FdSDzE9FCRM7L4KmlNtmkyhM7KrI43w0a219Tcr4+2X82w1DrkJfw
q6//qdZVljudbdtLhg==
=n96D
-----END PGP MESSAGE-----
